%
(CurvedTopRoughing)
(T1  D=0.25 CR=0 - ZMIN=-0.81 - flat end mill)
G90
G17
G20
G28 G91 Z0
G90

(2D Contour1)
M9
T1 M6
S1800 M3
G54
M9
G0 X-2.025 Y1.45
Z0.6
Z0.2394
G1 Z-0.175 F13.12
G19 G2 Y1.425 Z-0.2 J-0.025 K0
G1 Y1.4 F30
G17 G3 X-2 Y1.375 I0.025 J0
G1 X2 F39.37
G2 X2.125 Y1.25 I0 J-0.125
G1 Y-1.25
G2 X2 Y-1.375 I-0.125 J0
G1 X-2
G2 X-2.125 Y-1.25 I0 J0.125
G1 Y1.25
G2 X-2 Y1.375 I0.125 J0
G3 X-1.975 Y1.4 I0 J0.025 F30
G1 Y1.425
G19 G3 Y1.45 Z-0.175 J0 K0.025
G0 Z0.2
X-2.025
G1 Z0.0394 F13.12
Z-0.375
G2 Y1.425 Z-0.4 J-0.025 K0
G1 Y1.4 F30
G17 G3 X-2 Y1.375 I0.025 J0
G1 X2 F39.37
G2 X2.125 Y1.25 I0 J-0.125
G1 Y-1.25
G2 X2 Y-1.375 I-0.125 J0
G1 X-2
G2 X-2.125 Y-1.25 I0 J0.125
G1 Y1.25
G2 X-2 Y1.375 I0.125 J0
G3 X-1.975 Y1.4 I0 J0.025 F30
G1 Y1.425
G19 G3 Y1.45 Z-0.375 J0 K0.025
G0 Z0.2
X-2.025
G1 Z-0.1606 F13.12
Z-0.575
G2 Y1.425 Z-0.6 J-0.025 K0
G1 Y1.4 F30
G17 G3 X-2 Y1.375 I0.025 J0
G1 X-1.25 F39.37
Z-0.56
X-0.75
Z-0.6 F13.12
X0.75 F39.37
Z-0.56
X1.25
Z-0.6 F13.12
X2 F39.37
G2 X2.125 Y1.25 I0 J-0.125
G1 Y0.25
Z-0.56
Y-0.25
Z-0.6 F13.12
Y-1.25 F39.37
G2 X2 Y-1.375 I-0.125 J0
G1 X1.25
Z-0.56
X0.75
Z-0.6 F13.12
X-0.75 F39.37
Z-0.56
X-1.25
Z-0.6 F13.12
X-2 F39.37
G2 X-2.125 Y-1.25 I0 J0.125
G1 Y-0.25
Z-0.56
Y0.25
Z-0.6 F13.12
Y1.25 F39.37
G2 X-2 Y1.375 I0.125 J0
G3 X-1.975 Y1.4 I0 J0.025 F30
G1 Y1.425
G19 G3 Y1.45 Z-0.575 J0 K0.025
G0 Z0.2
X-2.025
G1 Z-0.3606 F13.12
Z-0.68
G2 Y1.425 Z-0.705 J-0.025 K0
G1 Y1.4 F30
G17 G3 X-2 Y1.375 I0.025 J0
G1 X-1.25 F39.37
Z-0.56
X-0.75
Z-0.705 F13.12
X0.75 F39.37
Z-0.56
X1.25
Z-0.705 F13.12
X2 F39.37
G2 X2.125 Y1.25 I0 J-0.125
G1 Y0.25
Z-0.56
Y-0.25
Z-0.705 F13.12
Y-1.25 F39.37
G2 X2 Y-1.375 I-0.125 J0
G1 X1.25
Z-0.56
X0.75
Z-0.705 F13.12
X-0.75 F39.37
Z-0.56
X-1.25
Z-0.705 F13.12
X-2 F39.37
G2 X-2.125 Y-1.25 I0 J0.125
G1 Y-0.25
Z-0.56
Y0.25
Z-0.705 F13.12
Y1.25 F39.37
G2 X-2 Y1.375 I0.125 J0
G3 X-1.975 Y1.4 I0 J0.025 F30
G1 Y1.425
G19 G3 Y1.45 Z-0.68 J0 K0.025
G0 Z0.2
X-2.025
G1 Z-0.4656 F13.12
Z-0.785
G2 Y1.425 Z-0.81 J-0.025 K0
G1 Y1.4 F30
G17 G3 X-2 Y1.375 I0.025 J0
G1 X-1.25 F39.37
Z-0.56
X-0.75
Z-0.81 F13.12
X0.75 F39.37
Z-0.56
X1.25
Z-0.81 F13.12
X2 F39.37
G2 X2.125 Y1.25 I0 J-0.125
G1 Y0.25
Z-0.56
Y-0.25
Z-0.81 F13.12
Y-1.25 F39.37
G2 X2 Y-1.375 I-0.125 J0
G1 X1.25
Z-0.56
X0.75
Z-0.81 F13.12
X-0.75 F39.37
Z-0.56
X-1.25
Z-0.81 F13.12
X-2 F39.37
G2 X-2.125 Y-1.25 I0 J0.125
G1 Y-0.25
Z-0.56
Y0.25
Z-0.81 F13.12
Y1.25 F39.37
G2 X-2 Y1.375 I0.125 J0
G3 X-1.975 Y1.4 I0 J0.025 F30
G1 Y1.425
G19 G3 Y1.45 Z-0.785 J0 K0.025
G0 Z0.6
G17

(Adaptive1)
M9
G0 X-1.7577 Y0.8995
Z0.6
Z0.2
Z0.125
G1 Z0.1 F30
G3 X-1.5211 Y0.8787 Z0.087 I0.1183 J-0.0104 F13.12
X-1.7577 Y0.8995 Z0.0739 I-0.1183 J0.0104
X-1.5211 Y0.8787 Z0.0609 I0.1183 J-0.0104
X-1.7577 Y0.8995 Z0.0479 I-0.1183 J0.0104
X-1.5211 Y0.8787 Z0.0349 I0.1183 J-0.0104
X-1.7577 Y0.8995 Z0.0218 I-0.1183 J0.0104
X-1.5211 Y0.8787 Z0.0088 I0.1183 J-0.0104
X-1.7577 Y0.8995 Z-0.0042 I-0.1183 J0.0104
X-1.5211 Y0.8787 Z-0.0172 I0.1183 J-0.0104
X-1.7577 Y0.8995 Z-0.0303 I-0.1183 J0.0104
X-1.5211 Y0.8787 Z-0.0433 I0.1183 J-0.0104
X-1.7577 Y0.8995 Z-0.0563 I-0.1183 J0.0104
X-1.5211 Y0.8787 Z-0.0694 I0.1183 J-0.0104
X-1.7577 Y0.8995 Z-0.0824 I-0.1183 J0.0104
X-1.5211 Y0.8787 Z-0.0954 I0.1183 J-0.0104
X-1.7577 Y0.8995 Z-0.1084 I-0.1183 J0.0104
X-1.5211 Y0.8787 Z-0.1215 I0.1183 J-0.0104
X-1.7577 Y0.8995 Z-0.1345 I-0.1183 J0.0104
X-1.5211 Y0.8787 Z-0.1475 I0.1183 J-0.0104
X-1.7577 Y0.8995 Z-0.1606 I-0.1183 J0.0104
X-1.5211 Y0.8787 Z-0.1736 I0.1183 J-0.0104
X-1.7577 Y0.8995 Z-0.1866 I-0.1183 J0.0104
X-1.6446 Y0.7705 Z-0.1933 I0.1183 J-0.0104
X-1.5206 Y0.8891 Z-0.2 I0.0052 J0.1186
X-1.7581 I-0.1188 J0
X-1.5206 I0.1188 J0
G1 X-1.5205 Y0.8989 F39.37
X-1.5133 Y0.9372
X-1.5116 Y0.9429
X-1.5105 Y0.9488
X-1.5099 Y0.9548
Y0.9609
X-1.5104 Y0.9674
X-1.5114 Y0.9743
X-1.5132 Y0.9815
X-1.5156 Y0.989
X-1.5189 Y0.9967
X-1.5229 Y1.0045
X-1.5278 Y1.0124
X-1.5335 Y1.0201
X-1.5402 Y1.0277
X-1.5477 Y1.0351
X-1.5561 Y1.042
X-1.5653 Y1.0485
X-1.5753 Y1.0544
X-1.5861 Y1.0596
X-1.5975 Y1.064
X-1.6095 Y1.0676
X-1.6221 Y1.0703
X-1.6351 Y1.072
X-1.6484 Y1.0727
X-1.6619 Y1.0723
X-1.6755 Y1.0707
X-1.6892 Y1.0681
X-1.7027 Y1.0643
X-1.716 Y1.0594
X-1.729 Y1.0534
X-1.7416 Y1.0463
X-1.7537 Y1.0382
X-1.7651 Y1.0291
X-1.7758 Y1.019
X-1.7857 Y1.0081
X-1.7948 Y0.9963
X-1.8029 Y0.9839
X-1.81 Y0.9707
X-1.816 Y0.957
X-1.821 Y0.9428
X-1.8247 Y0.9283
X-1.8274 Y0.9134
X-1.8288 Y0.8984
X-1.829 Y0.8833
X-1.828 Y0.8682
X-1.8257 Y0.8532
X-1.8223 Y0.8384
X-1.8177 Y0.8239
X-1.812 Y0.8099
X-1.8051 Y0.7963
X-1.7972 Y0.7833
X-1.7882 Y0.771
X-1.7783 Y0.7595
X-1.7675 Y0.7487
X-1.7558 Y0.7389
X-1.7434 Y0.73
X-1.7303 Y0.7222
X-1.7167 Y0.7154
X-1.7025 Y0.7098
X-1.6879 Y0.7053
X-1.673 Y0.702
X-1.6579 Y0.6999
X-1.6427 Y0.699
X-1.6274 Y0.6994
X-1.6122 Y0.7009
X-1.5972 Y0.7037
X-1.5825 Y0.7077
X-1.5681 Y0.7128
X-1.5542 Y0.7191
X-1.5408 Y0.7265
X-1.5281 Y0.7349
X-1.5161 Y0.7444
X-1.5048 Y0.7547
X-1.4945 Y0.7659
X-1.4851 Y0.778
X-1.4767 Y0.7907
X-1.4621 Y0.8171
X-1.4497 Y0.8446
X-1.4418 Y0.8667
X-1.4365 Y0.8866
X-1.433 Y0.9051
X-1.4312 Y0.9231
X-1.4308 Y0.9404
X-1.4318 Y0.9573
X-1.4341 Y0.9738
X-1.4377 Y0.9899
X-1.4426 Y1.0056
X-1.4487 Y1.0209
X-1.456 Y1.0357
X-1.4646 Y1.05
X-1.4744 Y1.0637
X-1.4853 Y1.0766
X-1.4974 Y1.0888
X-1.5106 Y1.1001
X-1.5249 Y1.1105
X-1.5401 Y1.1198
X-1.5563 Y1.128
X-1.5733 Y1.1349
X-1.591 Y1.1405
X-1.6094 Y1.1448
X-1.6282 Y1.1475
X-1.6475 Y1.1488
X-1.667 Y1.1485
X-1.6866 Y1.1467
X-1.7061 Y1.1432
X-1.7255 Y1.1382
X-1.7445 Y1.1315
X-1.7631 Y1.1233
X-1.7811 Y1.1136
X-1.7983 Y1.1024
X-1.8147 Y1.0897
X-1.8301 Y1.0758
X-1.8443 Y1.0605
X-1.8574 Y1.0441
X-1.8692 Y1.0267
X-1.8795 Y1.0083
X-1.8884 Y0.989
X-1.8957 Y0.9691
X-1.9014 Y0.9486
X-1.9054 Y0.9276
X-1.9078 Y0.9064
X-1.9084 Y0.885
X-1.9073 Y0.8636
X-1.9045 Y0.8423
X-1.9 Y0.8213
X-1.8938 Y0.8007
X-1.886 Y0.7806
X-1.8766 Y0.7612
X-1.8656 Y0.7426
X-1.8532 Y0.7249
X-1.8394 Y0.7083
X-1.8243 Y0.6929
X-1.808 Y0.6787
X-1.7907 Y0.6658
X-1.7723 Y0.6544
X-1.7531 Y0.6445
X-1.7331 Y0.6361
X-1.7125 Y0.6294
X-1.6914 Y0.6244
X-1.6701 Y0.6211
X-1.6485 Y0.6194
X-1.6268 Y0.6196
X-1.6052 Y0.6214
X-1.5839 Y0.625
X-1.5628 Y0.6303
X-1.5423 Y0.6373
X-1.5224 Y0.6459
X-1.5033 Y0.6561
X-1.485 Y0.6677
X-1.4678 Y0.6808
X-1.4494 Y0.6972
X-1.4311 Y0.7164
X-1.414 Y0.7376
X-1.3983 Y0.7606
X-1.3845 Y0.7846
X-1.373 Y0.8091
X-1.3637 Y0.8338
X-1.3566 Y0.8585
X-1.3516 Y0.8832
X-1.3487 Y0.9078
X-1.3478 Y0.9322
X-1.3488 Y0.9563
X-1.3517 Y0.9801
X-1.3565 Y1.0034
X-1.3631 Y1.0262
X-1.3716 Y1.0483
X-1.3817 Y1.0697
X-1.3936 Y1.0903
X-1.4071 Y1.1099
X-1.4223 Y1.1284
X-1.439 Y1.1458
X-1.4571 Y1.1619
X-1.4766 Y1.1766
X-1.4974 Y1.1897
X-1.5194 Y1.2013
X-1.5425 Y1.2111
X-1.5664 Y1.2192
X-1.5912 Y1.2253
X-1.6165 Y1.2295
X-1.6423 Y1.2316
X-1.6683 Y1.2317
X-1.6944 Y1.2296
X-1.7205 Y1.2254
X-1.7463 Y1.2191
X-1.7717 Y1.2108
X-1.7965 Y1.2003
X-1.8204 Y1.1878
X-1.8434 Y1.1734
X-1.8653 Y1.1571
X-1.8859 Y1.139
X-1.9051 Y1.1192
X-1.9226 Y1.0979
X-1.9385 Y1.0752
X-1.9525 Y1.0512
X-1.9646 Y1.026
X-1.9746 Y0.9999
X-1.9826 Y0.9731
X-1.9883 Y0.9456
X-1.9919 Y0.9177
X-1.9932 Y0.8896
X-1.9922 Y0.8614
X-1.989 Y0.8333
X-1.9836 Y0.8056
X-1.9759 Y0.7783
X-1.966 Y0.7517
X-1.9541 Y0.726
X-1.9401 Y0.7014
X-1.9241 Y0.6779
X-1.9063 Y0.6557
X-1.8868 Y0.6351
X-1.8657 Y0.6161
X-1.8431 Y0.5988
X-1.8192 Y0.5834
X-1.7941 Y0.5699
X-1.7681 Y0.5585
X-1.7411 Y0.5492
X-1.7136 Y0.5422
X-1.6855 Y0.5373
X-1.6571 Y0.5347
X-1.6287 Y0.5344
X-1.6003 Y0.5364
X-1.5721 Y0.5407
X-1.5443 Y0.5472
X-1.5172 Y0.5559
X-1.4909 Y0.5668
X-1.4649 Y0.5801
X-1.4391 Y0.5959
X-1.414 Y0.6143
X-1.3898 Y0.6353
X-1.3668 Y0.6586
X-1.3456 Y0.6839
X-1.3265 Y0.7109
X-1.3096 Y0.7393
X-1.2951 Y0.7687
X-1.2832 Y0.799
X-1.2813 Y0.8052
X-1.2799 Y0.8108
X-1.279 Y0.8165
X-1.2787 Y0.8222
Y0.9687
X-1.2805 Y1.0043
X-1.2834 Y1.0265
X-1.2884 Y1.0496
X-1.2955 Y1.0736
X-1.3051 Y1.098
X-1.3169 Y1.1224
X-1.3311 Y1.1465
X-1.3475 Y1.1698
X-1.366 Y1.1921
X-1.3866 Y1.2132
X-1.4091 Y1.2329
X-1.4168 Y1.2386
X-1.4275 Y1.2448
X-1.4392 Y1.2487
X-1.4515 Y1.25
X-1.7974
X-1.8144 Y1.2492
X-1.8283 Y1.2473
X-1.8441 Y1.244
X-1.8602 Y1.2391
X-1.8784 Y1.232
X-1.8965 Y1.2232
X-1.9157 Y1.2119
X-1.9358 Y1.1978
X-1.9555 Y1.1815
X-1.9746 Y1.1629
X-1.9856 Y1.1502
X-1.9918 Y1.1418
X-1.9963 Y1.1324
X-1.9991 Y1.1223
X-2 Y1.1119
G3 X-1.9978 Y1.1024 I0.025 J0.0009 F30
X-1.9616 Y1.0916 I0.0227 J0.0104 F39.37
G1 X-1.7849 Y1.2039
G3 X-1.7879 Y1.2478 I-0.0134 J0.0211
X-1.7974 Y1.25 I-0.0104 J-0.0227 F30
G1 X-1.9214 F39.37
X-1.931 Y1.2495
X-1.9421 Y1.2481
X-1.9536 Y1.2456
X-1.9584 Y1.2442
X-1.9699 Y1.2394
X-1.98 Y1.2322
X-1.9885 Y1.2231
X-1.9948 Y1.2124
X-1.9987 Y1.2006
X-2 Y1.1883
G3 X-1.9978 Y1.1788 I0.025 J0.0009 F30
X-1.961 Y1.1685 I0.0227 J0.0104 F39.37
G1 X-1.9082 Y1.2043
G3 X-1.9119 Y1.2478 I-0.0141 J0.0207
X-1.9214 Y1.25 I-0.0104 J-0.0227 F30
G1 X-1.9745 F39.37
X-1.9767 Y1.2499
X-1.979 Y1.2496
X-1.9812 Y1.249
X-1.9834 Y1.2483
X-1.9876 Y1.2461
X-1.9898 Y1.2447
X-1.9919 Y1.243
X-1.9922 Y1.2427
X-1.9942 Y1.2405
X-1.9958 Y1.2384
X-1.9971 Y1.2363
X-1.9981 Y1.2341
X-1.9989 Y1.2319
X-1.9995 Y1.2297
X-1.9998 Y1.2275
X-2 Y1.2253
Y0.721
X-1.9993 Y0.7076
X-1.9975 Y0.694
X-1.9945 Y0.6797
X-1.9897 Y0.6636
X-1.9831 Y0.6468
X-1.9745 Y0.6291
X-1.9632 Y0.6099
X-1.9501 Y0.5912
X-1.9342 Y0.572
X-1.9152 Y0.5526
X-1.8935 Y0.5337
X-1.8696 Y0.516
X-1.8438 Y0.4999
X-1.8156 Y0.4854
X-1.7855 Y0.4728
X-1.7537 Y0.4624
X-1.7207 Y0.4545
X-1.6867 Y0.4492
X-1.6521 Y0.4466
X-1.6172 Y0.4468
X-1.5822 Y0.4498
X-1.5474 Y0.4557
X-1.513 Y0.4643
X-1.4789 Y0.4759
X-1.4453 Y0.4904
X-1.4123 Y0.5079
X-1.3803 Y0.5283
X-1.3496 Y0.5516
X-1.3205 Y0.5776
X-1.2936 Y0.6058
X-1.2918 Y0.608
X-1.2862 Y0.6162
X-1.2821 Y0.6253
X-1.2796 Y0.6349
X-1.2787 Y0.6448
Y0.8222
G3 X-1.281 Y0.8317 I-0.025 J-0.0009 F30
X-1.3074 Y0.8461 I-0.0227 J-0.0104 F39.37
G1 X-1.9787 Y0.7449
G3 X-1.9978 Y0.7305 I0.0037 J-0.0247
X-2 Y0.721 I0.0227 J-0.0104 F30
G1 Y0.606 F39.37
X-1.9994 Y0.5936
X-1.998 Y0.5829
X-1.9955 Y0.5715
X-1.9916 Y0.5583
X-1.9864 Y0.5451
X-1.979 Y0.5299
X-1.9702 Y0.5149
X-1.9585 Y0.4982
X-1.9447 Y0.4815
X-1.9281 Y0.4646
X-1.9079 Y0.4469
X-1.8852 Y0.4302
X-1.8598 Y0.4143
X-1.8307 Y0.3993
X-1.7985 Y0.3859
X-1.7636 Y0.3745
X-1.7268 Y0.3656
X-1.6885 Y0.3597
X-1.6496 Y0.3568
X-1.6106 Y0.3569
X-1.5718 Y0.3601
X-1.5333 Y0.3663
X-1.4953 Y0.3753
X-1.4582 Y0.387
X-1.4219 Y0.4014
X-1.3868 Y0.4183
X-1.3529 Y0.4375
X-1.3204 Y0.4591
X-1.3014 Y0.4738
X-1.2936 Y0.481
X-1.2873 Y0.4896
X-1.2826 Y0.4991
X-1.2797 Y0.5093
X-1.2787 Y0.5199
Y0.6448
G3 X-1.281 Y0.6543 I-0.025 J-0.0009 F30
X-1.3052 Y0.6689 I-0.0227 J-0.0104 F39.37
G1 X-1.9765 Y0.6301
G3 X-1.9978 Y0.6155 I0.0014 J-0.025
X-2 Y0.606 I0.0227 J-0.0104 F30
G1 Y0.4998 F39.37
X-1.9997 Y0.4935
X-1.9984 Y0.484
X-1.9961 Y0.4729
X-1.9927 Y0.4617
X-1.9876 Y0.4487
X-1.9813 Y0.4357
X-1.9726 Y0.4209
X-1.9624 Y0.4064
X-1.9489 Y0.3901
X-1.9337 Y0.3745
X-1.9147 Y0.358
X-1.8921 Y0.3412
X-1.8673 Y0.3258
X-1.8379 Y0.3106
X-1.8044 Y0.2966
X-1.7679 Y0.2847
X-1.73 Y0.2756
X-1.6915 Y0.2696
X-1.6526 Y0.2664
X-1.6136 Y0.266
X-1.5747 Y0.2683
X-1.536 Y0.273
X-1.4977 Y0.2803
X-1.4599 Y0.29
X-1.4228 Y0.302
X-1.3866 Y0.3164
X-1.3513 Y0.3329
X-1.3171 Y0.3516
X-1.3053 Y0.3592
X-1.2962 Y0.3665
X-1.2888 Y0.3754
X-1.2833 Y0.3856
X-1.2799 Y0.3966
X-1.2787 Y0.4082
Y0.5199
G3 X-1.281 Y0.5294 I-0.025 J-0.0009 F30
X-1.3045 Y0.5441 I-0.0227 J-0.0104 F39.37
G1 X-1.9758 Y0.524
G3 X-1.9978 Y0.5093 I0.0007 J-0.025
X-2 Y0.4998 I0.0227 J-0.0104 F30
G1 Y0.4114 F39.37
X-1.9993 Y0.3983
X-1.9981 Y0.3888
X-1.996 Y0.3788
X-1.9926 Y0.3677
X-1.9879 Y0.3554
X-1.9817 Y0.3427
X-1.9735 Y0.3287
X-1.9635 Y0.3146
X-1.9507 Y0.2992
X-1.9356 Y0.2836
X-1.9172 Y0.2676
X-1.8947 Y0.2509
X-1.8702 Y0.2357
X-1.8409 Y0.2206
X-1.8072 Y0.2065
X-1.7702 Y0.1944
X-1.7323 Y0.1853
X-1.6938 Y0.1791
X-1.655 Y0.1755
X-1.616 Y0.1746
X-1.577 Y0.176
X-1.5382 Y0.1797
X-1.4997 Y0.1856
X-1.4615 Y0.1937
X-1.4239 Y0.204
X-1.3869 Y0.2163
X-1.3507 Y0.2307
X-1.3216 Y0.2443
X-1.3081 Y0.252
X-1.2982 Y0.2592
X-1.29 Y0.2683
X-1.2838 Y0.2789
X-1.28 Y0.2905
X-1.2787 Y0.3027
Y0.4082
G3 X-1.281 Y0.4177 I-0.025 J-0.0009 F30
X-1.3036 Y0.4323 I-0.0227 J-0.0104 F39.37
G1 X-1.9749 Y0.4355
G3 X-1.9978 Y0.4209 I-0.0001 J-0.025
X-2 Y0.4114 I0.0227 J-0.0104 F30
G1 Y0.3141 F39.37
X-1.9996 Y0.306
X-1.9984 Y0.2965
X-1.9963 Y0.2868
X-1.9929 Y0.2757
X-1.9883 Y0.2638
X-1.9822 Y0.2511
X-1.9741 Y0.2375
X-1.9642 Y0.2233
X-1.9517 Y0.2083
X-1.9365 Y0.1927
X-1.9185 Y0.177
X-1.896 Y0.1604
X-1.8717 Y0.1452
X-1.8423 Y0.1301
X-1.8084 Y0.1159
X-1.7713 Y0.1038
X-1.7334 Y0.0946
X-1.6949 Y0.0881
X-1.6562 Y0.0842
X-1.6172 Y0.0827
X-1.5782 Y0.0834
X-1.5393 Y0.0863
X-1.5006 Y0.0912
X-1.4623 Y0.0981
X-1.4243 Y0.1069
X-1.3868 Y0.1177
X-1.3499 Y0.1304
X-1.3239 Y0.1416
X-1.3097 Y0.1492
X-1.2993 Y0.1562
X-1.2906 Y0.1654
X-1.2841 Y0.1762
X-1.2801 Y0.1882
X-1.2787 Y0.2007
Y0.3027
G3 X-1.281 Y0.3122 I-0.025 J-0.0009 F30
X-1.3033 Y0.3268 I-0.0227 J-0.0104 F39.37
G1 X-1.9746 Y0.3382
G3 X-1.9978 Y0.3236 I-0.0004 J-0.025
X-2 Y0.3141 I0.0227 J-0.0104 F30
G1 Y0.2256 F39.37
X-1.9994 Y0.2141
X-1.9982 Y0.2047
X-1.9961 Y0.1952
X-1.9928 Y0.184
X-1.9883 Y0.1724
X-1.9821 Y0.1597
X-1.9742 Y0.1463
X-1.9643 Y0.1321
X-1.9519 Y0.1173
X-1.9368 Y0.1017
X-1.9189 Y0.0861
X-1.8965 Y0.0695
X-1.872 Y0.0543
X-1.8425 Y0.0391
X-1.8081 Y0.0247
X-1.771 Y0.0126
X-1.7331 Y0.0033
X-1.6947 Y-0.0034
X-1.6559 Y-0.0076
X-1.617 Y-0.0096
X-1.578 Y-0.0094
X-1.5391 Y-0.0072
X-1.5003 Y-0.0031
X-1.4618 Y0.0029
X-1.4236 Y0.0106
X-1.3858 Y0.0202
X-1.3491 Y0.0317
X-1.3254 Y0.0414
X-1.3108 Y0.0488
X-1.3 Y0.0558
X-1.2911 Y0.065
X-1.2843 Y0.0759
X-1.2802 Y0.0881
X-1.2787 Y0.1009
Y0.2007
G3 X-1.281 Y0.2102 I-0.025 J-0.0009 F30
X-1.3028 Y0.2248 I-0.0227 J-0.0104 F39.37
G1 X-1.9741 Y0.2497
G3 X-1.9978 Y0.2351 I-0.0009 J-0.025
X-2 Y0.2256 I0.0227 J-0.0104 F30
G1 Y0.1283 F39.37
X-1.9997 Y0.1223
X-1.9984 Y0.1128
X-1.9962 Y0.1032
X-1.9927 Y0.0918
X-1.9881 Y0.0802
X-1.9817 Y0.0673
X-1.9737 Y0.054
X-1.9634 Y0.0396
X-1.9509 Y0.0248
X-1.9352 Y0.009
X-1.9171 Y-0.0065
X-1.8942 Y-0.0232
X-1.8689 Y-0.0386
X-1.8387 Y-0.0539
X-1.8032 Y-0.0684
X-1.766 Y-0.0801
X-1.7281 Y-0.0892
X-1.6896 Y-0.0958
X-1.6509 Y-0.1001
X-1.612 Y-0.1023
X-1.573 Y-0.1024
X-1.534 Y-0.1006
X-1.4952 Y-0.097
X-1.4566 Y-0.0916
X-1.4182 Y-0.0845
X-1.3803 Y-0.0755
X-1.347 Y-0.0653
X-1.325 Y-0.0566
X-1.3113 Y-0.0498
X-1.3004 Y-0.0428
X-1.2913 Y-0.0336
X-1.2844 Y-0.0226
X-1.2802 Y-0.0104
X-1.2787 Y0.0025
Y0.1009
G3 X-1.281 Y0.1104 I-0.025 J-0.0009 F30
X-1.3027 Y0.125 I-0.0227 J-0.0104 F39.37
G1 X-1.974 Y0.1524
G3 X-1.9978 Y0.1378 I-0.001 J-0.025
X-2 Y0.1283 I0.0227 J-0.0104 F30
G1 Y0.0398 F39.37
X-1.9996 Y0.0318
X-1.9984 Y0.0225
X-1.9963 Y0.0129
X-1.9931 Y0.002
X-1.9884 Y-0.0099
X-1.9824 Y-0.0223
X-1.9743 Y-0.036
X-1.9646 Y-0.0499
X-1.9519 Y-0.0652
X-1.9371 Y-0.0803
X-1.9186 Y-0.0964
X-1.8967 Y-0.1127
X-1.8715 Y-0.1284
X-1.841 Y-0.1441
X-1.8053 Y-0.159
X-1.7683 Y-0.1711
X-1.7304 Y-0.1806
X-1.6921 Y-0.1876
X-1.6534 Y-0.1924
X-1.6145 Y-0.195
X-1.5755 Y-0.1957
X-1.5365 Y-0.1946
X-1.4976 Y-0.1918
X-1.4589 Y-0.1872
X-1.4204 Y-0.1809
X-1.3823 Y-0.1726
X-1.3495 Y-0.1632
X-1.3275 Y-0.1549
X-1.3084 Y-0.1459
X-1.308 Y-0.1456
X-1.2981 Y-0.1385
X-1.2899 Y-0.1294
X-1.2838 Y-0.1188
X-1.28 Y-0.1072
X-1.2787 Y-0.095
Y0.0025
G3 X-1.281 Y0.012 I-0.025 J-0.0009 F30
X-1.3023 Y0.0266 I-0.0227 J-0.0104 F39.37
G1 X-1.9736 Y0.0639
G3 X-1.9978 Y0.0493 I-0.0014 J-0.025
X-2 Y0.0398 I0.0227 J-0.0104 F30
G1 Y-0.0487 F39.37
X-1.9995 Y-0.0594
X-1.9982 Y-0.0688
X-1.9962 Y-0.0784
X-1.9929 Y-0.0895
X-1.9883 Y-0.101
X-1.9822 Y-0.1137
X-1.9743 Y-0.1272
X-1.9643 Y-0.1414
X-1.9518 Y-0.1564
X-1.9367 Y-0.1719
X-1.9183 Y-0.188
X-1.8957 Y-0.2047
X-1.8705 Y-0.2204
X-1.8397 Y-0.2363
X-1.8037 Y-0.2513
X-1.7667 Y-0.2634
X-1.7289 Y-0.273
X-1.6905 Y-0.2801
X-1.6519 Y-0.2852
X-1.613 Y-0.2882
X-1.574 Y-0.2893
X-1.535 Y-0.2886
X-1.4961 Y-0.2862
X-1.4573 Y-0.2821
X-1.4188 Y-0.2762
X-1.3806 Y-0.2683
X-1.3497 Y-0.2596
X-1.3273 Y-0.2513
X-1.3088 Y-0.2428
X-1.3084 Y-0.2426
X-1.2984 Y-0.2354
X-1.2901 Y-0.2263
X-1.2839 Y-0.2157
X-1.28 Y-0.204
X-1.2787 Y-0.1918
Y-0.095
G3 X-1.281 Y-0.0855 I-0.025 J-0.0009 F30
X-1.302 Y-0.071 I-0.0227 J-0.0104 F39.37
G1 X-1.9733 Y-0.0246
G3 X-1.9978 Y-0.0392 I-0.0017 J-0.0249
X-2 Y-0.0487 I0.0227 J-0.0104 F30
G1 Y-0.142 F39.37
X-1.9996 Y-0.1505
X-1.9983 Y-0.16
X-1.9963 Y-0.1695
X-1.9929 Y-0.1807
X-1.9884 Y-0.1924
X-1.9822 Y-0.2051
X-1.9742 Y-0.2187
X-1.9643 Y-0.2329
X-1.9516 Y-0.2481
X-1.9364 Y-0.2637
X-1.9178 Y-0.2799
X-1.8952 Y-0.2967
X-1.8696 Y-0.3126
X-1.8384 Y-0.3287
X-1.8024 Y-0.3437
X-1.7654 Y-0.3559
X-1.7276 Y-0.3656
X-1.6893 Y-0.3729
X-1.6507 Y-0.3782
X-1.6118 Y-0.3815
X-1.5729 Y-0.383
X-1.5339 Y-0.3827
X-1.4949 Y-0.3807
X-1.4561 Y-0.377
X-1.4175 Y-0.3714
X-1.3793 Y-0.3637
X-1.3496 Y-0.3556
X-1.3276 Y-0.3476
X-1.3092 Y-0.3392
X-1.3086 Y-0.3389
X-1.2985 Y-0.3317
X-1.2902 Y-0.3226
X-1.2839 Y-0.312
X-1.28 Y-0.3002
X-1.2787 Y-0.2879
Y-0.1918
G3 X-1.281 Y-0.1823 I-0.025 J-0.0009 F30
X-1.3019 Y-0.1677 I-0.0227 J-0.0104 F39.37
G1 X-1.9732 Y-0.1179
G3 X-1.9978 Y-0.1325 I-0.0018 J-0.0249
X-2 Y-0.142 I0.0227 J-0.0104 F30
G1 Y-0.2344 F39.37
X-1.9996 Y-0.242
X-1.9984 Y-0.2515
X-1.9963 Y-0.2611
X-1.993 Y-0.2722
X-1.9884 Y-0.2841
X-1.9822 Y-0.2968
X-1.9741 Y-0.3105
X-1.9642 Y-0.3247
X-1.9514 Y-0.3401
X-1.9362 Y-0.3556
X-1.9174 Y-0.372
X-1.8946 Y-0.3889
X-1.8687 Y-0.405
X-1.837 Y-0.4214
X-1.801 Y-0.4364
X-1.764 Y-0.4487
X-1.7263 Y-0.4584
X-1.688 Y-0.466
X-1.6494 Y-0.4715
X-1.6106 Y-0.4751
X-1.5716 Y-0.4768
X-1.5326
X-1.4937 Y-0.4751
X-1.4548 Y-0.4717
X-1.4162 Y-0.4664
X-1.3779 Y-0.4589
X-1.3491 Y-0.4511
X-1.3276 Y-0.4433
X-1.3093 Y-0.435
X-1.3088 Y-0.4347
X-1.2986 Y-0.4276
X-1.2902 Y-0.4185
X-1.2839 Y-0.4078
X-1.2801 Y-0.396
X-1.2787 Y-0.3837
Y-0.2879
G3 X-1.281 Y-0.2784 I-0.025 J-0.0009 F30
X-1.3017 Y-0.2639 I-0.0227 J-0.0104 F39.37
G1 X-1.973 Y-0.2104
G3 X-1.9978 Y-0.2249 I-0.002 J-0.0249
X-2 Y-0.2344 I0.0227 J-0.0104 F30
G1 Y-0.3229 F39.37
X-1.9994 Y-0.3339
X-1.9982 Y-0.3434
X-1.9961 Y-0.3531
X-1.9928 Y-0.3642
X-1.9882 Y-0.3761
X-1.982 Y-0.3888
X-1.9739 Y-0.4026
X-1.9639 Y-0.4168
X-1.951 Y-0.4324
X-1.9358 Y-0.4479
X-1.9168 Y-0.4645
X-1.8939 Y-0.4815
X-1.8676 Y-0.4978
X-1.8355 Y-0.5144
X-1.7995 Y-0.5294
X-1.7625 Y-0.5417
X-1.7248 Y-0.5516
X-1.6866 Y-0.5593
X-1.648 Y-0.5649
X-1.6092 Y-0.5687
X-1.5702 Y-0.5708
X-1.5312 Y-0.571
X-1.4923 Y-0.5696
X-1.4534 Y-0.5663
X-1.4148 Y-0.5612
X-1.3765 Y-0.5538
X-1.3484 Y-0.5462
X-1.3274 Y-0.5387
X-1.3092 Y-0.5304
X-1.3088 Y-0.5303
X-1.2987 Y-0.5231
X-1.2903 Y-0.514
X-1.284 Y-0.5033
X-1.2801 Y-0.4916
X-1.2787 Y-0.4792
Y-0.3837
G3 X-1.281 Y-0.3742 I-0.025 J-0.0009 F30
X-1.3015 Y-0.3597 I-0.0227 J-0.0104 F39.37
G1 X-1.9728 Y-0.2989
G3 X-1.9978 Y-0.3134 I-0.0023 J-0.0249
X-2 Y-0.3229 I0.0227 J-0.0104 F30
G1 Y-0.4202 F39.37
X-1.9997 Y-0.4262
X-1.9984 Y-0.4358
X-1.9962 Y-0.4456
X-1.9928 Y-0.4569
X-1.988 Y-0.4689
X-1.9817 Y-0.4817
X-1.9734 Y-0.4957
X-1.9632 Y-0.5101
X-1.9499 Y-0.5258
X-1.9344 Y-0.5416
X-1.915 Y-0.5582
X-1.8914 Y-0.5755
X-1.8645 Y-0.592
X-1.8316 Y-0.6088
X-1.7956 Y-0.6236
X-1.7585 Y-0.6358
X-1.7208 Y-0.6455
X-1.6826 Y-0.6532
X-1.644 Y-0.6589
X-1.6052 Y-0.6627
X-1.5662 Y-0.6648
X-1.5273 Y-0.6652
X-1.4883 Y-0.6638
X-1.4494 Y-0.6607
X-1.4108 Y-0.6555
X-1.3725 Y-0.6481
X-1.3457 Y-0.6406
X-1.3255 Y-0.6332
X-1.3127 Y-0.6273
X-1.3013 Y-0.6204
X-1.2918 Y-0.6111
X-1.2847 Y-0.6
X-1.2802 Y-0.5875
X-1.2787 Y-0.5743
Y-0.4792
G3 X-1.281 Y-0.4697 I-0.025 J-0.0009 F30
X-1.3015 Y-0.4552 I-0.0227 J-0.0104 F39.37
G1 X-1.9728 Y-0.3962
G3 X-1.9978 Y-0.4107 I-0.0022 J-0.0249
X-2 Y-0.4202 I0.0227 J-0.0104 F30
G1 Y-0.5087 F39.37
X-1.9995 Y-0.5181
X-1.9983 Y-0.5275
X-1.9962 Y-0.5375
X-1.9929 Y-0.5484
X-1.9881 Y-0.5608
X-1.982 Y-0.5733
X-1.9736 Y-0.5876
X-1.9637 Y-0.6016
X-1.9504 Y-0.6177
X-1.9353 Y-0.6331
X-1.9158 Y-0.6502
X-1.893 Y-0.667
X-1.8658 Y-0.6839
X-1.8328 Y-0.701
X-1.7968 Y-0.716
X-1.7599 Y-0.7284
X-1.7222 Y-0.7385
X-1.684 Y-0.7464
X-1.6455 Y-0.7523
X-1.6067 Y-0.7565
X-1.5678 Y-0.7588
X-1.5288 Y-0.7595
X-1.4898 Y-0.7583
X-1.4509 Y-0.7554
X-1.4123 Y-0.7506
X-1.374 Y-0.7433
X-1.3462 Y-0.7357
X-1.3259 Y-0.7283
X-1.3128 Y-0.7224
X-1.3032 Y-0.7168
X-1.2949 Y-0.7096
X-1.288 Y-0.7008
X-1.2829 Y-0.691
X-1.2798 Y-0.6803
X-1.2787 Y-0.6693
Y-0.5743
G3 X-1.281 Y-0.5648 I-0.025 J-0.0009 F30
X-1.3013 Y-0.5503 I-0.0227 J-0.0104 F39.37
G1 X-1.9726 Y-0.4847
G3 X-1.9978 Y-0.4992 I-0.0024 J-0.0249
X-2 Y-0.5087 I0.0227 J-0.0104 F30
G1 Y-0.602 F39.37
X-1.9996 Y-0.6105
X-1.9983 Y-0.6201
X-1.9962 Y-0.63
X-1.9929 Y-0.6411
X-1.9881 Y-0.6532
X-1.982 Y-0.6659
X-1.9736 Y-0.6802
X-1.9636 Y-0.6944
X-1.9502 Y-0.7105
X-1.935 Y-0.7261
X-1.9154 Y-0.7432
X-1.8922 Y-0.7604
X-1.8649 Y-0.7774
X-1.8316 Y-0.7946
X-1.7956 Y-0.8096
X-1.7587 Y-0.822
X-1.721 Y-0.8321
X-1.6828 Y-0.8401
X-1.6443 Y-0.8462
X-1.6056 Y-0.8505
X-1.5666 Y-0.8529
X-1.5277 Y-0.8537
X-1.4887 Y-0.8527
X-1.4498 Y-0.8499
X-1.4111 Y-0.8451
X-1.3735 Y-0.838
X-1.3462 Y-0.8305
X-1.3252 Y-0.8229
X-1.3129 Y-0.8172
X-1.3033 Y-0.8117
X-1.2949 Y-0.8044
X-1.288 Y-0.7957
X-1.2829 Y-0.7859
X-1.2798 Y-0.7752
X-1.2787 Y-0.7642
Y-0.6693
G3 X-1.281 Y-0.6598 I-0.025 J-0.0009 F30
X-1.3012 Y-0.6453 I-0.0227 J-0.0104 F39.37
G1 X-1.9725 Y-0.578
G3 X-1.9978 Y-0.5925 I-0.0025 J-0.0249
X-2 Y-0.602 I0.0227 J-0.0104 F30
G1 Y-0.6945 F39.37
X-1.9996 Y-0.7033
X-1.9983 Y-0.7128
X-1.9962 Y-0.7227
X-1.9929 Y-0.7339
X-1.9881 Y-0.7461
X-1.9819 Y-0.7588
X-1.9734 Y-0.7732
X-1.9635 Y-0.7874
X-1.95 Y-0.8037
X-1.9347 Y-0.8193
X-1.915 Y-0.8365
X-1.8917 Y-0.8538
X-1.8641 Y-0.8709
X-1.8305 Y-0.8883
X-1.7945 Y-0.9033
X-1.7576 Y-0.9157
X-1.7199 Y-0.9259
X-1.6818 Y-0.934
X-1.6433 Y-0.9401
X-1.6045 Y-0.9445
X-1.5656 Y-0.9471
X-1.5266 Y-0.948
X-1.4877 Y-0.947
X-1.4488 Y-0.9443
X-1.4101 Y-0.9395
X-1.3729 Y-0.9324
X-1.3458 Y-0.925
X-1.325 Y-0.9175
X-1.3129 Y-0.912
X-1.3032 Y-0.9064
X-1.2949 Y-0.8992
X-1.288 Y-0.8904
X-1.2829 Y-0.8806
X-1.2798 Y-0.8699
X-1.2787 Y-0.8589
Y-0.7642
G3 X-1.281 Y-0.7547 I-0.025 J-0.0009 F30
X-1.3011 Y-0.7402 I-0.0227 J-0.0104 F39.37
G1 X-1.9724 Y-0.6705
G3 X-1.9978 Y-0.685 I-0.0026 J-0.0249
X-2 Y-0.6945 I0.0227 J-0.0104 F30
G1 Y-0.7878 F39.37
X-1.9996 Y-0.7962
X-1.9983 Y-0.8057
X-1.9962 Y-0.8157
X-1.9929 Y-0.8268
X-1.9881 Y-0.8392
X-1.9819 Y-0.8519
X-1.9734 Y-0.8664
X-1.9634 Y-0.8806
X-1.9498 Y-0.897
X-1.9345 Y-0.9126
X-1.9146 Y-0.9299
X-1.8912 Y-0.9473
X-1.8635 Y-0.9645
X-1.8296 Y-0.982
X-1.7936 Y-0.9971
X-1.7566 Y-1.0096
X-1.719 Y-1.0198
X-1.6809 Y-1.0279
X-1.6424 Y-1.0341
X-1.6036 Y-1.0386
X-1.5647 Y-1.0413
X-1.5258 Y-1.0422
X-1.4868 Y-1.0414
X-1.4479 Y-1.0386
X-1.4092 Y-1.0339
X-1.3724 Y-1.0269
X-1.3456 Y-1.0196
X-1.3248 Y-1.012
X-1.3129 Y-1.0066
X-1.3032 Y-1.001
X-1.2949 Y-0.9938
X-1.288 Y-0.9851
X-1.2829 Y-0.9752
X-1.2798 Y-0.9646
X-1.2787 Y-0.9535
Y-0.8589
G3 X-1.281 Y-0.8494 I-0.025 J-0.0009 F30
X-1.3011 Y-0.8349 I-0.0227 J-0.0104 F39.37
G1 X-1.9724 Y-0.7638
G3 X-1.9978 Y-0.7783 I-0.0026 J-0.0249
X-2 Y-0.7878 I0.0227 J-0.0104 F30
G1 Y-0.8803 F39.37
X-1.9995 Y-0.8893
X-1.9983 Y-0.8989
X-1.9961 Y-0.9089
X-1.9928 Y-0.9201
X-1.988 Y-0.9325
X-1.9818 Y-0.9451
X-1.9733 Y-0.9597
X-1.9633 Y-0.9739
X-1.9496 Y-0.9904
X-1.9343 Y-1.0061
X-1.9143 Y-1.0235
X-1.8908 Y-1.0409
X-1.8629 Y-1.0583
X-1.8287 Y-1.0759
X-1.7927 Y-1.091
X-1.7558 Y-1.1035
X-1.7182 Y-1.1137
X-1.6801 Y-1.1219
X-1.6416 Y-1.1282
X-1.6029 Y-1.1327
X-1.564 Y-1.1354
X-1.525 Y-1.1364
X-1.486 Y-1.1356
X-1.4471 Y-1.133
X-1.4084 Y-1.1282
X-1.372 Y-1.1213
X-1.3454 Y-1.114
X-1.3247 Y-1.1065
X-1.3128 Y-1.1011
X-1.3032 Y-1.0956
X-1.2949 Y-1.0883
X-1.288 Y-1.0796
X-1.2829 Y-1.0697
X-1.2798 Y-1.0591
X-1.2787 Y-1.0481
Y-0.9535
G3 X-1.281 Y-0.944 I-0.025 J-0.0009 F30
X-1.301 Y-0.9295 I-0.0227 J-0.0104 F39.37
G1 X-1.9723 Y-0.8563
G3 X-1.9978 Y-0.8708 I-0.0027 J-0.0249
X-2 Y-0.8803 I0.0227 J-0.0104 F30
G1 Y-0.9736 F39.37
X-1.9995 Y-0.9826
X-1.9983 Y-0.9922
X-1.9961 Y-1.0023
X-1.9928 Y-1.0134
X-1.9879 Y-1.0259
X-1.9818 Y-1.0385
X-1.9732 Y-1.0532
X-1.9632 Y-1.0674
X-1.9494 Y-1.084
X-1.9341 Y-1.0997
X-1.914 Y-1.1172
X-1.8905 Y-1.1346
X-1.8623 Y-1.1521
X-1.828 Y-1.1699
X-1.792 Y-1.1849
X-1.7551 Y-1.1974
X-1.7175 Y-1.2077
X-1.6794 Y-1.2159
X-1.6409 Y-1.2223
X-1.6022 Y-1.2268
X-1.5633 Y-1.2296
X-1.5243 Y-1.2307
X-1.4853 Y-1.2299
X-1.4464 Y-1.2273
X-1.4077 Y-1.2225
X-1.3717 Y-1.2157
X-1.3452 Y-1.2084
X-1.3245 Y-1.2009
X-1.3128 Y-1.1956
X-1.3032 Y-1.19
X-1.2949 Y-1.1828
X-1.288 Y-1.1741
X-1.2829 Y-1.1642
X-1.2798 Y-1.1536
X-1.2787 Y-1.1425
Y-1.0481
G3 X-1.281 Y-1.0386 I-0.025 J-0.0009 F30
X-1.301 Y-1.0241 I-0.0227 J-0.0104 F39.37
G1 X-1.9723 Y-0.9496
G3 X-1.9978 Y-0.9641 I-0.0028 J-0.0248
X-2 Y-0.9736 I0.0227 J-0.0104 F30
G1 Y-1.066 F39.37
X-1.9995 Y-1.0761
X-1.9982 Y-1.0856
X-1.9961 Y-1.0958
X-1.9927 Y-1.1069
X-1.9879 Y-1.1194
X-1.9817 Y-1.1321
X-1.9731 Y-1.1468
X-1.963 Y-1.1611
X-1.9493 Y-1.1776
X-1.9339 Y-1.1934
X-1.9137 Y-1.211
X-1.8901 Y-1.2285
X-1.8697 Y-1.2412
X-1.86 Y-1.246
X-1.8496 Y-1.249
X-1.8389 Y-1.25
G3 X-1.8294 Y-1.2478 I-0.0009 J0.025 F30
X-1.8207 Y-1.2088 I-0.0104 J0.0227 F39.37
G1 X-1.956 Y-1.0507
G3 X-1.9978 Y-1.0566 I-0.019 J-0.0163
X-2 Y-1.066 I0.0227 J-0.0104 F30
G1 Y-1.1634 F39.37
X-1.9997 Y-1.1695
X-1.9984 Y-1.179
X-1.9963 Y-1.1892
X-1.9929 Y-1.2004
X-1.988 Y-1.2129
X-1.986 Y-1.2171
X-1.979 Y-1.2281
X-1.9698 Y-1.2373
X-1.9588 Y-1.2443
X-1.9465 Y-1.2485
X-1.9335 Y-1.25
G3 X-1.924 Y-1.2478 I-0.0009 J0.025 F30
X-1.9136 Y-1.2111 I-0.0104 J0.0227 F39.37
G1 X-1.9542 Y-1.1503
G3 X-1.9978 Y-1.1539 I-0.0208 J-0.0139
X-2 Y-1.1634 I0.0227 J-0.0104 F30
G1 Y-1.2253 F39.37
X-1.9998 Y-1.2275
X-1.9995 Y-1.2297
X-1.9989 Y-1.2319
X-1.9981 Y-1.2341
X-1.9971 Y-1.2363
X-1.9958 Y-1.2384
X-1.9942 Y-1.2405
X-1.9922 Y-1.2427
X-1.9919 Y-1.243
X-1.9898 Y-1.2447
X-1.9876 Y-1.2461
X-1.9834 Y-1.2483
X-1.9812 Y-1.249
X-1.979 Y-1.2496
X-1.9767 Y-1.2499
X-1.9745 Y-1.25
X-1.3282
X-1.32 Y-1.2496
X-1.309 Y-1.2468
X-1.299 Y-1.2414
X-1.2905 Y-1.2338
X-1.2841 Y-1.2245
X-1.2801 Y-1.2138
X-1.2787 Y-1.2025
G3 X-1.281 Y-1.193 I-0.025 J-0.0009 F30
X-1.3206 Y-1.185 I-0.0227 J-0.0104 F39.37
G1 X-1.3442 Y-1.2066
G3 X-1.3376 Y-1.2478 I0.0169 J-0.0184
X-1.3282 Y-1.25 I0.0104 J0.0227 F30
G1 X-1.3104 F39.37
X-1.3016 Y-1.2498
X-1.2994 Y-1.2495
X-1.2972 Y-1.2489
X-1.295 Y-1.2482
X-1.2927 Y-1.2471
X-1.2898 Y-1.2453
X-1.2868 Y-1.243
X-1.2852 Y-1.2414
X-1.2839 Y-1.2398
X-1.282 Y-1.2369
X-1.2806 Y-1.2341
X-1.2798 Y-1.2319
X-1.2793 Y-1.2297
X-1.2789 Y-1.2275
X-1.2787 Y-1.2253
Y-1.1425
G3 X-1.281 Y-1.133 I-0.025 J-0.0009 F30
G1 X-1.2826 Y-1.1295 Z-0.1997
X-1.2842 Y-1.126 Z-0.1988
X-1.2857 Y-1.1227 Z-0.1973
X-1.2871 Y-1.1197 Z-0.1952
X-1.2883 Y-1.1169 Z-0.1927
X-1.2894 Y-1.1146 Z-0.1897
X-1.2902 Y-1.1128 Z-0.1863
X-1.2908 Y-1.1114 Z-0.1827
X-1.2912 Y-1.1106 Z-0.1789
X-1.2913 Y-1.1103 Z-0.175
G0 Z0.2
X-1.3098 Y0.9569
Z-0.15
G1 Z-0.175 F30
X-1.3095 Y0.957 Z-0.1789
X-1.3086 Y0.9571 Z-0.1827
X-1.3071 Y0.9574 Z-0.1863
X-1.3051 Y0.9577 Z-0.1897
X-1.3026 Y0.9582 Z-0.1927
X-1.2996 Y0.9587 Z-0.1952
X-1.2963 Y0.9593 Z-0.1973
X-1.2928 Y0.9599 Z-0.1988
X-1.289 Y0.9606 Z-0.1997
X-1.2852 Y0.9613 Z-0.2
G3 X-1.2787 Y0.9687 I-0.0014 J0.0077
G1 Y1.1368 F39.37
X-1.2793 Y1.148
X-1.2809 Y1.1601
X-1.2838 Y1.1739
X-1.2882 Y1.1885
X-1.2945 Y1.2047
X-1.3006 Y1.2171
X-1.3075 Y1.2281
X-1.3167 Y1.2373
X-1.3278 Y1.2443
X-1.3401 Y1.2485
X-1.353 Y1.25
G3 X-1.3625 Y1.2478 I0.0009 J-0.025 F30
X-1.374 Y1.2129 I0.0104 J-0.0227 F39.37
G1 X-1.3256 Y1.1256
G3 X-1.281 Y1.1273 I0.0219 J0.0121
X-1.2787 Y1.1368 I-0.0227 J0.0104 F30
G1 Y1.2253 F39.37
X-1.2789 Y1.2275
X-1.2793 Y1.2297
X-1.2798 Y1.2319
X-1.2806 Y1.2341
X-1.282 Y1.2369
X-1.2839 Y1.2398
X-1.2852 Y1.2414
X-1.2868 Y1.243
X-1.2898 Y1.2453
X-1.2927 Y1.2471
X-1.295 Y1.2482
X-1.2972 Y1.2489
X-1.2994 Y1.2495
X-1.3016 Y1.2498
X-1.3104 Y1.25
X-1.4515
X-1.4536 Y1.2495 Z-0.1997 F30
X-1.4557 Y1.2491 Z-0.199
X-1.4575 Y1.2487 Z-0.1979
X-1.459 Y1.2484 Z-0.1963
X-1.4601 Y1.2482 Z-0.1945
X-1.4608 Y1.2479 Z-0.1924
X-1.461 Y1.2478 Z-0.1902
G0 Z0.2
X-0.1233 Y-1.0026
Z0.125
G1 Z0.1 F30
G3 X0.1133 Y-1.0234 Z0.087 I0.1183 J-0.0104 F13.12
X-0.1233 Y-1.0026 Z0.0739 I-0.1183 J0.0104
X0.1133 Y-1.0234 Z0.0609 I0.1183 J-0.0104
X-0.1233 Y-1.0026 Z0.0479 I-0.1183 J0.0104
X0.1133 Y-1.0234 Z0.0349 I0.1183 J-0.0104
X-0.1233 Y-1.0026 Z0.0218 I-0.1183 J0.0104
X0.1133 Y-1.0234 Z0.0088 I0.1183 J-0.0104
X-0.1233 Y-1.0026 Z-0.0042 I-0.1183 J0.0104
X0.1133 Y-1.0234 Z-0.0172 I0.1183 J-0.0104
X-0.1233 Y-1.0026 Z-0.0303 I-0.1183 J0.0104
X0.1133 Y-1.0234 Z-0.0433 I0.1183 J-0.0104
X-0.1233 Y-1.0026 Z-0.0563 I-0.1183 J0.0104
X0.1133 Y-1.0234 Z-0.0694 I0.1183 J-0.0104
X-0.1233 Y-1.0026 Z-0.0824 I-0.1183 J0.0104
X0.1133 Y-1.0234 Z-0.0954 I0.1183 J-0.0104
X-0.1233 Y-1.0026 Z-0.1084 I-0.1183 J0.0104
X0.1133 Y-1.0234 Z-0.1215 I0.1183 J-0.0104
X-0.1233 Y-1.0026 Z-0.1345 I-0.1183 J0.0104
X0.1133 Y-1.0234 Z-0.1475 I0.1183 J-0.0104
X-0.1233 Y-1.0026 Z-0.1606 I-0.1183 J0.0104
X0.1133 Y-1.0234 Z-0.1736 I0.1183 J-0.0104
X-0.1233 Y-1.0026 Z-0.1866 I-0.1183 J0.0104
X-0.0102 Y-1.1316 Z-0.1933 I0.1183 J-0.0104
X0.1137 Y-1.013 Z-0.2 I0.0052 J0.1186
X-0.1238 I-0.1187 J0
X0.1137 I0.1187 J0
G1 X0.1139 Y-1.0032 F39.37
X0.121 Y-0.9649
X0.1228 Y-0.9591
X0.1239 Y-0.9533
X0.1245 Y-0.9473
Y-0.9412
X0.124 Y-0.9347
X0.1229 Y-0.9278
X0.1212 Y-0.9206
X0.1187 Y-0.9131
X0.1155 Y-0.9054
X0.1115 Y-0.8976
X0.1066 Y-0.8897
X0.1008 Y-0.8819
X0.0942 Y-0.8743
X0.0867 Y-0.867
X0.0783 Y-0.8601
X0.0691 Y-0.8536
X0.059 Y-0.8477
X0.0483 Y-0.8425
X0.0369 Y-0.838
X0.0248 Y-0.8344
X0.0123 Y-0.8318
X-0.0007 Y-0.8301
X-0.014 Y-0.8294
X-0.0275 Y-0.8298
X-0.0412 Y-0.8313
X-0.0548 Y-0.834
X-0.0683 Y-0.8377
X-0.0817 Y-0.8426
X-0.0947 Y-0.8486
X-0.1072 Y-0.8557
X-0.1193 Y-0.8638
X-0.1307 Y-0.873
X-0.1414 Y-0.883
X-0.1514 Y-0.894
X-0.1604 Y-0.9057
X-0.1685 Y-0.9182
X-0.1756 Y-0.9313
X-0.1817 Y-0.9451
X-0.1866 Y-0.9592
X-0.1904 Y-0.9738
X-0.193 Y-0.9886
X-0.1944 Y-1.0037
X-0.1946 Y-1.0188
X-0.1936 Y-1.0339
X-0.1914 Y-1.0489
X-0.188 Y-1.0637
X-0.1834 Y-1.0781
X-0.1776 Y-1.0922
X-0.1707 Y-1.1058
X-0.1628 Y-1.1188
X-0.1538 Y-1.1311
X-0.1439 Y-1.1426
X-0.1331 Y-1.1533
X-0.1214 Y-1.1632
X-0.109 Y-1.172
X-0.096 Y-1.1799
X-0.0823 Y-1.1866
X-0.0681 Y-1.1923
X-0.0535 Y-1.1968
X-0.0386 Y-1.2001
X-0.0235 Y-1.2022
X-0.0083 Y-1.2031
X0.007 Y-1.2027
X0.0222 Y-1.2011
X0.0372 Y-1.1984
X0.0519 Y-1.1944
X0.0663 Y-1.1892
X0.0802 Y-1.183
X0.0936 Y-1.1756
X0.1063 Y-1.1671
X0.1183 Y-1.1577
X0.1295 Y-1.1474
X0.1399 Y-1.1361
X0.1493 Y-1.1241
X0.1577 Y-1.1114
X0.1723 Y-1.085
X0.1847 Y-1.0574
X0.1926 Y-1.0354
X0.1979 Y-1.0155
X0.2013 Y-0.997
X0.2032 Y-0.979
X0.2035 Y-0.9616
X0.2025 Y-0.9448
X0.2002 Y-0.9283
X0.1967 Y-0.9122
X0.1918 Y-0.8965
X0.1857 Y-0.8812
X0.1783 Y-0.8664
X0.1698 Y-0.8521
X0.16 Y-0.8384
X0.149 Y-0.8254
X0.1369 Y-0.8132
X0.1238 Y-0.8019
X0.1095 Y-0.7916
X0.0943 Y-0.7823
X0.0781 Y-0.7741
X0.0611 Y-0.7672
X0.0434 Y-0.7616
X0.025 Y-0.7573
X0.0061 Y-0.7545
X-0.0131 Y-0.7533
X-0.0326 Y-0.7535
X-0.0522 Y-0.7554
X-0.0718 Y-0.7589
X-0.0911 Y-0.7639
X-0.1102 Y-0.7706
X-0.1287 Y-0.7788
X-0.1467 Y-0.7885
X-0.164 Y-0.7997
X-0.1803 Y-0.8123
X-0.1957 Y-0.8263
X-0.21 Y-0.8415
X-0.223 Y-0.8579
X-0.2301 Y-0.8684
X-0.2355 Y-0.8785
X-0.2389 Y-0.8895
X-0.24 Y-0.9009
Y-1.0749
X-0.2393 Y-1.0884
X-0.2376 Y-1.1017
X-0.2347 Y-1.1153
X-0.2304 Y-1.1294
X-0.2248 Y-1.144
X-0.2176 Y-1.1587
X-0.2091 Y-1.1731
X-0.1992 Y-1.1872
X-0.1878 Y-1.201
X-0.1749 Y-1.2142
X-0.1606 Y-1.2266
X-0.1451 Y-1.2382
X-0.1402 Y-1.2412
X-0.1305 Y-1.246
X-0.1201 Y-1.249
X-0.1094 Y-1.25
G3 X-0.0999 Y-1.2478 I-0.0009 J0.025 F30
X-0.0898 Y-1.2107 I-0.0104 J0.0227 F39.37
G1 X-0.1946 Y-1.0614
G3 X-0.2378 Y-1.0654 I-0.0205 J-0.0144
X-0.24 Y-1.0749 I0.0227 J-0.0104 F30
G1 Y-1.1811 F39.37
X-0.2395 Y-1.1913
X-0.2383 Y-1.2005
X-0.2376 Y-1.2039
X-0.2334 Y-1.2164
X-0.2265 Y-1.2276
X-0.2172 Y-1.237
X-0.2061 Y-1.2441
X-0.1936 Y-1.2485
X-0.1805 Y-1.25
G3 X-0.171 Y-1.2478 I-0.0009 J0.025 F30
X-0.1617 Y-1.2096 I-0.0104 J0.0227 F39.37
G1 X-0.1953 Y-1.1665
G3 X-0.2378 Y-1.1716 I-0.0197 J-0.0154
X-0.24 Y-1.1811 I0.0227 J-0.0104 F30
G1 Y-1.2253 F39.37
X-0.2397 Y-1.2283
X-0.2391 Y-1.2313
X-0.2381 Y-1.2341
X-0.237 Y-1.2363
X-0.2357 Y-1.2386
X-0.234 Y-1.2408
X-0.2319 Y-1.243
X-0.2302 Y-1.2444
X-0.228 Y-1.2459
X-0.2258 Y-1.2472
X-0.2236 Y-1.2482
X-0.2214 Y-1.249
X-0.2191 Y-1.2495
X-0.2169 Y-1.2499
X-0.2125 Y-1.25
X0.0531
X0.0682 Y-1.2492
X0.0816 Y-1.2475
X0.0958 Y-1.2444
X0.1103 Y-1.2401
X0.1248 Y-1.2345
X0.1395 Y-1.2273
X0.1543 Y-1.2186
X0.1695 Y-1.2079
X0.1852 Y-1.1949
X0.2018 Y-1.1787
X0.2174 Y-1.1608
X0.2186 Y-1.1592
X0.2248 Y-1.1486
X0.2287 Y-1.1368
X0.23 Y-1.1246
G3 X0.2278 Y-1.1151 I-0.025 J-0.0009 F30
X0.1913 Y-1.1046 I-0.0227 J-0.0104 F39.37
G1 X0.0402 Y-1.2041
G3 X0.0436 Y-1.2478 I0.0138 J-0.0209
X0.0531 Y-1.25 I0.0104 J0.0227 F30
G1 X0.1642 F39.37
X0.1735 Y-1.2495
X0.183 Y-1.2483
X0.1839 Y-1.2481
X0.1964 Y-1.2439
X0.2076 Y-1.237
X0.217 Y-1.2277
X0.2241 Y-1.2166
X0.2285 Y-1.2042
X0.23 Y-1.1911
G3 X0.2278 Y-1.1816 I-0.025 J-0.0009 F30
X0.1891 Y-1.1727 I-0.0227 J-0.0104 F39.37
G1 X0.1492 Y-1.2058
G3 X0.1548 Y-1.2478 I0.016 J-0.0192
X0.1642 Y-1.25 I0.0104 J0.0227 F30
G1 X0.2037 F39.37
X0.2081 Y-1.2498
X0.2103 Y-1.2493
X0.2125 Y-1.2487
X0.2147 Y-1.2479
X0.2169 Y-1.2467
X0.2191 Y-1.2453
X0.2214 Y-1.2435
X0.222 Y-1.243
X0.224 Y-1.2408
X0.2257 Y-1.2386
X0.227 Y-1.2363
X0.2281 Y-1.2341
X0.2289 Y-1.2319
X0.2295 Y-1.2297
X0.2298 Y-1.2275
X0.23 Y-1.2253
Y-0.8714
X0.2296 Y-0.8628
X0.2281 Y-0.8515
X0.2255 Y-0.8394
X0.2216 Y-0.8265
X0.2166 Y-0.8135
X0.21 Y-0.7999
X0.2017 Y-0.7859
X0.192 Y-0.772
X0.1808 Y-0.7585
X0.1677 Y-0.7452
X0.1529 Y-0.7322
X0.1363 Y-0.72
X0.1184 Y-0.7088
X0.0992 Y-0.6989
X0.0786 Y-0.6903
X0.0567 Y-0.6831
X0.0337 Y-0.6776
X0.0097 Y-0.6739
X-0.0149 Y-0.672
X-0.04 Y-0.6722
X-0.0654 Y-0.6744
X-0.0909 Y-0.6786
X-0.1162 Y-0.685
X-0.1412 Y-0.6935
X-0.1656 Y-0.704
X-0.1892 Y-0.7165
X-0.2119 Y-0.731
X-0.2169 Y-0.7348
X-0.2248 Y-0.7421
X-0.2313 Y-0.7507
X-0.2361 Y-0.7603
X-0.239 Y-0.7706
X-0.24 Y-0.7813
Y-0.9009
G3 X-0.2378 Y-0.9104 I0.025 J0.0009 F30
X-0.2133 Y-0.925 I0.0227 J0.0104 F39.37
G1 X0.2068 Y-0.8955
G3 X0.2278 Y-0.8809 I-0.0018 J0.0249
X0.23 Y-0.8714 I-0.0227 J0.0104 F30
G1 Y-0.7741 F39.37
X0.2296 Y-0.7656
X0.2284 Y-0.7567
X0.2264 Y-0.7473
X0.2233 Y-0.7369
X0.219 Y-0.726
X0.2134 Y-0.7145
X0.2063 Y-0.7023
X0.1977 Y-0.6902
X0.187 Y-0.6772
X0.1749 Y-0.6648
X0.1607 Y-0.6524
X0.144 Y-0.6401
X0.1256 Y-0.6286
X0.1055 Y-0.6183
X0.083 Y-0.6089
X0.0585 Y-0.6008
X0.0321 Y-0.5945
X0.0045 Y-0.5902
X-0.024 Y-0.5881
X-0.0535 Y-0.5882
X-0.0838 Y-0.5908
X-0.1146 Y-0.596
X-0.1454 Y-0.6038
X-0.1755 Y-0.614
X-0.1986 Y-0.6239
X-0.209 Y-0.6295
X-0.2194 Y-0.6366
X-0.2281 Y-0.6457
X-0.2346 Y-0.6565
X-0.2386 Y-0.6685
X-0.24 Y-0.681
Y-0.7813
G3 X-0.2378 Y-0.7908 I0.025 J0.0009 F30
X-0.2146 Y-0.8054 I0.0227 J0.0104 F39.37
G1 X0.2054 Y-0.7982
G3 X0.2278 Y-0.7836 I-0.0004 J0.025
X0.23 Y-0.7741 I-0.0227 J0.0104 F30
G1 Y-0.6856 F39.37
X0.2297 Y-0.6793
X0.2286 Y-0.6713
X0.2266 Y-0.662
X0.2238 Y-0.6525
X0.2196 Y-0.6418
X0.2144 Y-0.6311
X0.2074 Y-0.6191
X0.1992 Y-0.6075
X0.1888 Y-0.5949
X0.1767 Y-0.5825
X0.1625 Y-0.5701
X0.1454 Y-0.5575
X0.1269 Y-0.546
X0.1056 Y-0.535
X0.0814 Y-0.5249
X0.0548 Y-0.5162
X0.027 Y-0.5095
X-0.0032 Y-0.5048
X-0.0356 Y-0.5024
X-0.0696 Y-0.5026
X-0.1048 Y-0.5056
X-0.1388 Y-0.5113
X-0.167 Y-0.5184
X-0.1885 Y-0.5257
X-0.2069 Y-0.5336
X-0.209 Y-0.5348
X-0.2194 Y-0.5419
X-0.2281 Y-0.551
X-0.2346 Y-0.5618
X-0.2386 Y-0.5738
X-0.24 Y-0.5863
Y-0.681
G3 X-0.2378 Y-0.6905 I0.025 J0.0009 F30
X-0.2153 Y-0.7051 I0.0227 J0.0104 F39.37
G1 X0.2047 Y-0.7098
G3 X0.2278 Y-0.6951 I0.0003 J0.025
X0.23 Y-0.6856 I-0.0227 J0.0104 F30
G1 Y-0.606 F39.37
X0.2295 Y-0.5955
X0.2284 Y-0.5876
X0.2265 Y-0.5783
X0.2237 Y-0.569
X0.2195 Y-0.5583
X0.2144 Y-0.5477
X0.2073 Y-0.5358
X0.1992 Y-0.5242
X0.1886 Y-0.5114
X0.1765 Y-0.499
X0.1618 Y-0.4862
X0.1444 Y-0.4733
X0.1255 Y-0.4616
X0.1031 Y-0.45
X0.0774 Y-0.4393
X0.0503 Y-0.4304
X0.0199 Y-0.4231
X-0.0138 Y-0.4179
X-0.0497 Y-0.4152
X-0.0858 Y-0.4154
X-0.1201 Y-0.4183
X-0.1511 Y-0.4235
X-0.1746 Y-0.4295
X-0.1929 Y-0.4357
X-0.2048 Y-0.4408
X-0.2147 Y-0.4463
X-0.2233 Y-0.4535
X-0.2304 Y-0.4623
X-0.2357 Y-0.4723
X-0.2389 Y-0.4831
X-0.24 Y-0.4944
Y-0.5863
G3 X-0.2378 Y-0.5958 I0.025 J0.0009 F30
X-0.2162 Y-0.6104 I0.0227 J0.0104 F39.37
G1 X0.2038 Y-0.6301
G3 X0.2278 Y-0.6155 I0.0012 J0.025
X0.23 Y-0.606 I-0.0227 J0.0104 F30
G1 Y-0.5175 F39.37
X0.2297 Y-0.5115
X0.2286 Y-0.5035
X0.2265 Y-0.4941
X0.2236 Y-0.4846
X0.2192 Y-0.4738
X0.2139 Y-0.463
X0.2066 Y-0.4508
X0.1982 Y-0.439
X0.1871 Y-0.4258
X0.1746 Y-0.4132
X0.1592 Y-0.4001
X0.1412 Y-0.387
X0.1212 Y-0.3747
X0.0971 Y-0.3625
X0.0703 Y-0.3516
X0.0411 Y-0.3423
X0.0081 Y-0.3346
X-0.0274 Y-0.3294
X-0.0639 Y-0.3269
X-0.0991 Y-0.3274
X-0.1318 Y-0.3305
X-0.1586 Y-0.3352
X-0.1791 Y-0.3406
X-0.1971 Y-0.3468
X-0.2052 Y-0.3504
X-0.215 Y-0.3559
X-0.2235 Y-0.3631
X-0.2305 Y-0.3719
X-0.2357 Y-0.3819
X-0.2389 Y-0.3926
X-0.24 Y-0.4038
Y-0.4944
G3 X-0.2378 Y-0.5039 I0.025 J0.0009 F30
X-0.2164 Y-0.5185 I0.0227 J0.0104 F39.37
G1 X0.2036 Y-0.5416
G3 X0.2278 Y-0.527 I0.0014 J0.025
X0.23 Y-0.5175 I-0.0227 J0.0104 F30
G1 Y-0.4379 F39.37
X0.2295 Y-0.428
X0.2285 Y-0.42
X0.2265 Y-0.4107
X0.2236 Y-0.4011
X0.2194 Y-0.3904
X0.214 Y-0.3793
X0.207 Y-0.3674
X0.1983 Y-0.3549
X0.1874 Y-0.3419
X0.1747 Y-0.3288
X0.1588 Y-0.315
X0.1415 Y-0.3021
X0.1201 Y-0.2888
X0.0957 Y-0.2762
X0.069 Y-0.2651
X0.038 Y-0.2549
X0.004 Y-0.2468
X-0.0318 Y-0.2412
X-0.0675 Y-0.2385
X-0.1014 Y-0.2387
X-0.1331 Y-0.2415
X-0.1588 Y-0.2458
X-0.1788 Y-0.2508
X-0.1966 Y-0.2569
X-0.2048 Y-0.2604
X-0.2147 Y-0.2658
X-0.2233 Y-0.2731
X-0.2304 Y-0.2819
X-0.2357 Y-0.2919
X-0.2389 Y-0.3027
X-0.24 Y-0.3139
Y-0.4038
G3 X-0.2378 Y-0.4133 I0.025 J0.0009 F30
X-0.217 Y-0.4278 I0.0227 J0.0104 F39.37
G1 X0.203 Y-0.462
G3 X0.2278 Y-0.4474 I0.002 J0.0249
X0.23 Y-0.4379 I-0.0227 J0.0104 F30
G1 Y-0.3495 F39.37
X0.2297 Y-0.3434
X0.2286 Y-0.3353
X0.2266 Y-0.3258
X0.2237 Y-0.3161
X0.2195 Y-0.3053
X0.2139 Y-0.2939
X0.2068 Y-0.2817
X0.1979 Y-0.269
X0.1868 Y-0.2557
X0.1738 Y-0.2424
X0.1575 Y-0.2282
X0.1397 Y-0.215
X0.1175 Y-0.2012
X0.0925 Y-0.1883
X0.065 Y-0.1768
X0.0335 Y-0.1665
X-0.0006 Y-0.1583
X-0.0363 Y-0.1527
X-0.0715 Y-0.1501
X-0.105 Y-0.1503
X-0.1357 Y-0.1529
X-0.1605 Y-0.1571
X-0.1801 Y-0.162
X-0.1973 Y-0.1679
X-0.2048 Y-0.1711
X-0.2147 Y-0.1766
X-0.2233 Y-0.1838
X-0.2304 Y-0.1926
X-0.2357 Y-0.2026
X-0.2389 Y-0.2134
X-0.24 Y-0.2247
Y-0.3139
G3 X-0.2378 Y-0.3234 I0.025 J0.0009 F30
X-0.2171 Y-0.338 I0.0227 J0.0104 F39.37
G1 X0.2029 Y-0.3735
G3 X0.2278 Y-0.3589 I0.0021 J0.0249
X0.23 Y-0.3495 I-0.0227 J0.0104 F30
G1 Y-0.265 F39.37
X0.2296 Y-0.2576
X0.2285 Y-0.2493
X0.2265 Y-0.2399
X0.2235 Y-0.23
X0.2193 Y-0.2191
X0.2136 Y-0.2074
X0.2065 Y-0.1952
X0.1973 Y-0.1821
X0.1862 Y-0.1688
X0.1728 Y-0.155
X0.1564 Y-0.1408
X0.138 Y-0.1272
X0.1154 Y-0.1131
X0.0903 Y-0.1001
X0.0622 Y-0.0884
X0.0304 Y-0.078
X-0.0038 Y-0.0698
X-0.0393 Y-0.0643
X-0.0742 Y-0.0616
X-0.1073 Y-0.0618
X-0.1372 Y-0.0644
X-0.1615 Y-0.0685
X-0.1808 Y-0.0734
X-0.1977 Y-0.0791
X-0.2048 Y-0.0821
X-0.2147 Y-0.0876
X-0.2233 Y-0.0949
X-0.2304 Y-0.1037
X-0.2357 Y-0.1136
X-0.2389 Y-0.1245
X-0.24 Y-0.1357
Y-0.2247
G3 X-0.2378 Y-0.2342 I0.025 J0.0009 F30
X-0.2174 Y-0.2487 I0.0227 J0.0104 F39.37
G1 X0.2026 Y-0.289
G3 X0.2278 Y-0.2745 I0.0024 J0.0249
X0.23 Y-0.265 I-0.0227 J0.0104 F30
G1 Y-0.1814 F39.37
X0.2295 Y-0.171
X0.2284 Y-0.1626
X0.2264 Y-0.1532
X0.2233 Y-0.143
X0.2191 Y-0.1322
X0.2133 Y-0.1202
X0.2061 Y-0.108
X0.1967 Y-0.0947
X0.1857 Y-0.0814
X0.172 Y-0.0673
X0.1556 Y-0.053
X0.1368 Y-0.0392
X0.1138 Y-0.0248
X0.0888 Y-0.0119
X0.0603 Y0
X0.0283 Y0.0104
X-0.006 Y0.0187
X-0.0413 Y0.0242
X-0.076 Y0.0268
X-0.1087 Y0.0266
X-0.1382 Y0.024
X-0.1621 Y0.02
X-0.1813 Y0.0152
X-0.198 Y0.0095
X-0.2048 Y0.0066
X-0.2147 Y0.0011
X-0.2233 Y-0.0061
X-0.2304 Y-0.0149
X-0.2357 Y-0.0249
X-0.2389 Y-0.0357
X-0.24 Y-0.047
Y-0.1357
G3 X-0.2378 Y-0.1452 I0.025 J0.0009 F30
X-0.2177 Y-0.1597 I0.0227 J0.0104 F39.37
G1 X0.2023 Y-0.2053
G3 X0.2278 Y-0.1909 I0.0027 J0.0249
X0.23 Y-0.1814 I-0.0227 J0.0104 F30
G1 Y-0.0929 F39.37
X0.2296 Y-0.0841
X0.2284 Y-0.0756
X0.2264 Y-0.0662
X0.2233 Y-0.0558
X0.2191 Y-0.0449
X0.2132 Y-0.0327
X0.206 Y-0.0206
X0.1965 Y-0.007
X0.1854 Y0.0063
X0.1715 Y0.0206
X0.1551 Y0.0349
X0.1361 Y0.049
X0.1128 Y0.0634
X0.0878 Y0.0764
X0.0591 Y0.0884
X0.027 Y0.0989
X-0.0074 Y0.1071
X-0.0426 Y0.1126
X-0.0771 Y0.1152
X-0.1097 Y0.115
X-0.1388 Y0.1125
X-0.1625 Y0.1085
X-0.1815 Y0.1037
X-0.1982 Y0.098
X-0.2048 Y0.0952
X-0.2147 Y0.0897
X-0.2233 Y0.0825
X-0.2304 Y0.0737
X-0.2357 Y0.0637
X-0.2389 Y0.0529
X-0.24 Y0.0416
Y-0.047
G3 X-0.2378 Y-0.0565 I0.025 J0.0009 F30
X-0.2177 Y-0.0709 I0.0227 J0.0104 F39.37
G1 X0.2023 Y-0.1169
G3 X0.2278 Y-0.1024 I0.0027 J0.0249
X0.23 Y-0.0929 I-0.0227 J0.0104 F30
G1 Y-0.0044 F39.37
X0.2296 Y0.0034
X0.2285 Y0.012
X0.2265 Y0.0214
X0.2233 Y0.0319
X0.2191 Y0.0427
X0.2131 Y0.055
X0.2059 Y0.0672
X0.1963 Y0.0809
X0.1853 Y0.0943
X0.1712 Y0.1087
X0.1548 Y0.1229
X0.1356 Y0.1372
X0.1122 Y0.1517
X0.0871 Y0.1647
X0.0583 Y0.1767
X0.0261 Y0.1872
X-0.0083 Y0.1955
X-0.0434 Y0.201
X-0.0778 Y0.2035
X-0.1103 Y0.2034
X-0.1392 Y0.2009
X-0.1628 Y0.1969
X-0.1817 Y0.1921
X-0.1983 Y0.1865
X-0.2048 Y0.1837
X-0.2147 Y0.1782
X-0.2233 Y0.171
X-0.2304 Y0.1622
X-0.2357 Y0.1522
X-0.2389 Y0.1414
X-0.24 Y0.1301
Y0.0416
G3 X-0.2378 Y0.0321 I0.025 J0.0009 F30
X-0.2177 Y0.0177 I0.0227 J0.0104 F39.37
G1 X0.2023 Y-0.0284
G3 X0.2278 Y-0.0139 I0.0027 J0.0249
X0.23 Y-0.0044 I-0.0227 J0.0104 F30
G1 Y0.084 F39.37
X0.2296 Y0.0911
X0.2285 Y0.0998
X0.2265 Y0.1092
X0.2233 Y0.1198
X0.2191 Y0.1306
X0.2131 Y0.143
X0.2059 Y0.1552
X0.1962 Y0.169
X0.1852 Y0.1823
X0.171 Y0.1968
X0.1546 Y0.2111
X0.1353 Y0.2254
X0.1118 Y0.24
X0.0867 Y0.253
X0.0578 Y0.2651
X0.0255 Y0.2756
X-0.0088 Y0.2839
X-0.044 Y0.2893
X-0.0783 Y0.2919
X-0.1107 Y0.2917
X-0.1394 Y0.2892
X-0.1629 Y0.2853
X-0.1819 Y0.2805
X-0.1983 Y0.2749
X-0.2048 Y0.2722
X-0.2147 Y0.2667
X-0.2233 Y0.2594
X-0.2304 Y0.2506
X-0.2357 Y0.2407
X-0.2389 Y0.2298
X-0.24 Y0.2186
Y0.1301
G3 X-0.2378 Y0.1206 I0.025 J0.0009 F30
X-0.2177 Y0.1062 I0.0227 J0.0104 F39.37
G1 X0.2023 Y0.0601
G3 X0.2278 Y0.0746 I0.0027 J0.0249
X0.23 Y0.084 I-0.0227 J0.0104 F30
G1 Y0.1725 F39.37
X0.2297 Y0.1791
X0.2285 Y0.1878
X0.2265 Y0.1972
X0.2233 Y0.2078
X0.2191 Y0.2187
X0.2131 Y0.2311
X0.2059 Y0.2433
X0.1962 Y0.2571
X0.1851 Y0.2705
X0.1709 Y0.2851
X0.1545 Y0.2993
X0.1351 Y0.3137
X0.1116 Y0.3283
X0.0864 Y0.3413
X0.0574 Y0.3535
X0.0252 Y0.364
X-0.0092 Y0.3722
X-0.0443 Y0.3777
X-0.0785 Y0.3803
X-0.1109 Y0.3801
X-0.1395 Y0.3776
X-0.163 Y0.3737
X-0.1819 Y0.3689
X-0.1984 Y0.3633
X-0.2048 Y0.3606
X-0.2147 Y0.3551
X-0.2233 Y0.3478
X-0.2304 Y0.3391
X-0.2357 Y0.3291
X-0.2389 Y0.3182
X-0.24 Y0.307
Y0.2186
G3 X-0.2378 Y0.2091 I0.025 J0.0009 F30
X-0.2177 Y0.1946 I0.0227 J0.0104 F39.37
G1 X0.2023 Y0.1485
G3 X0.2278 Y0.163 I0.0027 J0.0249
X0.23 Y0.1725 I-0.0227 J0.0104 F30
G1 Y0.261 F39.37
X0.2297 Y0.2672
X0.2285 Y0.2759
X0.2265 Y0.2853
X0.2233 Y0.296
X0.2191 Y0.3068
X0.2131 Y0.3193
X0.2059 Y0.3315
X0.1962 Y0.3454
X0.185 Y0.3587
X0.1708 Y0.3733
X0.1544 Y0.3876
X0.1349 Y0.402
X0.1114 Y0.4167
X0.0862 Y0.4297
X0.0572 Y0.4418
X0.0249 Y0.4524
X-0.0095 Y0.4606
X-0.0445 Y0.4661
X-0.0787 Y0.4686
X-0.1111 Y0.4684
X-0.1396 Y0.466
X-0.1631 Y0.462
X-0.182 Y0.4573
X-0.1984 Y0.4517
X-0.2048 Y0.449
X-0.2147 Y0.4435
X-0.2233 Y0.4362
X-0.2304 Y0.4274
X-0.2357 Y0.4175
X-0.2389 Y0.4066
X-0.24 Y0.3954
Y0.307
G3 X-0.2378 Y0.2975 I0.025 J0.0009 F30
X-0.2177 Y0.283 I0.0227 J0.0104 F39.37
G1 X0.2023 Y0.237
G3 X0.2278 Y0.2515 I0.0027 J0.0249
X0.23 Y0.261 I-0.0227 J0.0104 F30
G1 Y0.3495 F39.37
X0.2297 Y0.3554
X0.2286 Y0.3642
X0.2265 Y0.3736
X0.2233 Y0.3842
X0.2191 Y0.3951
X0.2131 Y0.4076
X0.2058 Y0.4198
X0.1961 Y0.4337
X0.185 Y0.4471
X0.1707 Y0.4617
X0.1543 Y0.476
X0.1348 Y0.4904
X0.1113 Y0.505
X0.086 Y0.5181
X0.057 Y0.5302
X0.0247 Y0.5407
X-0.0097 Y0.549
X-0.0447 Y0.5544
X-0.0789 Y0.557
X-0.1113 Y0.5568
X-0.1398 Y0.5543
X-0.1632 Y0.5504
X-0.1821 Y0.5456
X-0.1985 Y0.54
X-0.2048 Y0.5373
X-0.2147 Y0.5319
X-0.2233 Y0.5246
X-0.2304 Y0.5158
X-0.2357 Y0.5058
X-0.2389 Y0.495
X-0.24 Y0.4838
Y0.3954
G3 X-0.2378 Y0.3859 I0.025 J0.0009 F30
X-0.2177 Y0.3714 I0.0227 J0.0104 F39.37
G1 X0.2023 Y0.3255
G3 X0.2278 Y0.34 I0.0027 J0.0249
X0.23 Y0.3495 I-0.0227 J0.0104 F30
G1 Y0.4379 F39.37
X0.2297 Y0.4439
X0.2285 Y0.4527
X0.2265 Y0.4621
X0.2233 Y0.4728
X0.219 Y0.4837
X0.2129 Y0.4962
X0.2056 Y0.5085
X0.1958 Y0.5223
X0.1846 Y0.5357
X0.1703 Y0.5504
X0.1538 Y0.5647
X0.1342 Y0.5791
X0.1106 Y0.5937
X0.0852 Y0.6068
X0.0561 Y0.6188
X0.0237 Y0.6293
X-0.0107 Y0.6375
X-0.0457 Y0.6429
X-0.0799 Y0.6454
X-0.1122 Y0.6451
X-0.1404 Y0.6426
X-0.1638 Y0.6386
X-0.1826 Y0.6338
X-0.1989 Y0.6283
X-0.2049 Y0.6256
X-0.2148 Y0.6202
X-0.2234 Y0.6129
X-0.2304 Y0.6041
X-0.2357 Y0.5942
X-0.2389 Y0.5834
X-0.24 Y0.5721
Y0.4838
G3 X-0.2378 Y0.4743 I0.025 J0.0009 F30
X-0.2177 Y0.4598 I0.0227 J0.0104 F39.37
G1 X0.2023 Y0.4139
G3 X0.2278 Y0.4284 I0.0027 J0.0249
X0.23 Y0.4379 I-0.0227 J0.0104 F30
G1 Y0.5264 F39.37
X0.2297 Y0.5324
X0.2285 Y0.5412
X0.2264 Y0.5506
X0.2232 Y0.5614
X0.2189 Y0.5722
X0.2127 Y0.5848
X0.2054 Y0.5971
X0.1956 Y0.611
X0.1843 Y0.6244
X0.1699 Y0.6391
X0.1534 Y0.6534
X0.1337 Y0.6678
X0.1099 Y0.6824
X0.0845 Y0.6954
X0.0553 Y0.7075
X0.0229 Y0.7179
X-0.0116 Y0.726
X-0.0466 Y0.7313
X-0.0808 Y0.7337
X-0.113 Y0.7334
X-0.1411 Y0.7309
X-0.1643 Y0.7269
X-0.1831 Y0.722
X-0.1993 Y0.7165
X-0.205 Y0.714
X-0.2148 Y0.7085
X-0.2234 Y0.7012
X-0.2305 Y0.6924
X-0.2357 Y0.6825
X-0.2389 Y0.6717
X-0.24 Y0.6605
Y0.5721
G3 X-0.2378 Y0.5626 I0.025 J0.0009 F30
X-0.2177 Y0.5482 I0.0227 J0.0104 F39.37
G1 X0.2023 Y0.5024
G3 X0.2278 Y0.5169 I0.0027 J0.0249
X0.23 Y0.5264 I-0.0227 J0.0104 F30
G1 Y0.6149 F39.37
X0.2297 Y0.6208
X0.2285 Y0.6297
X0.2264 Y0.6391
X0.2231 Y0.6499
X0.2188 Y0.6608
X0.2126 Y0.6733
X0.2052 Y0.6857
X0.1953 Y0.6996
X0.1841 Y0.713
X0.1695 Y0.7277
X0.153 Y0.742
X0.1332 Y0.7565
X0.1094 Y0.7711
X0.0839 Y0.784
X0.0546 Y0.7961
X0.0221 Y0.8064
X-0.0124 Y0.8145
X-0.0474 Y0.8198
X-0.0815 Y0.8221
X-0.1137 Y0.8217
X-0.1416 Y0.8191
X-0.1647 Y0.8151
X-0.1835 Y0.8103
X-0.1996 Y0.8047
X-0.2051 Y0.8023
X-0.2149 Y0.7968
X-0.2235 Y0.7895
X-0.2305 Y0.7808
X-0.2357 Y0.7708
X-0.2389 Y0.76
X-0.24 Y0.7489
Y0.6605
G3 X-0.2378 Y0.651 I0.025 J0.0009 F30
X-0.2177 Y0.6365 I0.0227 J0.0104 F39.37
G1 X0.2023 Y0.5909
G3 X0.2278 Y0.6054 I0.0027 J0.0249
X0.23 Y0.6149 I-0.0227 J0.0104 F30
G1 Y0.7033 F39.37
X0.2297 Y0.7093
X0.2285 Y0.7182
X0.2264 Y0.7276
X0.223 Y0.7385
X0.2187 Y0.7493
X0.2125 Y0.7619
X0.2051 Y0.7743
X0.1952 Y0.7882
X0.1838 Y0.8016
X0.1692 Y0.8164
X0.1527 Y0.8306
X0.1328 Y0.8451
X0.1089 Y0.8597
X0.0834 Y0.8726
X0.054 Y0.8846
X0.0215 Y0.895
X-0.0131 Y0.903
X-0.0481 Y0.9082
X-0.0821 Y0.9105
X-0.1143 Y0.91
X-0.1421 Y0.9074
X-0.1651 Y0.9034
X-0.1838 Y0.8985
X-0.1999 Y0.8929
X-0.2052 Y0.8906
X-0.215 Y0.8851
X-0.2235 Y0.8778
X-0.2305 Y0.8691
X-0.2357 Y0.8591
X-0.2389 Y0.8484
X-0.24 Y0.8372
Y0.7489
G3 X-0.2378 Y0.7394 I0.025 J0.0009 F30
X-0.2177 Y0.7249 I0.0227 J0.0104 F39.37
G1 X0.2023 Y0.6793
G3 X0.2278 Y0.6938 I0.0027 J0.0249
X0.23 Y0.7033 I-0.0227 J0.0104 F30
G1 Y0.7918 F39.37
X0.2297 Y0.7978
X0.2284 Y0.8067
X0.2263 Y0.8161
X0.223 Y0.827
X0.2186 Y0.8379
X0.2124 Y0.8504
X0.205 Y0.8628
X0.195 Y0.8768
X0.1836 Y0.8902
X0.169 Y0.905
X0.1524 Y0.9192
X0.1324 Y0.9337
X0.1085 Y0.9482
X0.0829 Y0.9612
X0.0535 Y0.9732
X0.0209 Y0.9835
X-0.0137 Y0.9914
X-0.0487 Y0.9966
X-0.0827 Y0.9988
X-0.1148 Y0.9984
X-0.1425 Y0.9957
X-0.1655 Y0.9916
X-0.1841 Y0.9868
X-0.2001 Y0.9812
X-0.2053 Y0.9789
X-0.215 Y0.9734
X-0.2236 Y0.9662
X-0.2305 Y0.9574
X-0.2357 Y0.9475
X-0.2389 Y0.9367
X-0.24 Y0.9256
Y0.8372
G3 X-0.2378 Y0.8277 I0.025 J0.0009 F30
X-0.2177 Y0.8132 I0.0227 J0.0104 F39.37
G1 X0.2023 Y0.7678
G3 X0.2278 Y0.7823 I0.0027 J0.0249
X0.23 Y0.7918 I-0.0227 J0.0104 F30
G1 Y0.8803 F39.37
X0.2297 Y0.8863
X0.2284 Y0.8952
X0.2263 Y0.9046
X0.2229 Y0.9155
X0.2186 Y0.9264
X0.2123 Y0.939
X0.2048 Y0.9514
X0.1948 Y0.9653
X0.1834 Y0.9788
X0.1687 Y0.9936
X0.1521 Y1.0077
X0.1321 Y1.0223
X0.1081 Y1.0368
X0.0825 Y1.0497
X0.053 Y1.0617
X0.0203 Y1.072
X-0.0143 Y1.0799
X-0.0492 Y1.085
X-0.0832 Y1.0872
X-0.1153 Y1.0867
X-0.1429 Y1.084
X-0.1658 Y1.0799
X-0.1844 Y1.075
X-0.2004 Y1.0694
X-0.2053 Y1.0672
X-0.2151 Y1.0617
X-0.2236 Y1.0545
X-0.2306 Y1.0457
X-0.2357 Y1.0358
X-0.2389 Y1.0251
X-0.24 Y1.0139
Y0.9256
G3 X-0.2378 Y0.9161 I0.025 J0.0009 F30
X-0.2177 Y0.9016 I0.0227 J0.0104 F39.37
G1 X0.2023 Y0.8563
G3 X0.2278 Y0.8708 I0.0027 J0.0249
X0.23 Y0.8803 I-0.0227 J0.0104 F30
G1 Y0.9647 F39.37
X0.2296 Y0.9737
X0.2284 Y0.9827
X0.2264 Y0.9919
X0.2232 Y1.0026
X0.219 Y1.0134
X0.213 Y1.0258
X0.2057 Y1.0382
X0.196 Y1.052
X0.1849 Y1.0654
X0.1704 Y1.0802
X0.1544 Y1.0942
X0.1345 Y1.1089
X0.1114 Y1.1233
X0.0861 Y1.1364
X0.0567 Y1.1487
X0.0242 Y1.1592
X-0.0102 Y1.1675
X-0.045 Y1.1729
X-0.079 Y1.1755
X-0.1111 Y1.1753
X-0.1399 Y1.1728
X-0.1632 Y1.1689
X-0.182 Y1.1642
X-0.1985 Y1.1585
X-0.2048 Y1.1558
X-0.2147 Y1.1504
X-0.2233 Y1.1431
X-0.2304 Y1.1343
X-0.2357 Y1.1243
X-0.2389 Y1.1135
X-0.24 Y1.1023
Y1.0139
G3 X-0.2378 Y1.0044 I0.025 J0.0009 F30
X-0.2179 Y0.99 I0.0227 J0.0104 F39.37
G1 X0.2021 Y0.9408
G3 X0.2278 Y0.9553 I0.0029 J0.0248
X0.23 Y0.9647 I-0.0227 J0.0104 F30
G1 Y1.0532 F39.37
X0.2296 Y1.0621
X0.2284 Y1.0708
X0.2264 Y1.0802
X0.2232 Y1.0909
X0.219 Y1.1017
X0.2129 Y1.1142
X0.2057 Y1.1265
X0.196 Y1.1403
X0.1849 Y1.1537
X0.1705 Y1.1684
X0.1542 Y1.1827
X0.1346 Y1.1972
X0.111 Y1.2118
X0.0857 Y1.2249
X0.0567 Y1.237
X0.0244 Y1.2476
X0.0209 Y1.2484
X0.0164 Y1.2493
X0.0119 Y1.2498
X0.0073 Y1.25
X-0.124
X-0.1547 Y1.2485
X-0.1712 Y1.2463
X-0.187 Y1.2429
X-0.2006 Y1.2389
X-0.2028 Y1.238
X-0.2132 Y1.2327
X-0.2223 Y1.2254
X-0.2298 Y1.2165
X-0.2354 Y1.2063
X-0.2388 Y1.1952
X-0.24 Y1.1836
G3 X-0.2378 Y1.1741 I0.025 J0.0009 F30
X-0.2048 Y1.1617 I0.0227 J0.0104 F39.37
G1 X-0.1146 Y1.2022
G3 X-0.1145 Y1.2478 I-0.0102 J0.0228
X-0.124 Y1.25 I-0.0104 J-0.0227 F30
G1 X-0.2125 F39.37
X-0.2169 Y1.2499
X-0.2191 Y1.2495
X-0.2214 Y1.249
X-0.2236 Y1.2482
X-0.2258 Y1.2472
X-0.228 Y1.2459
X-0.2302 Y1.2444
X-0.2319 Y1.243
X-0.234 Y1.2408
X-0.2357 Y1.2386
X-0.237 Y1.2363
X-0.2381 Y1.2341
X-0.2391 Y1.2313
X-0.2397 Y1.2283
X-0.24 Y1.2253
Y1.1023
G3 X-0.2378 Y1.0928 I0.025 J0.0009 F30
X-0.2179 Y1.0783 I0.0227 J0.0104 F39.37
G1 X0.2021 Y1.0293
G3 X0.2278 Y1.0437 I0.0029 J0.0248
X0.23 Y1.0532 I-0.0227 J0.0104 F30
G1 Y1.1417 F39.37
X0.2296 Y1.1503
X0.2284 Y1.1591
X0.2264 Y1.1685
X0.2232 Y1.1792
X0.219 Y1.19
X0.2129 Y1.2025
X0.2057 Y1.2148
X0.1959 Y1.2287
X0.1957 Y1.2289
X0.1866 Y1.2378
X0.1756 Y1.2445
X0.1636 Y1.2486
X0.1509 Y1.25
G3 X0.1414 Y1.2478 I0.0009 J-0.025 F30
X0.1307 Y1.2114 I0.0104 J-0.0227 F39.37
G1 X0.184 Y1.129
G3 X0.2278 Y1.1322 I0.021 J0.0136
X0.23 Y1.1417 I-0.0227 J0.0104 F30
G1 Y1.2213 F39.37
Y1.2253
X0.2298 Y1.2275
X0.2295 Y1.2297
X0.2289 Y1.2319
X0.2281 Y1.2341
X0.227 Y1.2363
X0.2257 Y1.2386
X0.224 Y1.2408
X0.222 Y1.243
X0.2214 Y1.2435
X0.2191 Y1.2453
X0.2169 Y1.2467
X0.2147 Y1.2479
X0.2125 Y1.2487
X0.2103 Y1.2493
X0.2081 Y1.2498
X0.2037 Y1.25
X0.0073
X0.0052 Y1.2495 Z-0.1997 F30
X0.0032 Y1.2491 Z-0.199
X0.0014 Y1.2487 Z-0.1979
X-0.0002 Y1.2484 Z-0.1963
X-0.0013 Y1.2482 Z-0.1945
X-0.002 Y1.2479 Z-0.1924
X-0.0022 Y1.2478 Z-0.1902
G0 Z0.2
X1.5209 Y-0.8787
Z0.125
G1 Z0.1 F30
G3 X1.7575 Y-0.8995 Z0.087 I0.1183 J-0.0104 F13.12
X1.5209 Y-0.8787 Z0.0739 I-0.1183 J0.0104
X1.7575 Y-0.8995 Z0.0609 I0.1183 J-0.0104
X1.5209 Y-0.8787 Z0.0479 I-0.1183 J0.0104
X1.7575 Y-0.8995 Z0.0349 I0.1183 J-0.0104
X1.5209 Y-0.8787 Z0.0218 I-0.1183 J0.0104
X1.7575 Y-0.8995 Z0.0088 I0.1183 J-0.0104
X1.5209 Y-0.8787 Z-0.0042 I-0.1183 J0.0104
X1.7575 Y-0.8995 Z-0.0172 I0.1183 J-0.0104
X1.5209 Y-0.8787 Z-0.0303 I-0.1183 J0.0104
X1.7575 Y-0.8995 Z-0.0433 I0.1183 J-0.0104
X1.5209 Y-0.8787 Z-0.0563 I-0.1183 J0.0104
X1.7575 Y-0.8995 Z-0.0694 I0.1183 J-0.0104
X1.5209 Y-0.8787 Z-0.0824 I-0.1183 J0.0104
X1.7575 Y-0.8995 Z-0.0954 I0.1183 J-0.0104
X1.5209 Y-0.8787 Z-0.1084 I-0.1183 J0.0104
X1.7575 Y-0.8995 Z-0.1215 I0.1183 J-0.0104
X1.5209 Y-0.8787 Z-0.1345 I-0.1183 J0.0104
X1.7575 Y-0.8995 Z-0.1475 I0.1183 J-0.0104
X1.5209 Y-0.8787 Z-0.1606 I-0.1183 J0.0104
X1.7575 Y-0.8995 Z-0.1736 I0.1183 J-0.0104
X1.5209 Y-0.8787 Z-0.1866 I-0.1183 J0.0104
X1.634 Y-1.0077 Z-0.1933 I0.1183 J-0.0104
X1.7579 Y-0.8891 Z-0.2 I0.0052 J0.1186
X1.5204 I-0.1188 J0
X1.7579 I0.1188 J0
G1 X1.7581 Y-0.8794 F39.37
X1.7652 Y-0.841
X1.767 Y-0.8353
X1.7681 Y-0.8294
X1.7687 Y-0.8234
Y-0.8174
X1.7682 Y-0.8109
X1.7671 Y-0.804
X1.7654 Y-0.7967
X1.7629 Y-0.7892
X1.7597 Y-0.7815
X1.7557 Y-0.7737
X1.7508 Y-0.7659
X1.745 Y-0.7581
X1.7384 Y-0.7505
X1.7309 Y-0.7431
X1.7225 Y-0.7362
X1.7133 Y-0.7297
X1.7032 Y-0.7238
X1.6925 Y-0.7186
X1.681 Y-0.7142
X1.669 Y-0.7106
X1.6565 Y-0.7079
X1.6435 Y-0.7062
X1.6302 Y-0.7055
X1.6167 Y-0.706
X1.603 Y-0.7075
X1.5894 Y-0.7101
X1.5758 Y-0.7139
X1.5625 Y-0.7188
X1.5495 Y-0.7248
X1.5369 Y-0.7319
X1.5249 Y-0.74
X1.5135 Y-0.7491
X1.5028 Y-0.7592
X1.4928 Y-0.7701
X1.4838 Y-0.7819
X1.4757 Y-0.7944
X1.4686 Y-0.8075
X1.4625 Y-0.8212
X1.4576 Y-0.8354
X1.4538 Y-0.8499
X1.4512 Y-0.8648
X1.4498 Y-0.8798
X1.4496 Y-0.8949
X1.4506 Y-0.91
X1.4528 Y-0.925
X1.4562 Y-0.9398
X1.4608 Y-0.9543
X1.4666 Y-0.9684
X1.4735 Y-0.9819
X1.4814 Y-0.9949
X1.4904 Y-1.0072
X1.5003 Y-1.0188
X1.5111 Y-1.0295
X1.5227 Y-1.0393
X1.5351 Y-1.0482
X1.5482 Y-1.056
X1.5619 Y-1.0628
X1.5761 Y-1.0684
X1.5906 Y-1.0729
X1.6055 Y-1.0762
X1.6207 Y-1.0783
X1.6359 Y-1.0792
X1.6512 Y-1.0789
X1.6663 Y-1.0773
X1.6814 Y-1.0745
X1.6961 Y-1.0705
X1.7105 Y-1.0654
X1.7244 Y-1.0591
X1.7377 Y-1.0517
X1.7505 Y-1.0433
X1.7625 Y-1.0339
X1.7737 Y-1.0235
X1.7841 Y-1.0123
X1.7935 Y-1.0002
X1.8019 Y-0.9875
X1.8165 Y-0.9611
X1.8289 Y-0.9336
X1.8367 Y-0.9115
X1.8421 Y-0.8917
X1.8455 Y-0.8731
X1.8473 Y-0.8552
X1.8477 Y-0.8378
X1.8467 Y-0.8209
X1.8444 Y-0.8044
X1.8408 Y-0.7883
X1.836 Y-0.7726
X1.8299 Y-0.7573
X1.8225 Y-0.7425
X1.8139 Y-0.7282
X1.8042 Y-0.7145
X1.7932 Y-0.7016
X1.7811 Y-0.6894
X1.7679 Y-0.6781
X1.7537 Y-0.6677
X1.7384 Y-0.6584
X1.7223 Y-0.6503
X1.7053 Y-0.6433
X1.6875 Y-0.6377
X1.6692 Y-0.6335
X1.6503 Y-0.6307
X1.6311 Y-0.6294
X1.6116 Y-0.6297
X1.592 Y-0.6316
X1.5724 Y-0.635
X1.5531 Y-0.6401
X1.534 Y-0.6467
X1.5154 Y-0.6549
X1.4975 Y-0.6646
X1.4802 Y-0.6759
X1.4639 Y-0.6885
X1.4485 Y-0.7025
X1.4342 Y-0.7177
X1.4212 Y-0.7341
X1.4094 Y-0.7515
X1.3991 Y-0.7699
X1.3902 Y-0.7892
X1.3829 Y-0.8091
X1.3772 Y-0.8296
X1.3732 Y-0.8506
X1.3708 Y-0.8718
X1.3702 Y-0.8932
X1.3712 Y-0.9146
X1.374 Y-0.9359
X1.3785 Y-0.957
X1.3847 Y-0.9776
X1.3925 Y-0.9976
X1.402 Y-1.017
X1.4129 Y-1.0356
X1.4253 Y-1.0533
X1.4391 Y-1.0699
X1.4542 Y-1.0853
X1.4705 Y-1.0995
X1.4879 Y-1.1124
X1.5063 Y-1.1238
X1.5255 Y-1.1337
X1.5455 Y-1.1421
X1.5661 Y-1.1488
X1.5871 Y-1.1538
X1.6085 Y-1.1572
X1.6301 Y-1.1588
X1.6518 Y-1.1586
X1.6733 Y-1.1568
X1.6947 Y-1.1532
X1.7157 Y-1.1479
X1.7362 Y-1.1409
X1.7561 Y-1.1323
X1.7753 Y-1.1221
X1.7935 Y-1.1105
X1.8108 Y-1.0974
X1.8291 Y-1.081
X1.8474 Y-1.0618
X1.8646 Y-1.0406
X1.8803 Y-1.0177
X1.8941 Y-0.9936
X1.9056 Y-0.9692
X1.9149 Y-0.9445
X1.922 Y-0.9197
X1.9269 Y-0.895
X1.9299 Y-0.8704
X1.9308 Y-0.846
X1.9298 Y-0.8219
X1.9269 Y-0.7981
X1.9221 Y-0.7748
X1.9154 Y-0.752
X1.907 Y-0.7299
X1.8968 Y-0.7085
X1.885 Y-0.6879
X1.8714 Y-0.6683
X1.8563 Y-0.6498
X1.8396 Y-0.6324
X1.8214 Y-0.6164
X1.8019 Y-0.6017
X1.7811 Y-0.5885
X1.7591 Y-0.5769
X1.7361 Y-0.5671
X1.7121 Y-0.559
X1.6874 Y-0.5529
X1.6621 Y-0.5488
X1.6363 Y-0.5466
X1.6103
X1.5841 Y-0.5486
X1.558 Y-0.5528
X1.5322 Y-0.5591
X1.5069 Y-0.5675
X1.4821 Y-0.5779
X1.4581 Y-0.5904
X1.4351 Y-0.6048
X1.4132 Y-0.6211
X1.3926 Y-0.6392
X1.3735 Y-0.659
X1.3559 Y-0.6803
X1.3401 Y-0.7031
X1.3261 Y-0.7271
X1.314 Y-0.7522
X1.3039 Y-0.7783
X1.296 Y-0.8052
X1.2902 Y-0.8326
X1.2867 Y-0.8605
X1.2854 Y-0.8887
X1.2863 Y-0.9169
X1.2895 Y-0.9449
X1.295 Y-0.9727
X1.3027 Y-0.9999
X1.3125 Y-1.0265
X1.3245 Y-1.0522
X1.3385 Y-1.0768
X1.3544 Y-1.1003
X1.3722 Y-1.1225
X1.3917 Y-1.1431
X1.4129 Y-1.1622
X1.4354 Y-1.1794
X1.4594 Y-1.1949
X1.4844 Y-1.2083
X1.5105 Y-1.2197
X1.5374 Y-1.229
X1.565 Y-1.2361
X1.593 Y-1.2409
X1.6214 Y-1.2435
X1.6499 Y-1.2438
X1.6783 Y-1.2418
X1.7065 Y-1.2375
X1.7342 Y-1.231
X1.7613 Y-1.2223
X1.7877 Y-1.2114
X1.8137 Y-1.1981
X1.8394 Y-1.1823
X1.8646 Y-1.1639
X1.8888 Y-1.1429
X1.9117 Y-1.1196
X1.9329 Y-1.0943
X1.9521 Y-1.0673
X1.969 Y-1.0389
X1.9834 Y-1.0095
X1.9954 Y-0.9792
X1.9975 Y-0.9724
X1.9989 Y-0.9668
X1.9997 Y-0.9611
X2 Y-0.9554
Y-0.8095
X1.9982 Y-0.7743
X1.9953 Y-0.7521
X1.9904 Y-0.7289
X1.9832 Y-0.7049
X1.9736 Y-0.6804
X1.9618 Y-0.6559
X1.9476 Y-0.6318
X1.9312 Y-0.6085
X1.9127 Y-0.5862
X1.8921 Y-0.5651
X1.8695 Y-0.5454
X1.845 Y-0.5273
X1.8188 Y-0.5109
X1.7909 Y-0.4966
X1.7617 Y-0.4844
X1.7314 Y-0.4744
X1.7 Y-0.4669
X1.6679 Y-0.4619
X1.6353 Y-0.4595
X1.6023 Y-0.4597
X1.5693 Y-0.4625
X1.5364 Y-0.468
X1.5039 Y-0.4762
X1.472 Y-0.4871
X1.4409 Y-0.5005
X1.4108 Y-0.5164
X1.382 Y-0.5348
X1.3547 Y-0.5555
X1.329 Y-0.5785
X1.3052 Y-0.6035
X1.2914 Y-0.6205
X1.2858 Y-0.6287
X1.2817 Y-0.6377
X1.2792 Y-0.6473
X1.2784 Y-0.6572
Y-1.0572
X1.279 Y-1.0703
X1.2808 Y-1.084
X1.2839 Y-1.0984
X1.2887 Y-1.1144
X1.2953 Y-1.1313
X1.3039 Y-1.149
X1.3152 Y-1.1682
X1.3283 Y-1.1869
X1.3443 Y-1.2061
X1.3632 Y-1.2256
X1.3748 Y-1.2356
X1.3832 Y-1.2418
X1.3926 Y-1.2463
X1.4027 Y-1.2491
X1.4131 Y-1.25
G3 X1.4226 Y-1.2478 I-0.0009 J0.025 F30
X1.4332 Y-1.2114 I-0.0104 J0.0227 F39.37
G1 X1.3243 Y-1.0444
G3 X1.2806 Y-1.0477 I-0.0209 J-0.0137
X1.2784 Y-1.0572 I0.0227 J-0.0104 F30
G1 Y-1.1722 F39.37
X1.279 Y-1.1844
X1.2804 Y-1.1952
X1.2828 Y-1.2066
X1.2834 Y-1.2084
X1.2882 Y-1.2199
X1.2953 Y-1.23
X1.3044 Y-1.2385
X1.3151 Y-1.2448
X1.3269 Y-1.2487
X1.3393 Y-1.25
G3 X1.3488 Y-1.2478 I-0.0009 J0.025 F30
X1.3591 Y-1.211 I-0.0104 J0.0227 F39.37
G1 X1.3241 Y-1.1591
G3 X1.2806 Y-1.1627 I-0.0207 J-0.014
X1.2784 Y-1.1722 I0.0227 J-0.0104 F30
G1 Y-1.2253 F39.37
X1.2786 Y-1.2275
X1.2789 Y-1.2297
X1.2795 Y-1.2319
X1.2803 Y-1.2341
X1.2818 Y-1.2372
X1.2839 Y-1.2402
X1.2865 Y-1.243
X1.2896 Y-1.2454
X1.2927 Y-1.2473
X1.295 Y-1.2483
X1.2972 Y-1.249
X1.2994 Y-1.2496
X1.3016 Y-1.2499
X1.3104 Y-1.25
X1.8063
X1.822 Y-1.2492
X1.8354 Y-1.2475
X1.8511 Y-1.2441
X1.8669 Y-1.2394
X1.8853 Y-1.2322
X1.9038 Y-1.2232
X1.9241 Y-1.2113
X1.9455 Y-1.1962
X1.9662 Y-1.1791
X1.9824 Y-1.1632
X1.9899 Y-1.1543
X1.9954 Y-1.1441
X1.9988 Y-1.133
X2 Y-1.1215
G3 X1.9978 Y-1.112 I-0.025 J-0.0009 F30
X1.962 Y-1.101 I-0.0227 J-0.0104 F39.37
G1 X1.7941 Y-1.2037
G3 X1.7968 Y-1.2478 I0.013 J-0.0213
X1.8063 Y-1.25 I0.0104 J0.0227 F30
G1 X1.9303 F39.37
X1.9392 Y-1.2496
X1.9503 Y-1.2481
X1.9539 Y-1.2473
X1.9664 Y-1.2431
X1.9776 Y-1.2362
X1.987 Y-1.227
X1.9941 Y-1.2158
X1.9985 Y-1.2034
X2 Y-1.1903
G3 X1.9978 Y-1.1808 I-0.025 J-0.0009 F30
X1.9597 Y-1.1714 I-0.0227 J-0.0104 F39.37
G1 X1.9159 Y-1.2052
G3 X1.9208 Y-1.2478 I0.0153 J-0.0198
X1.9303 Y-1.25 I0.0104 J0.0227 F30
G1 X1.9745 F39.37
X1.9767 Y-1.2499
X1.979 Y-1.2496
X1.9812 Y-1.249
X1.9834 Y-1.2483
X1.9876 Y-1.2461
X1.9898 Y-1.2447
X1.9919 Y-1.243
X1.9922 Y-1.2427
X1.9942 Y-1.2405
X1.9958 Y-1.2384
X1.9971 Y-1.2363
X1.9981 Y-1.2341
X1.9989 Y-1.2319
X1.9995 Y-1.2297
X1.9998 Y-1.2275
X2 Y-1.2253
Y-0.9554
G3 X1.9993 Y-0.9502 I-0.025 J-0.0009 F30
G1 X1.9982 Y-0.9458
X1.9737 Y-0.8476 F39.37
G2 X1.9936 Y-0.8169 I0.0243 J0.006
G3 X1.9943 Y-0.8167 I-0.0014 J0.0077
X2 Y-0.8095 I-0.0022 J0.0075 F30
G1 Y-0.6414 F39.37
X1.9994 Y-0.6304
X1.9979 Y-0.6183
X1.9949 Y-0.6045
X1.9905 Y-0.5898
X1.9842 Y-0.5737
X1.9761 Y-0.557
X1.9652 Y-0.5385
X1.9526 Y-0.5205
X1.9367 Y-0.5013
X1.9175 Y-0.4817
X1.8962 Y-0.4631
X1.872 Y-0.4452
X1.8445 Y-0.4281
X1.8142 Y-0.4124
X1.7814 Y-0.3987
X1.7466 Y-0.3874
X1.7102 Y-0.3786
X1.6726 Y-0.3727
X1.634 Y-0.3699
X1.5951 Y-0.3701
X1.5562 Y-0.3734
X1.5178 Y-0.3798
X1.4799 Y-0.3892
X1.4429 Y-0.4015
X1.407 Y-0.4166
X1.3723 Y-0.4344
X1.339 Y-0.4548
X1.3074 Y-0.4777
X1.2991 Y-0.4847
X1.2904 Y-0.4939
X1.2838 Y-0.5047
X1.2798 Y-0.5167
X1.2784 Y-0.5293
Y-0.6572
G3 X1.2806 Y-0.6667 I0.025 J0.0009 F30
X1.304 Y-0.6813 I0.0227 J0.0104 F39.37
G1 X1.9756 Y-0.6655
G3 X1.9978 Y-0.6509 I-0.0006 J0.025
X2 Y-0.6414 I-0.0227 J0.0104 F30
G1 Y-0.5352 F39.37
X1.9992 Y-0.5202
X1.9979 Y-0.5099
X1.9955 Y-0.4985
X1.9916 Y-0.4857
X1.9865 Y-0.4726
X1.9793 Y-0.4577
X1.9705 Y-0.4427
X1.9588 Y-0.4262
X1.945 Y-0.4095
X1.9281 Y-0.3922
X1.9073 Y-0.374
X1.8845 Y-0.3572
X1.8576 Y-0.3405
X1.8266 Y-0.3245
X1.792 Y-0.31
X1.7552 Y-0.298
X1.7173 Y-0.2889
X1.6788 Y-0.2828
X1.64 Y-0.2796
X1.601 Y-0.2791
X1.562 Y-0.2813
X1.5234 Y-0.2861
X1.4851 Y-0.2935
X1.4474 Y-0.3035
X1.4104 Y-0.316
X1.3744 Y-0.3309
X1.3394 Y-0.3481
X1.3095 Y-0.3652
X1.3037 Y-0.3692
X1.2951 Y-0.3764
X1.288 Y-0.3852
X1.2827 Y-0.3952
X1.2795 Y-0.406
X1.2784 Y-0.4173
Y-0.5293
G3 X1.2806 Y-0.5388 I0.025 J0.0009 F30
X1.3031 Y-0.5534 I0.0227 J0.0104 F39.37
G1 X1.9748 Y-0.5594
G3 X1.9978 Y-0.5447 I0.0002 J0.025
X2 Y-0.5352 I-0.0227 J0.0104 F30
G1 Y-0.4291 F39.37
X1.9996 Y-0.4211
X1.9984 Y-0.4116
X1.996 Y-0.4004
X1.9926 Y-0.3892
X1.9875 Y-0.3761
X1.9812 Y-0.3631
X1.9724 Y-0.3482
X1.9621 Y-0.3335
X1.9483 Y-0.3168
X1.9328 Y-0.301
X1.9129 Y-0.2836
X1.8903 Y-0.2669
X1.864 Y-0.2505
X1.8332 Y-0.2346
X1.7983 Y-0.22
X1.7613 Y-0.2079
X1.7234 Y-0.1988
X1.6849 Y-0.1924
X1.6461 Y-0.1887
X1.6071 Y-0.1875
X1.5681 Y-0.1888
X1.5293 Y-0.1923
X1.4908 Y-0.1982
X1.4526 Y-0.2063
X1.415 Y-0.2167
X1.3781 Y-0.2293
X1.342 Y-0.244
X1.316 Y-0.2567
X1.3069 Y-0.2621
X1.2973 Y-0.2693
X1.2893 Y-0.2783
X1.2833 Y-0.2888
X1.2796 Y-0.3003
X1.2784 Y-0.3122
Y-0.4173
G3 X1.2806 Y-0.4268 I0.025 J0.0009 F30
X1.3029 Y-0.4414 I0.0227 J0.0104 F39.37
G1 X1.9746 Y-0.4532
G3 X1.9978 Y-0.4386 I0.0004 J0.025
X2 Y-0.4291 I-0.0227 J0.0104 F30
G1 Y-0.3318 F39.37
X1.9997 Y-0.3258
X1.9984 Y-0.3162
X1.9962 Y-0.3059
X1.9929 Y-0.2947
X1.9879 Y-0.2821
X1.9817 Y-0.2694
X1.9732 Y-0.2549
X1.9632 Y-0.2407
X1.9498 Y-0.2246
X1.9346 Y-0.209
X1.9153 Y-0.1923
X1.8926 Y-0.1755
X1.867 Y-0.1596
X1.8364 Y-0.1438
X1.8013 Y-0.1292
X1.7642 Y-0.1172
X1.7264 Y-0.1079
X1.6879 Y-0.1013
X1.6492 Y-0.0973
X1.6102 Y-0.0956
X1.5712 Y-0.0961
X1.5323 Y-0.0988
X1.4936 Y-0.1036
X1.4552 Y-0.1104
X1.4173 Y-0.1192
X1.3798 Y-0.13
X1.344 Y-0.1426
X1.3202 Y-0.1532
X1.3088 Y-0.1594
X1.2986 Y-0.1665
X1.29 Y-0.1756
X1.2837 Y-0.1864
X1.2797 Y-0.1982
X1.2784 Y-0.2106
Y-0.3122
G3 X1.2806 Y-0.3217 I0.025 J0.0009 F30
X1.3026 Y-0.3364 I0.0227 J0.0104 F39.37
G1 X1.9743 Y-0.3559
G3 X1.9978 Y-0.3413 I0.0007 J0.025
X2 Y-0.3318 I-0.0227 J0.0104 F30
G1 Y-0.2433 F39.37
X1.9994 Y-0.2322
X1.9982 Y-0.2227
X1.9961 Y-0.2128
X1.9927 Y-0.2017
X1.988 Y-0.1895
X1.9819 Y-0.1768
X1.9736 Y-0.1628
X1.9637 Y-0.1486
X1.9507 Y-0.133
X1.9356 Y-0.1175
X1.9168 Y-0.1011
X1.8942 Y-0.0844
X1.8689 Y-0.0687
X1.8383 Y-0.0529
X1.8029 Y-0.0381
X1.7659 Y-0.026
X1.728 Y-0.0166
X1.6896 Y-0.0098
X1.6509 Y-0.0054
X1.612 Y-0.0032
X1.573
X1.534 Y-0.0052
X1.4953 Y-0.0091
X1.4567 Y-0.0149
X1.4185 Y-0.0226
X1.3806 Y-0.0321
X1.3463 Y-0.0431
X1.3235 Y-0.0525
X1.3103 Y-0.0592
X1.2996 Y-0.0662
X1.2906 Y-0.0754
X1.2839 Y-0.0863
X1.2798 Y-0.0984
X1.2784 Y-0.1112
Y-0.2106
G3 X1.2806 Y-0.2201 I0.025 J0.0009 F30
X1.3021 Y-0.2347 I0.0227 J0.0104 F39.37
G1 X1.9738 Y-0.2674
G3 X1.9978 Y-0.2528 I0.0012 J0.025
X2 Y-0.2433 I-0.0227 J0.0104 F30
G1 Y-0.146 F39.37
X1.9997 Y-0.14
X1.9985 Y-0.1305
X1.9964 Y-0.1207
X1.993 Y-0.1096
X1.9884 Y-0.0976
X1.9822 Y-0.0849
X1.9741 Y-0.0711
X1.9641 Y-0.0569
X1.9513 Y-0.0415
X1.9361 Y-0.0259
X1.9174 Y-0.0096
X1.8948 Y0.0071
X1.8695 Y0.0229
X1.8387 Y0.0387
X1.8029 Y0.0537
X1.7658 Y0.0658
X1.728 Y0.0752
X1.6896 Y0.0822
X1.6509 Y0.0869
X1.612 Y0.0894
X1.573 Y0.0899
X1.5341 Y0.0885
X1.4952 Y0.0852
X1.4565 Y0.0802
X1.4181 Y0.0734
X1.3802 Y0.0646
X1.3472 Y0.0547
X1.3253 Y0.0461
X1.3112 Y0.0393
X1.3002 Y0.0323
X1.291 Y0.0231
X1.2841 Y0.0121
X1.2798 Y-0.0002
X1.2784 Y-0.0132
Y-0.1112
G3 X1.2806 Y-0.1207 I0.025 J0.0009 F30
X1.3021 Y-0.1353 I0.0227 J0.0104 F39.37
G1 X1.9737 Y-0.1701
G3 X1.9978 Y-0.1555 I0.0013 J0.025
X2 Y-0.146 I-0.0227 J0.0104 F30
G1 Y-0.0575 F39.37
X1.9995 Y-0.0478
X1.9983 Y-0.0383
X1.9962 Y-0.0286
X1.9929 Y-0.0175
X1.9883 Y-0.0056
X1.9821 Y0.0071
X1.974 Y0.0208
X1.9641 Y0.035
X1.9513 Y0.0503
X1.9362 Y0.0658
X1.9175 Y0.0821
X1.8949 Y0.0989
X1.8694 Y0.1147
X1.8384 Y0.1307
X1.8025 Y0.1457
X1.7654 Y0.1579
X1.7276 Y0.1674
X1.6893 Y0.1746
X1.6506 Y0.1795
X1.6117 Y0.1824
X1.5727 Y0.1833
X1.5337 Y0.1824
X1.4948 Y0.1797
X1.4561 Y0.1753
X1.4176 Y0.1691
X1.3795 Y0.1608
X1.3479 Y0.1517
X1.3264 Y0.1436
X1.3076 Y0.1347
X1.2977 Y0.1275
X1.2896 Y0.1185
X1.2834 Y0.1079
X1.2797 Y0.0963
X1.2784 Y0.0841
Y-0.0132
G3 X1.2806 Y-0.0227 I0.025 J0.0009 F30
X1.3017 Y-0.0372 I0.0227 J0.0104 F39.37
G1 X1.9734 Y-0.0816
G3 X1.9978 Y-0.067 I0.0016 J0.0249
X2 Y-0.0575 I-0.0227 J0.0104 F30
G1 Y0.0358 F39.37
X1.9996 Y0.044
X1.9984 Y0.0534
X1.9963 Y0.0631
X1.9929 Y0.0742
X1.9883 Y0.0861
X1.9822 Y0.0988
X1.9741 Y0.1126
X1.9641 Y0.1267
X1.9513 Y0.1421
X1.9362 Y0.1577
X1.9174 Y0.1741
X1.8947 Y0.1909
X1.869 Y0.2068
X1.8377 Y0.223
X1.8017 Y0.238
X1.7647 Y0.2502
X1.7269 Y0.2599
X1.6886 Y0.2672
X1.6499 Y0.2724
X1.6111 Y0.2756
X1.5721 Y0.2769
X1.5331 Y0.2764
X1.4942 Y0.2741
X1.4554 Y0.2702
X1.4168 Y0.2644
X1.3787 Y0.2565
X1.3486 Y0.2481
X1.3265 Y0.24
X1.308 Y0.2314
X1.298 Y0.2243
X1.2897 Y0.2152
X1.2835 Y0.2045
X1.2797 Y0.1929
X1.2784 Y0.1806
Y0.0841
G3 X1.2806 Y0.0746 I0.025 J0.0009 F30
X1.3016 Y0.0601 I0.0227 J0.0104 F39.37
G1 X1.9732 Y0.0118
G3 X1.9978 Y0.0263 I0.0018 J0.0249
X2 Y0.0358 I-0.0227 J0.0104 F30
G1 Y0.1283 F39.37
X1.9996 Y0.1358
X1.9984 Y0.1453
X1.9963 Y0.1549
X1.993 Y0.1661
X1.9883 Y0.178
X1.9822 Y0.1907
X1.974 Y0.2045
X1.9641 Y0.2187
X1.9512 Y0.2342
X1.936 Y0.2497
X1.9171 Y0.2662
X1.8943 Y0.2831
X1.8684 Y0.2992
X1.8367 Y0.3156
X1.8007 Y0.3306
X1.7637 Y0.3429
X1.7259 Y0.3526
X1.6877 Y0.3601
X1.6491 Y0.3655
X1.6102 Y0.369
X1.5713 Y0.3706
X1.5323 Y0.3705
X1.4933 Y0.3686
X1.4545 Y0.365
X1.4159 Y0.3596
X1.3777 Y0.3519
X1.3486 Y0.3439
X1.3269 Y0.3361
X1.3087 Y0.3277
X1.3083 Y0.3275
X1.2982 Y0.3204
X1.2898 Y0.3113
X1.2836 Y0.3006
X1.2797 Y0.2889
X1.2784 Y0.2766
Y0.1806
G3 X1.2806 Y0.1711 I0.025 J0.0009 F30
X1.3014 Y0.1566 I0.0227 J0.0104 F39.37
G1 X1.9731 Y0.1042
G3 X1.9978 Y0.1188 I0.0019 J0.0249
X2 Y0.1283 I-0.0227 J0.0104 F30
G1 Y0.2167 F39.37
X1.9994 Y0.2279
X1.9982 Y0.2374
X1.9961 Y0.2471
X1.9928 Y0.2582
X1.9881 Y0.2701
X1.982 Y0.2828
X1.9738 Y0.2967
X1.9639 Y0.3109
X1.9509 Y0.3265
X1.9357 Y0.342
X1.9167 Y0.3586
X1.8938 Y0.3756
X1.8675 Y0.3919
X1.8355 Y0.4085
X1.7995 Y0.4235
X1.7625 Y0.4358
X1.7248 Y0.4456
X1.6865 Y0.4533
X1.6479 Y0.4589
X1.6091 Y0.4626
X1.5702 Y0.4645
X1.5312 Y0.4646
X1.4922 Y0.463
X1.4534 Y0.4597
X1.4147 Y0.4545
X1.3765 Y0.447
X1.3482 Y0.4393
X1.327 Y0.4317
X1.3087 Y0.4234
X1.3084 Y0.4232
X1.2983 Y0.4161
X1.2899 Y0.407
X1.2836 Y0.3963
X1.2797 Y0.3846
X1.2784 Y0.3722
Y0.2766
G3 X1.2806 Y0.2671 I0.025 J0.0009 F30
X1.3011 Y0.2526 I0.0227 J0.0104 F39.37
G1 X1.9728 Y0.1927
G3 X1.9978 Y0.2073 I0.0022 J0.0249
X2 Y0.2167 I-0.0227 J0.0104 F30
G1 Y0.3141 F39.37
X1.9997 Y0.3201
X1.9984 Y0.3296
X1.9963 Y0.3394
X1.9929 Y0.3506
X1.9881 Y0.3627
X1.9819 Y0.3755
X1.9735 Y0.3895
X1.9634 Y0.4038
X1.9502 Y0.4196
X1.9348 Y0.4352
X1.9155 Y0.4519
X1.8921 Y0.4691
X1.8654 Y0.4856
X1.8327 Y0.5023
X1.7967 Y0.5172
X1.7596 Y0.5294
X1.7219 Y0.5393
X1.6837 Y0.5469
X1.6451 Y0.5526
X1.6063 Y0.5564
X1.5673 Y0.5585
X1.5284 Y0.5588
X1.4894 Y0.5574
X1.4505 Y0.5542
X1.4119 Y0.549
X1.3736 Y0.5416
X1.3463 Y0.534
X1.3259 Y0.5266
X1.3124 Y0.5205
X1.3028 Y0.5149
X1.2945 Y0.5076
X1.2876 Y0.4989
X1.2826 Y0.4891
X1.2794 Y0.4784
X1.2784 Y0.4674
Y0.3722
G3 X1.2806 Y0.3627 I0.025 J0.0009 F30
X1.3012 Y0.3482 I0.0227 J0.0104 F39.37
G1 X1.9729 Y0.29
G3 X1.9978 Y0.3046 I0.0022 J0.0249
X2 Y0.3141 I-0.0227 J0.0104 F30
G1 Y0.4025 F39.37
X1.9995 Y0.4122
X1.9983 Y0.4216
X1.9962 Y0.4315
X1.9929 Y0.4426
X1.9881 Y0.4548
X1.982 Y0.4674
X1.9736 Y0.4816
X1.9637 Y0.4957
X1.9504 Y0.5117
X1.9353 Y0.5272
X1.9159 Y0.5442
X1.893 Y0.5611
X1.866 Y0.5779
X1.8331 Y0.5949
X1.7971 Y0.6099
X1.7601 Y0.6223
X1.7224 Y0.6323
X1.6842 Y0.6402
X1.6457 Y0.6461
X1.6069 Y0.6502
X1.568 Y0.6525
X1.529 Y0.653
X1.49 Y0.6518
X1.4512 Y0.6489
X1.4125 Y0.644
X1.3742 Y0.6367
X1.3463 Y0.6291
X1.3252 Y0.6214
X1.3125 Y0.6156
X1.3029 Y0.61
X1.2945 Y0.6028
X1.2876 Y0.5941
X1.2826 Y0.5842
X1.2794 Y0.5736
X1.2784 Y0.5625
Y0.4674
G3 X1.2806 Y0.4579 I0.025 J0.0009 F30
X1.301 Y0.4434 I0.0227 J0.0104 F39.37
G1 X1.9726 Y0.3785
G3 X1.9978 Y0.393 I0.0024 J0.0249
X2 Y0.4025 I-0.0227 J0.0104 F30
G1 Y0.4959 F39.37
X1.9996 Y0.5046
X1.9983 Y0.5141
X1.9962 Y0.524
X1.9929 Y0.5351
X1.9881 Y0.5473
X1.982 Y0.56
X1.9736 Y0.5742
X1.9636 Y0.5884
X1.9502 Y0.6045
X1.9351 Y0.6201
X1.9155 Y0.6371
X1.8923 Y0.6543
X1.8651 Y0.6712
X1.8319 Y0.6884
X1.7959 Y0.7034
X1.759 Y0.7158
X1.7213 Y0.7259
X1.6831 Y0.7339
X1.6446 Y0.7399
X1.6058 Y0.7441
X1.5669 Y0.7466
X1.5279 Y0.7473
X1.489 Y0.7462
X1.4501 Y0.7434
X1.4114 Y0.7385
X1.3733 Y0.7313
X1.3459 Y0.7238
X1.3249 Y0.7162
X1.3125 Y0.7105
X1.3029 Y0.705
X1.2945 Y0.6977
X1.2876 Y0.689
X1.2826 Y0.6791
X1.2794 Y0.6685
X1.2784 Y0.6574
Y0.5625
G3 X1.2806 Y0.553 I0.025 J0.0009 F30
X1.3009 Y0.5385 I0.0227 J0.0104 F39.37
G1 X1.9725 Y0.4719
G3 X1.9978 Y0.4864 I0.0025 J0.0249
X2 Y0.4959 I-0.0227 J0.0104 F30
G1 Y0.5883 F39.37
X1.9996 Y0.5973
X1.9983 Y0.6068
X1.9962 Y0.6167
X1.9928 Y0.6279
X1.9881 Y0.6401
X1.9819 Y0.6528
X1.9735 Y0.6672
X1.9635 Y0.6813
X1.95 Y0.6976
X1.9348 Y0.7132
X1.9151 Y0.7304
X1.8918 Y0.7476
X1.8643 Y0.7647
X1.8308 Y0.782
X1.7948 Y0.797
X1.7579 Y0.8095
X1.7202 Y0.8196
X1.6821 Y0.8277
X1.6436 Y0.8338
X1.6048 Y0.8381
X1.5659 Y0.8407
X1.5269 Y0.8415
X1.4879 Y0.8406
X1.449 Y0.8378
X1.4104 Y0.833
X1.3728 Y0.8259
X1.3456 Y0.8184
X1.3248 Y0.8109
X1.3125 Y0.8053
X1.3029 Y0.7998
X1.2945 Y0.7925
X1.2876 Y0.7838
X1.2826 Y0.7739
X1.2794 Y0.7633
X1.2784 Y0.7522
Y0.6574
G3 X1.2806 Y0.6479 I0.025 J0.0009 F30
X1.3008 Y0.6334 I0.0227 J0.0104 F39.37
G1 X1.9725 Y0.5643
G3 X1.9978 Y0.5788 I0.0026 J0.0249
X2 Y0.5883 I-0.0227 J0.0104 F30
G1 Y0.6816 F39.37
X1.9996 Y0.6901
X1.9983 Y0.6997
X1.9962 Y0.7097
X1.9929 Y0.7208
X1.9881 Y0.7331
X1.9819 Y0.7458
X1.9734 Y0.7603
X1.9634 Y0.7745
X1.9498 Y0.7908
X1.9346 Y0.8065
X1.9147 Y0.8238
X1.8913 Y0.8411
X1.8637 Y0.8583
X1.8298 Y0.8758
X1.7939 Y0.8908
X1.7569 Y0.9033
X1.7193 Y0.9134
X1.6812 Y0.9216
X1.6427 Y0.9278
X1.6039 Y0.9322
X1.565 Y0.9348
X1.526 Y0.9357
X1.4871 Y0.9349
X1.4482 Y0.9322
X1.4095 Y0.9274
X1.3724 Y0.9204
X1.3454 Y0.913
X1.3246 Y0.9055
X1.3125 Y0.9
X1.3029 Y0.8944
X1.2945 Y0.8872
X1.2877 Y0.8784
X1.2826 Y0.8686
X1.2794 Y0.8579
X1.2784 Y0.8469
Y0.7522
G3 X1.2806 Y0.7427 I0.025 J0.0009 F30
X1.3008 Y0.7282 I0.0227 J0.0104 F39.37
G1 X1.9724 Y0.6577
G3 X1.9978 Y0.6722 I0.0026 J0.0249
X2 Y0.6816 I-0.0227 J0.0104 F30
G1 Y0.7741 F39.37
X1.9995 Y0.7832
X1.9983 Y0.7928
X1.9961 Y0.8028
X1.9928 Y0.8139
X1.988 Y0.8263
X1.9818 Y0.839
X1.9733 Y0.8536
X1.9633 Y0.8678
X1.9496 Y0.8842
X1.9343 Y0.8999
X1.9144 Y0.9173
X1.8909 Y0.9347
X1.863 Y0.952
X1.829 Y0.9696
X1.793 Y0.9846
X1.7561 Y0.9971
X1.7184 Y1.0074
X1.6803 Y1.0155
X1.6418 Y1.0218
X1.6031 Y1.0263
X1.5642 Y1.029
X1.5252 Y1.03
X1.4862 Y1.0292
X1.4473 Y1.0265
X1.4086 Y1.0218
X1.372 Y1.0148
X1.3452 Y1.0075
X1.3245 Y1
X1.3125 Y0.9946
X1.3029 Y0.989
X1.2945 Y0.9817
X1.2877 Y0.973
X1.2826 Y0.9632
X1.2794 Y0.9525
X1.2784 Y0.9415
Y0.8469
G3 X1.2806 Y0.8374 I0.025 J0.0009 F30
X1.3007 Y0.8229 I0.0227 J0.0104 F39.37
G1 X1.9723 Y0.7501
G3 X1.9978 Y0.7646 I0.0027 J0.0249
X2 Y0.7741 I-0.0227 J0.0104 F30
G1 Y0.8674 F39.37
X1.9995 Y0.8765
X1.9983 Y0.886
X1.9961 Y0.8961
X1.9928 Y0.9072
X1.988 Y0.9197
X1.9818 Y0.9324
X1.9732 Y0.947
X1.9632 Y0.9612
X1.9495 Y0.9777
X1.9341 Y0.9935
X1.9141 Y1.011
X1.8906 Y1.0284
X1.8625 Y1.0458
X1.8282 Y1.0635
X1.7923 Y1.0786
X1.7553 Y1.0911
X1.7177 Y1.1013
X1.6796 Y1.1095
X1.6411 Y1.1159
X1.6024 Y1.1204
X1.5635 Y1.1232
X1.5245 Y1.1242
X1.4855 Y1.1235
X1.4466 Y1.1208
X1.4079 Y1.1161
X1.3716 Y1.1092
X1.345 Y1.1019
X1.3243 Y1.0945
X1.3125 Y1.0891
X1.3029 Y1.0835
X1.2945 Y1.0763
X1.2876 Y1.0675
X1.2826 Y1.0577
X1.2794 Y1.047
X1.2784 Y1.036
Y0.9415
G3 X1.2806 Y0.932 I0.025 J0.0009 F30
X1.3006 Y0.9175 I0.0227 J0.0104 F39.37
G1 X1.9723 Y0.8435
G3 X1.9978 Y0.8579 I0.0027 J0.0248
X2 Y0.8674 I-0.0227 J0.0104 F30
G1 Y0.9599 F39.37
X1.9995 Y0.9699
X1.9982 Y0.9794
X1.9961 Y0.9896
X1.9927 Y1.0007
X1.9879 Y1.0132
X1.9817 Y1.0259
X1.9731 Y1.0405
X1.9631 Y1.0548
X1.9493 Y1.0714
X1.9339 Y1.0872
X1.9138 Y1.1047
X1.8902 Y1.1222
X1.862 Y1.1397
X1.8276 Y1.1575
X1.7916 Y1.1725
X1.7547 Y1.1851
X1.7171 Y1.1953
X1.679 Y1.2036
X1.6405 Y1.21
X1.6018 Y1.2146
X1.5629 Y1.2174
X1.5239 Y1.2185
X1.4849 Y1.2177
X1.446 Y1.2151
X1.4073 Y1.2104
X1.3713 Y1.2036
X1.3448 Y1.1963
X1.3242 Y1.1888
X1.3125 Y1.1835
X1.3029 Y1.178
X1.2945 Y1.1707
X1.2876 Y1.162
X1.2826 Y1.1521
X1.2794 Y1.1415
X1.2784 Y1.1304
Y1.036
G3 X1.2806 Y1.0265 I0.025 J0.0009 F30
X1.3005 Y1.012 I0.0227 J0.0104 F39.37
G1 X1.9722 Y0.9359
G3 X1.9978 Y0.9504 I0.0028 J0.0248
X2 Y0.9599 I-0.0227 J0.0104 F30
G1 Y1.0572 F39.37
X1.9997 Y1.0632
X1.9984 Y1.0728
X1.9963 Y1.083
X1.9929 Y1.0941
X1.988 Y1.1067
X1.9819 Y1.1194
X1.9732 Y1.1341
X1.9632 Y1.1484
X1.9494 Y1.165
X1.9339 Y1.1809
X1.9137 Y1.1985
X1.8901 Y1.216
X1.8617 Y1.2336
X1.8426 Y1.2435
X1.834 Y1.2471
X1.8251 Y1.2493
X1.8158 Y1.25
G3 X1.8063 Y1.2478 I0.0009 J-0.025 F30
X1.7986 Y1.2078 I0.0104 J-0.0227 F39.37
G1 X1.9569 Y1.0409
G3 X1.9978 Y1.0477 I0.0181 J0.0172
X2 Y1.0572 I-0.0227 J0.0104 F30
G1 Y1.1457 F39.37
X1.9994 Y1.1572
X1.9982 Y1.1667
X1.996 Y1.1769
X1.9927 Y1.188
X1.9878 Y1.2006
X1.9816 Y1.2133
X1.9769 Y1.2213
X1.9697 Y1.231
X1.9607 Y1.239
X1.9502 Y1.245
X1.9387 Y1.2487
X1.9266 Y1.25
G3 X1.9172 Y1.2478 I0.0009 J-0.025 F30
X1.9061 Y1.2121 I0.0104 J-0.0227 F39.37
G1 X1.9536 Y1.1336
G3 X1.9978 Y1.1362 I0.0214 J0.0129
X2 Y1.1457 I-0.0227 J0.0104 F30
G1 Y1.2253 F39.37
X1.9998 Y1.2275
X1.9995 Y1.2297
X1.9989 Y1.2319
X1.9981 Y1.2341
X1.9971 Y1.2363
X1.9958 Y1.2384
X1.9942 Y1.2405
X1.9922 Y1.2427
X1.9919 Y1.243
X1.9898 Y1.2447
X1.9876 Y1.2461
X1.9834 Y1.2483
X1.9812 Y1.249
X1.979 Y1.2496
X1.9767 Y1.2499
X1.9745 Y1.25
X1.3459
X1.3298 Y1.2492
X1.3291 Y1.2491
X1.3175 Y1.2463
X1.3066 Y1.2412
X1.297 Y1.234
X1.2891 Y1.225
X1.2833 Y1.2146
X1.2796 Y1.2032
X1.2784 Y1.1913
G3 X1.2806 Y1.1818 I0.025 J0.0009 F30
X1.3189 Y1.1725 I0.0227 J0.0104 F39.37
G1 X1.3605 Y1.2054
G3 X1.3554 Y1.2478 I-0.0155 J0.0196
X1.3459 Y1.25 I-0.0104 J-0.0227 F30
G1 X1.3104 F39.37
X1.3016 Y1.2499
X1.2994 Y1.2496
X1.2972 Y1.249
X1.295 Y1.2483
X1.2927 Y1.2473
X1.2896 Y1.2454
X1.2865 Y1.243
X1.2839 Y1.2402
X1.2818 Y1.2372
X1.2803 Y1.2341
X1.2795 Y1.2319
X1.2789 Y1.2297
X1.2786 Y1.2275
X1.2784 Y1.2253
Y1.1304
X1.2788 Y1.1283 Z-0.1997 F30
X1.2793 Y1.1263 Z-0.199
X1.2797 Y1.1245 Z-0.1979
X1.28 Y1.123 Z-0.1963
X1.2802 Y1.1218 Z-0.1945
X1.2805 Y1.1212 Z-0.1924
X1.2806 Y1.1209 Z-0.1902
G0 Z0.2
X-1.4624 Y-1.1985
Z-0.13
G1 Z-0.155 F30
X-1.4621 Y-1.1986 Z-0.1589
X-1.4613 Y-1.1991 Z-0.1627
X-1.46 Y-1.1999 Z-0.1663
X-1.4583 Y-1.2009 Z-0.1697
X-1.4561 Y-1.2022 Z-0.1727
X-1.4535 Y-1.2037 Z-0.1752
X-1.4507 Y-1.2055 Z-0.1773
X-1.4475 Y-1.2073 Z-0.1788
X-1.4443 Y-1.2093 Z-0.1797
X-1.4409 Y-1.2113 Z-0.18
G3 X-1.309 Y-1.25 I0.1416 J0.2381
G1 X-1.2839 F39.37
X-1.2779 Y-1.2497
X-1.2722 Y-1.2477
X-1.267 Y-1.2447
X-1.2622 Y-1.2411
X-1.2569 Y-1.2365
X-1.2509 Y-1.2303
X-1.2442 Y-1.2222
X-1.237 Y-1.2119
X-1.2293 Y-1.1986
X-1.2211 Y-1.1814
X-1.2124 Y-1.1589
X-1.2094 Y-1.1489
X-1.2081 Y-1.1435
X-1.2073 Y-1.138
X-1.2071 Y-1.1324
G3 X-1.2093 Y-1.1229 I-0.025 J-0.0009 F30
X-1.2539 Y-1.1211 I-0.0227 J-0.0104 F39.37
G1 X-1.3049 Y-1.2129
G3 X-1.2934 Y-1.2478 I0.0219 J-0.0121
X-1.2839 Y-1.25 I0.0104 J0.0227 F30
G1 X-1.2485 F39.37
X-1.2425 Y-1.2497
X-1.233 Y-1.247
X-1.2243 Y-1.2421
X-1.2171 Y-1.2354
X-1.2116 Y-1.2271
X-1.2082 Y-1.2179
X-1.2071 Y-1.208
G3 X-1.2086 Y-1.1984 I-0.0401 J-0.0014 F30
X-1.2577 Y-1.1708 I-0.0385 J-0.0111 F39.37
X-1.2581 Y-1.2485 I0.0107 J-0.0389
X-1.2485 Y-1.25 I0.0111 J0.0388 F30
G1 X-1.2396 F39.37
X-1.2308 Y-1.2499
X-1.2285 Y-1.2496
X-1.2263 Y-1.2492
X-1.2241 Y-1.2485
X-1.2219 Y-1.2475
X-1.2185 Y-1.2456
X-1.2152 Y-1.243
X-1.213 Y-1.2408
X-1.2106 Y-1.2375
X-1.209 Y-1.2341
X-1.2082 Y-1.2319
X-1.2076 Y-1.2297
X-1.2072 Y-1.2275
X-1.2071 Y-1.2253
Y1.1899
X-1.2079 Y1.2073
X-1.2108 Y1.2187
X-1.2164 Y1.229
X-1.2242 Y1.2378
X-1.2339 Y1.2444
X-1.2449 Y1.2486
X-1.2566 Y1.25
G3 X-1.2661 Y1.2478 I0.0009 J-0.025 F30
X-1.2763 Y1.2108 I0.0104 J-0.0227 F39.37
G1 X-1.2526 Y1.1765
G3 X-1.2093 Y1.1804 I0.0206 J0.0142
X-1.2071 Y1.1899 I-0.0227 J0.0104 F30
G1 Y1.2253 F39.37
X-1.2072 Y1.2275
X-1.2076 Y1.2297
X-1.2082 Y1.2319
X-1.209 Y1.2341
X-1.2106 Y1.2375
X-1.213 Y1.2408
X-1.2152 Y1.243
X-1.2185 Y1.2456
X-1.2219 Y1.2475
X-1.2241 Y1.2485
X-1.2263 Y1.2492
X-1.2285 Y1.2496
X-1.2308 Y1.2499
X-1.2396 Y1.25
X-1.3016
X-1.3037 Y1.2495 Z-0.1797 F30
X-1.3057 Y1.2491 Z-0.179
X-1.3075 Y1.2487 Z-0.1779
X-1.309 Y1.2484 Z-0.1763
X-1.3102 Y1.2482 Z-0.1745
X-1.3109 Y1.2479 Z-0.1724
X-1.3111 Y1.2478 Z-0.1702
G0 Z0.2
X1.4624 Y1.1985
Z-0.13
G1 Z-0.155 F30
X1.4621 Y1.1986 Z-0.1589
X1.4613 Y1.1991 Z-0.1627
X1.46 Y1.1999 Z-0.1663
X1.4583 Y1.2009 Z-0.1697
X1.4561 Y1.2022 Z-0.1727
X1.4535 Y1.2037 Z-0.1752
X1.4507 Y1.2055 Z-0.1773
X1.4475 Y1.2073 Z-0.1788
X1.4443 Y1.2093 Z-0.1797
X1.4409 Y1.2113 Z-0.18
G3 X1.309 Y1.25 I-0.1416 J-0.2381
G1 X1.2839 F39.37
X1.2779 Y1.2497
X1.2722 Y1.2478
X1.267 Y1.2448
X1.2621 Y1.2413
X1.2568 Y1.2367
X1.2509 Y1.2306
X1.2443 Y1.2226
X1.2371 Y1.2124
X1.2294 Y1.1993
X1.2212 Y1.1824
X1.2125 Y1.1603
X1.2101 Y1.1522
X1.2087 Y1.1467
X1.2079 Y1.1411
X1.2076 Y1.1354
G3 X1.2099 Y1.1259 I0.025 J0.0009 F30
X1.2544 Y1.1239 I0.0227 J0.0104 F39.37
G1 X1.3048 Y1.2127
G3 X1.2934 Y1.2478 I-0.0217 J0.0123
X1.2839 Y1.25 I-0.0104 J-0.0227 F30
G1 X1.2485 F39.37
X1.2425 Y1.2497
X1.2331 Y1.2471
X1.2247 Y1.2423
X1.2175 Y1.2357
X1.2121 Y1.2277
X1.2088 Y1.2186
X1.2076 Y1.2089
G3 X1.2092 Y1.1993 I0.0395 J0.0014 F30
X1.2572 Y1.1721 I0.0379 J0.011 F39.37
X1.2581 Y1.2485 I-0.0102 J0.0383
X1.2485 Y1.25 I-0.0111 J-0.038 F30
G1 X1.2396 F39.37
X1.2308 Y1.2499
X1.2285 Y1.2495
X1.2263 Y1.249
X1.2241 Y1.2482
X1.2219 Y1.2472
X1.2188 Y1.2454
X1.2157 Y1.243
X1.213 Y1.2401
X1.211 Y1.2371
X1.2095 Y1.2341
X1.2087 Y1.2319
X1.2082 Y1.2297
X1.2078 Y1.2275
X1.2076 Y1.2253
Y-1.1987
X1.2081 Y-1.2078
X1.211 Y-1.2191
X1.2164 Y-1.2293
X1.2242 Y-1.238
X1.2338 Y-1.2445
X1.2446 Y-1.2486
X1.2562 Y-1.25
G3 X1.2657 Y-1.2478 I-0.0009 J0.025 F30
X1.274 Y-1.2084 I-0.0104 J0.0227 F39.37
G1 X1.2513 Y-1.183
G3 X1.2099 Y-1.1893 I-0.0186 J-0.0167
X1.2076 Y-1.1987 I0.0227 J-0.0104 F30
G1 Y-1.2253 F39.37
X1.2078 Y-1.2275
X1.2082 Y-1.2297
X1.2087 Y-1.2319
X1.2095 Y-1.2341
X1.211 Y-1.2371
X1.213 Y-1.2401
X1.2157 Y-1.243
X1.2188 Y-1.2454
X1.2219 Y-1.2472
X1.2241 Y-1.2482
X1.2263 Y-1.249
X1.2285 Y-1.2495
X1.2308 Y-1.2499
X1.2396 Y-1.25
X1.333
X1.3351 Y-1.2495 Z-0.1797 F30
X1.3372 Y-1.2491 Z-0.179
X1.339 Y-1.2487 Z-0.1779
X1.3405 Y-1.2484 Z-0.1763
X1.3416 Y-1.2482 Z-0.1745
X1.3423 Y-1.2479 Z-0.1724
X1.3425 Y-1.2478 Z-0.1702
G0 Z0.2
X-1.3916 Y-1.1985
Z-0.11
G1 Z-0.135 F30
X-1.3913 Y-1.1986 Z-0.1389
X-1.3905 Y-1.1991 Z-0.1427
X-1.3892 Y-1.1999 Z-0.1463
X-1.3874 Y-1.2009 Z-0.1497
X-1.3853 Y-1.2022 Z-0.1527
X-1.3827 Y-1.2037 Z-0.1552
X-1.3798 Y-1.2055 Z-0.1573
X-1.3767 Y-1.2073 Z-0.1588
X-1.3734 Y-1.2093 Z-0.1597
X-1.3701 Y-1.2113 Z-0.16
G3 X-1.2381 Y-1.25 I0.1416 J0.2381
G1 X-1.213 F39.37
X-1.2071 Y-1.2497
X-1.2013 Y-1.2479
X-1.1961 Y-1.245
X-1.1912 Y-1.2415
X-1.186 Y-1.237
X-1.18 Y-1.231
X-1.1735 Y-1.2233
X-1.1664 Y-1.2133
X-1.1587 Y-1.2004
X-1.1505 Y-1.1839
X-1.1419 Y-1.1622
X-1.1329 Y-1.1329
X-1.1245 Y-1.0948
X-1.1235 Y-1.0881
X-1.1232 Y-1.0853
X-1.123 Y-1.0824
X-1.1229 Y-1.0796
G3 X-1.1251 Y-1.0701 I-0.025 J-0.0009 F30
X-1.1707 Y-1.0703 I-0.0227 J-0.0104 F39.37
G1 X-1.235 Y-1.2149
G3 X-1.2225 Y-1.2478 I0.0228 J-0.0102
X-1.213 Y-1.25 I0.0104 J0.0227 F30
G1 X-1.1776 F39.37
X-1.1716 Y-1.2497
X-1.1604 Y-1.2468
X-1.15 Y-1.2417
X-1.1408 Y-1.2346
X-1.1332 Y-1.2258
X-1.1275 Y-1.2157
X-1.1241 Y-1.2046
X-1.1229 Y-1.193
G3 X-1.1241 Y-1.1833 I-0.0531 J-0.0019 F30
X-1.1916 Y-1.1441 I-0.0519 J-0.0116 F39.37
X-1.1874 Y-1.2488 I0.0158 J-0.0518
X-1.1776 Y-1.25 I0.0116 J0.0529 F30
G1 X-1.1511 F39.37
X-1.1466 Y-1.2499
X-1.1444 Y-1.2497
X-1.1422 Y-1.2492
X-1.14 Y-1.2485
X-1.1378 Y-1.2476
X-1.1356 Y-1.2464
X-1.1334 Y-1.2449
X-1.131 Y-1.243
X-1.1289 Y-1.2408
X-1.1272 Y-1.2386
X-1.1258 Y-1.2363
X-1.1248 Y-1.2341
X-1.1245 Y-1.2334
X-1.1233 Y-1.2293
X-1.1229 Y-1.2253
Y1.1722
X-1.124 Y1.1938
X-1.1247 Y1.1992
X-1.1275 Y1.2109
X-1.1325 Y1.2218
X-1.1397 Y1.2313
X-1.1488 Y1.2392
X-1.1592 Y1.2451
X-1.1706 Y1.2488
X-1.1825 Y1.25
G3 X-1.192 Y1.2478 I0.0009 J-0.025 F30
X-1.2026 Y1.2114 I0.0104 J-0.0227 F39.37
G1 X-1.1688 Y1.1594
G3 X-1.1251 Y1.1627 I0.021 J0.0136
X-1.1229 Y1.1722 I-0.0227 J0.0104 F30
G1 Y1.2253 F39.37
X-1.1233 Y1.2293
X-1.1245 Y1.2334
X-1.1248 Y1.2341
X-1.1258 Y1.2363
X-1.1272 Y1.2386
X-1.1289 Y1.2408
X-1.131 Y1.243
X-1.1334 Y1.2449
X-1.1356 Y1.2464
X-1.1378 Y1.2476
X-1.14 Y1.2485
X-1.1422 Y1.2492
X-1.1444 Y1.2497
X-1.1466 Y1.2499
X-1.1511 Y1.25
X-1.2308
X-1.2329 Y1.2495 Z-0.1597 F30
X-1.2349 Y1.2491 Z-0.159
X-1.2367 Y1.2487 Z-0.1579
X-1.2382 Y1.2484 Z-0.1563
X-1.2394 Y1.2482 Z-0.1545
X-1.24 Y1.2479 Z-0.1524
X-1.2403 Y1.2478 Z-0.1502
G0 Z0.2
X1.3916 Y1.1985
Z-0.11
G1 Z-0.135 F30
X1.3913 Y1.1986 Z-0.1389
X1.3905 Y1.1991 Z-0.1427
X1.3892 Y1.1999 Z-0.1463
X1.3874 Y1.2009 Z-0.1497
X1.3853 Y1.2022 Z-0.1527
X1.3827 Y1.2037 Z-0.1552
X1.3798 Y1.2055 Z-0.1573
X1.3767 Y1.2073 Z-0.1588
X1.3734 Y1.2093 Z-0.1597
X1.3701 Y1.2113 Z-0.16
G3 X1.2381 Y1.25 I-0.1416 J-0.2381
G1 X1.213 F39.37
X1.2071 Y1.2497
X1.2014 Y1.2478
X1.1962 Y1.2448
X1.1913 Y1.2413
X1.186 Y1.2366
X1.18 Y1.2305
X1.1734 Y1.2225
X1.1663 Y1.2123
X1.1585 Y1.1992
X1.1503 Y1.1822
X1.1417 Y1.1599
X1.1326 Y1.1297
X1.1245 Y1.0916
X1.1235 Y1.0843
X1.1231 Y1.0816
X1.123 Y1.0789
X1.1229 Y1.0762
G3 X1.1251 Y1.0667 I0.025 J0.0009 F30
X1.1708 Y1.0671 I0.0227 J0.0104 F39.37
G1 X1.2351 Y1.2151
G3 X1.2225 Y1.2478 I-0.0229 J0.01
X1.213 Y1.25 I-0.0104 J-0.0227 F30
G1 X1.1776 F39.37
X1.1716 Y1.2497
X1.1604 Y1.2467
X1.1499 Y1.2415
X1.1407 Y1.2344
X1.1332 Y1.2255
X1.1275 Y1.2153
X1.1241 Y1.2042
X1.1229 Y1.1926
G3 X1.1241 Y1.1829 I0.0532 J0.0019 F30
X1.1921 Y1.1437 I0.052 J0.0116 F39.37
X1.1874 Y1.2488 I-0.0164 J0.0519
X1.1776 Y1.25 I-0.0116 J-0.0532 F30
G1 X1.1511 F39.37
X1.1466 Y1.2499
X1.1444 Y1.2497
X1.1422 Y1.2492
X1.14 Y1.2485
X1.1378 Y1.2476
X1.1356 Y1.2464
X1.1334 Y1.2449
X1.131 Y1.243
X1.1289 Y1.2408
X1.1272 Y1.2386
X1.1258 Y1.2363
X1.1248 Y1.2341
X1.1245 Y1.2334
X1.1234 Y1.2293
X1.1229 Y1.2253
Y-1.1722
X1.1239 Y-1.193
X1.1248 Y-1.1992
X1.1275 Y-1.2109
X1.1326 Y-1.2218
X1.1398 Y-1.2313
X1.1488 Y-1.2392
X1.1593 Y-1.2451
X1.1707 Y-1.2488
X1.1826 Y-1.25
G3 X1.1921 Y-1.2478 I-0.0009 J0.025 F30
X1.2027 Y-1.2114 I-0.0104 J0.0227 F39.37
G1 X1.1688 Y-1.1594
G3 X1.1251 Y-1.1627 I-0.0209 J-0.0136
X1.1229 Y-1.1722 I0.0227 J-0.0104 F30
G1 Y-1.2253 F39.37
X1.1234 Y-1.2293
X1.1245 Y-1.2334
X1.1248 Y-1.2341
X1.1258 Y-1.2363
X1.1272 Y-1.2386
X1.1289 Y-1.2408
X1.131 Y-1.243
X1.1334 Y-1.2449
X1.1356 Y-1.2464
X1.1378 Y-1.2476
X1.14 Y-1.2485
X1.1422 Y-1.2492
X1.1444 Y-1.2497
X1.1466 Y-1.2499
X1.1511 Y-1.25
X1.2308
X1.2329 Y-1.2495 Z-0.1597 F30
X1.2349 Y-1.2491 Z-0.159
X1.2367 Y-1.2487 Z-0.1579
X1.2382 Y-1.2484 Z-0.1563
X1.2394 Y-1.2482 Z-0.1545
X1.24 Y-1.2479 Z-0.1524
X1.2403 Y-1.2478 Z-0.1502
G0 Z0.2
X-1.303 Y-1.1985
Z-0.09
G1 Z-0.115 F30
X-1.3027 Y-1.1986 Z-0.1189
X-1.302 Y-1.1991 Z-0.1227
X-1.3007 Y-1.1999 Z-0.1263
X-1.2989 Y-1.2009 Z-0.1297
X-1.2967 Y-1.2022 Z-0.1327
X-1.2942 Y-1.2037 Z-0.1352
X-1.2913 Y-1.2055 Z-0.1373
X-1.2882 Y-1.2073 Z-0.1388
X-1.2849 Y-1.2093 Z-0.1397
X-1.2815 Y-1.2113 Z-0.14
G3 X-1.1496 Y-1.25 I0.1416 J0.2381
G1 X-1.1285 F39.37
X-1.1225 Y-1.2497
X-1.1168 Y-1.2478
X-1.1116 Y-1.2449
X-1.1067 Y-1.2413
X-1.1014 Y-1.2368
X-1.0955 Y-1.2307
X-1.0889 Y-1.2228
X-1.0817 Y-1.2126
X-1.074 Y-1.1996
X-1.0658 Y-1.1827
X-1.0572 Y-1.1607
X-1.0482 Y-1.1307
X-1.0399 Y-1.0926
X-1.0393 Y-1.0882
X-1.039 Y-1.0855
X-1.0388 Y-1.0828
X-1.0387 Y-1.08
G3 X-1.041 Y-1.0705 I-0.025 J-0.0009 F30
X-1.0866 Y-1.0707 I-0.0227 J-0.0104 F39.37
G1 X-1.1505 Y-1.2149
G3 X-1.138 Y-1.2478 I0.0229 J-0.0101
X-1.1285 Y-1.25 I0.0104 J0.0227 F30
G1 X-1.0931 F39.37
X-1.0871 Y-1.2497
X-1.0759 Y-1.2468
X-1.0656 Y-1.2417
X-1.0564 Y-1.2346
X-1.0489 Y-1.2258
X-1.0433 Y-1.2157
X-1.0399 Y-1.2047
X-1.0387 Y-1.1932
G3 X-1.04 Y-1.1835 I-0.0528 J-0.0018 F30
X-1.1073 Y-1.1446 I-0.0516 J-0.0116 F39.37
X-1.1028 Y-1.2488 I0.0161 J-0.0515
X-1.0931 Y-1.25 I0.0116 J0.0527 F30
G1 X-1.0714 F39.37
X-1.0625 Y-1.2499
X-1.0603 Y-1.2497
X-1.0581 Y-1.2493
X-1.0559 Y-1.2486
X-1.0537 Y-1.2477
X-1.0502 Y-1.2458
X-1.0485 Y-1.2445
X-1.0468 Y-1.243
X-1.0448 Y-1.2409
X-1.0423 Y-1.2375
X-1.0406 Y-1.2341
X-1.0398 Y-1.2319
X-1.0393 Y-1.2297
X-1.0389 Y-1.2275
X-1.0387 Y-1.2253
Y1.1722
X-1.0398 Y1.1938
X-1.0405 Y1.1992
X-1.0433 Y1.2109
X-1.0484 Y1.2218
X-1.0556 Y1.2313
X-1.0646 Y1.2392
X-1.075 Y1.2451
X-1.0864 Y1.2488
X-1.0984 Y1.25
G3 X-1.1079 Y1.2478 I0.0009 J-0.025 F30
X-1.1184 Y1.2114 I0.0104 J-0.0227 F39.37
G1 X-1.0847 Y1.1594
G3 X-1.041 Y1.1627 I0.021 J0.0136
X-1.0387 Y1.1722 I-0.0227 J0.0104 F30
G1 Y1.2253 F39.37
X-1.0389 Y1.2275
X-1.0393 Y1.2297
X-1.0398 Y1.2319
X-1.0406 Y1.2341
X-1.0423 Y1.2375
X-1.0448 Y1.2409
X-1.0468 Y1.243
X-1.0485 Y1.2445
X-1.0502 Y1.2458
X-1.0537 Y1.2477
X-1.0559 Y1.2486
X-1.0581 Y1.2493
X-1.0603 Y1.2497
X-1.0625 Y1.2499
X-1.0714 Y1.25
X-1.1422
X-1.1443 Y1.2495 Z-0.1397 F30
X-1.1464 Y1.2491 Z-0.139
X-1.1482 Y1.2487 Z-0.1379
X-1.1497 Y1.2484 Z-0.1363
X-1.1508 Y1.2482 Z-0.1345
X-1.1515 Y1.2479 Z-0.1324
X-1.1517 Y1.2478 Z-0.1302
G0 Z0.2
X1.303 Y1.1985
Z-0.09
G1 Z-0.115 F30
X1.3027 Y1.1986 Z-0.1189
X1.302 Y1.1991 Z-0.1227
X1.3007 Y1.1999 Z-0.1263
X1.2989 Y1.2009 Z-0.1297
X1.2967 Y1.2022 Z-0.1327
X1.2942 Y1.2037 Z-0.1352
X1.2913 Y1.2055 Z-0.1373
X1.2882 Y1.2073 Z-0.1388
X1.2849 Y1.2093 Z-0.1397
X1.2815 Y1.2113 Z-0.14
G3 X1.1496 Y1.25 I-0.1416 J-0.2381
G1 X1.1285 F39.37
X1.1225 Y1.2497
X1.1168 Y1.2478
X1.1116 Y1.2449
X1.1067 Y1.2413
X1.1014 Y1.2367
X1.0955 Y1.2307
X1.0889 Y1.2228
X1.0817 Y1.2126
X1.074 Y1.1995
X1.0658 Y1.1827
X1.0572 Y1.1606
X1.0482 Y1.1307
X1.0399 Y1.0926
X1.0387 Y1.0842
X1.0384 Y1.0815
X1.0382 Y1.0787
Y1.076
G3 X1.0404 Y1.0665 I0.025 J0.0009 F30
X1.0861 Y1.0669 I0.0227 J0.0104 F39.37
G1 X1.1505 Y1.215
G3 X1.138 Y1.2478 I-0.0229 J0.01
X1.1285 Y1.25 I-0.0104 J-0.0227 F30
G1 X1.0931 F39.37
X1.0871 Y1.2497
X1.0758 Y1.2467
X1.0653 Y1.2416
X1.0561 Y1.2344
X1.0485 Y1.2255
X1.0428 Y1.2153
X1.0393 Y1.2041
X1.0382 Y1.1925
G3 X1.0394 Y1.1828 I0.0534 J0.0019 F30
X1.1075 Y1.1434 I0.0521 J0.0116 F39.37
X1.1028 Y1.2488 I-0.0163 J0.0521
X1.0931 Y1.25 I-0.0116 J-0.0533 F30
G1 X1.0625 F39.37
X1.0603 Y1.2498
X1.0581 Y1.2494
X1.0559 Y1.2488
X1.0537 Y1.2479
X1.0499 Y1.2459
X1.0481 Y1.2446
X1.0462 Y1.243
X1.0448 Y1.2415
X1.0433 Y1.2397
X1.042 Y1.2378
X1.0401 Y1.2341
X1.0393 Y1.2319
X1.0387 Y1.2297
X1.0383 Y1.2275
X1.0382 Y1.2253
Y-1.1722
X1.0392 Y-1.193
X1.04 Y-1.1992
X1.0428 Y-1.2109
X1.0479 Y-1.2218
X1.0551 Y-1.2313
X1.0641 Y-1.2392
X1.0745 Y-1.2451
X1.0859 Y-1.2488
X1.0979 Y-1.25
G3 X1.1073 Y-1.2478 I-0.0009 J0.025 F30
X1.1179 Y-1.2114 I-0.0104 J0.0227 F39.37
G1 X1.0841 Y-1.1594
G3 X1.0404 Y-1.1627 I-0.0209 J-0.0136
X1.0382 Y-1.1722 I0.0227 J-0.0104 F30
G1 Y-1.2253 F39.37
X1.0383 Y-1.2275
X1.0387 Y-1.2297
X1.0393 Y-1.2319
X1.0401 Y-1.2341
X1.042 Y-1.2378
X1.0433 Y-1.2397
X1.0448 Y-1.2415
X1.0462 Y-1.243
X1.0481 Y-1.2446
X1.0499 Y-1.2459
X1.0537 Y-1.2479
X1.0559 Y-1.2488
X1.0581 Y-1.2494
X1.0603 Y-1.2498
X1.0625 Y-1.25
X1.1245
X1.1736
X1.1758 Y-1.2495 Z-0.1397 F30
X1.1778 Y-1.2491 Z-0.139
X1.1796 Y-1.2487 Z-0.1379
X1.1811 Y-1.2484 Z-0.1363
X1.1822 Y-1.2482 Z-0.1345
X1.1829 Y-1.2479 Z-0.1324
X1.1831 Y-1.2478 Z-0.1302
G0 Z0.2
X-1.2233 Y-1.1985
Z-0.07
G1 Z-0.095 F30
X-1.2231 Y-1.1986 Z-0.0989
X-1.2223 Y-1.1991 Z-0.1027
X-1.221 Y-1.1999 Z-0.1063
X-1.2192 Y-1.2009 Z-0.1097
X-1.217 Y-1.2022 Z-0.1127
X-1.2145 Y-1.2037 Z-0.1152
X-1.2116 Y-1.2055 Z-0.1173
X-1.2085 Y-1.2073 Z-0.1188
X-1.2052 Y-1.2093 Z-0.1197
X-1.2018 Y-1.2113 Z-0.12
G3 X-1.0699 Y-1.25 I0.1416 J0.2381
G1 X-1.0448 F39.37
X-1.0388 Y-1.2497
X-1.0331 Y-1.248
X-1.0278 Y-1.2451
X-1.0229 Y-1.2416
X-1.0177 Y-1.2371
X-1.0118 Y-1.2311
X-1.0053 Y-1.2234
X-0.9982 Y-1.2134
X-0.9905 Y-1.2006
X-0.9823 Y-1.1842
X-0.9737 Y-1.1626
X-0.9647 Y-1.1334
X-0.9563 Y-1.0954
X-0.9506 Y-1.0568
X-0.9468 Y-1.018
X-0.9442 Y-0.9791
X-0.9424 Y-0.9401
X-0.9416 Y-0.9123
Y-0.9117
G3 X-0.9438 Y-0.9022 I-0.025 J-0.0009 F30
G1 X-0.9455 Y-0.8986 Z-0.1197
X-0.947 Y-0.8951 Z-0.1188
X-0.9485 Y-0.8918 Z-0.1173
X-0.9499 Y-0.8888 Z-0.1152
X-0.9512 Y-0.8861 Z-0.1127
X-0.9522 Y-0.8838 Z-0.1097
X-0.9531 Y-0.8819 Z-0.1063
X-0.9537 Y-0.8805 Z-0.1027
X-0.9541 Y-0.8797 Z-0.0989
X-0.9542 Y-0.8794 Z-0.095
G0 Z0.2
X-1.0566 Y-1.219
Z-0.07
G1 Z-0.095 F30
Y-1.2193 Z-0.0989
X-1.0564 Y-1.2202 Z-0.1027
X-1.0562 Y-1.2216 Z-0.1063
X-1.0558 Y-1.2237 Z-0.1097
X-1.0554 Y-1.2262 Z-0.1127
X-1.0548 Y-1.2291 Z-0.1152
X-1.0542 Y-1.2324 Z-0.1173
X-1.0536 Y-1.236 Z-0.1188
X-1.0529 Y-1.2397 Z-0.1197
X-1.0522 Y-1.2436 Z-0.12
G3 X-1.0448 Y-1.25 I0.0077 J0.0014
G1 X-1.0094 F39.37
X-1.0034 Y-1.2497
X-0.9975 Y-1.2488
X-0.9913 Y-1.2473
X-0.9849 Y-1.2452
X-0.9773 Y-1.242
X-0.9697 Y-1.2381
X-0.969 Y-1.2376
X-0.9597 Y-1.2304
X-0.952 Y-1.2214
X-0.9463 Y-1.2111
X-0.9428 Y-1.1999
X-0.9416 Y-1.1882
G3 X-0.9438 Y-1.1787 I-0.025 J-0.0009 F30
X-0.9829 Y-1.1701 I-0.0227 J-0.0104 F39.37
G1 X-1.0248 Y-1.206
G3 X-1.0189 Y-1.2478 I0.0163 J-0.019
X-1.0094 Y-1.25 I0.0104 J0.0227 F30
G1 X-0.974 F39.37
X-0.9651 Y-1.2499
X-0.9629 Y-1.2496
X-0.9607 Y-1.2491
X-0.9585 Y-1.2484
X-0.9563 Y-1.2474
X-0.953 Y-1.2455
X-0.9497 Y-1.243
X-0.9474 Y-1.2406
X-0.9451 Y-1.2374
X-0.9435 Y-1.2341
X-0.9427 Y-1.2319
X-0.9421 Y-1.2297
X-0.9418 Y-1.2275
X-0.9416 Y-1.2253
Y1.1368
X-0.9435 Y1.1758
X-0.9458 Y1.1932
X-0.949 Y1.2082
X-0.9537 Y1.2197
X-0.9609 Y1.2299
X-0.97 Y1.2384
X-0.9807 Y1.2447
X-0.9925 Y1.2487
X-1.0049 Y1.25
G3 X-1.0144 Y1.2478 I0.0009 J-0.025 F30
X-1.027 Y1.2152 I0.0104 J-0.0227 F39.37
G1 X-0.9896 Y1.1278
G3 X-0.9438 Y1.1273 I0.023 J0.0098
X-0.9416 Y1.1368 I-0.0227 J0.0104 F30
G1 Y1.2253 F39.37
X-0.9418 Y1.2275
X-0.9421 Y1.2297
X-0.9427 Y1.2319
X-0.9435 Y1.2341
X-0.9451 Y1.2374
X-0.9474 Y1.2406
X-0.9497 Y1.243
X-0.953 Y1.2455
X-0.9563 Y1.2474
X-0.9585 Y1.2484
X-0.9607 Y1.2491
X-0.9629 Y1.2496
X-0.9651 Y1.2499
X-0.974 Y1.25
X-1.0537
X-1.0558 Y1.2495 Z-0.1197 F30
X-1.0578 Y1.2491 Z-0.119
X-1.0596 Y1.2487 Z-0.1179
X-1.0611 Y1.2484 Z-0.1163
X-1.0623 Y1.2482 Z-0.1145
X-1.0629 Y1.2479 Z-0.1124
X-1.0632 Y1.2478 Z-0.1102
G0 Z0.2
X1.2233 Y1.1985
Z-0.07
G1 Z-0.095 F30
X1.2231 Y1.1986 Z-0.0989
X1.2223 Y1.1991 Z-0.1027
X1.221 Y1.1999 Z-0.1063
X1.2192 Y1.2009 Z-0.1097
X1.217 Y1.2022 Z-0.1127
X1.2145 Y1.2037 Z-0.1152
X1.2116 Y1.2055 Z-0.1173
X1.2085 Y1.2073 Z-0.1188
X1.2052 Y1.2093 Z-0.1197
X1.2018 Y1.2113 Z-0.12
G3 X1.0699 Y1.25 I-0.1416 J-0.2381
G1 X1.0433 F39.37
X1.0373 Y1.2497
X1.0317 Y1.2477
X1.0265 Y1.2447
X1.0217 Y1.2412
X1.0163 Y1.2365
X1.0103 Y1.2303
X1.0037 Y1.2223
X0.9965 Y1.2119
X0.9888 Y1.1987
X0.9805 Y1.1815
X0.9719 Y1.159
X0.9628 Y1.1284
X0.9548 Y1.0903
X0.9494 Y1.0517
X0.9458 Y1.0128
X0.9434 Y0.9739
X0.9423 Y0.9489
Y0.9472
G3 X0.9445 Y0.9377 I0.025 J0.0009 F30
G1 X0.9461 Y0.9342 Z-0.1197
X0.9477 Y0.9307 Z-0.1188
X0.9492 Y0.9274 Z-0.1173
X0.9506 Y0.9244 Z-0.1152
X0.9518 Y0.9217 Z-0.1127
X0.9529 Y0.9193 Z-0.1097
X0.9537 Y0.9175 Z-0.1063
X0.9544 Y0.9161 Z-0.1027
X0.9547 Y0.9153 Z-0.0989
X0.9549 Y0.915 Z-0.095
G0 Z0.2
X1.0552 Y1.219
Z-0.07
G1 Z-0.095 F30
X1.0551 Y1.2193 Z-0.0989
X1.055 Y1.2202 Z-0.1027
X1.0547 Y1.2216 Z-0.1063
X1.0543 Y1.2237 Z-0.1097
X1.0539 Y1.2262 Z-0.1127
X1.0534 Y1.2291 Z-0.1152
X1.0528 Y1.2324 Z-0.1173
X1.0521 Y1.236 Z-0.1188
X1.0515 Y1.2397 Z-0.1197
X1.0508 Y1.2436 Z-0.12
G3 X1.0433 Y1.25 I-0.0077 J-0.0014
G1 X1.0094 F39.37
X1.0034 Y1.2497
X0.9975 Y1.2489
X0.9913 Y1.2474
X0.9849 Y1.2454
X0.9777 Y1.2424
X0.9741 Y1.2406
X0.9634 Y1.2336
X0.9545 Y1.2244
X0.9478 Y1.2135
X0.9437 Y1.2014
X0.9423 Y1.1886
G3 X0.9445 Y1.1791 I0.025 J0.0009 F30
X0.9836 Y1.1706 I0.0227 J0.0104 F39.37
G1 X1.0248 Y1.2061
G3 X1.0189 Y1.2478 I-0.0163 J0.019
X1.0094 Y1.25 I-0.0104 J-0.0227 F30
G1 X0.974 F39.37
X0.9651 Y1.2498
X0.9629 Y1.2495
X0.9607 Y1.2489
X0.9585 Y1.2481
X0.9563 Y1.2471
X0.9533 Y1.2453
X0.9504 Y1.243
X0.9488 Y1.2414
X0.9474 Y1.2398
X0.9456 Y1.2369
X0.9442 Y1.2341
X0.9434 Y1.2319
X0.9428 Y1.2297
X0.9424 Y1.2275
X0.9423 Y1.2253
Y-1.1457
X0.9439 Y-1.1778
X0.9461 Y-1.1948
X0.948 Y-1.2039
X0.9522 Y-1.2164
X0.9591 Y-1.2276
X0.9684 Y-1.237
X0.9795 Y-1.2441
X0.992 Y-1.2485
X1.0051 Y-1.25
G3 X1.0146 Y-1.2478 I-0.0009 J0.025 F30
X1.0268 Y-1.2144 I-0.0104 J0.0227 F39.37
G1 X0.9899 Y-1.1359
G3 X0.9445 Y-1.1362 I-0.0226 J-0.0107
X0.9423 Y-1.1457 I0.0227 J-0.0104 F30
G1 Y-1.2253 F39.37
X0.9424 Y-1.2275
X0.9428 Y-1.2297
X0.9434 Y-1.2319
X0.9442 Y-1.2341
X0.9456 Y-1.2369
X0.9474 Y-1.2398
X0.9488 Y-1.2414
X0.9504 Y-1.243
X0.9533 Y-1.2453
X0.9563 Y-1.2471
X0.9585 Y-1.2481
X0.9607 Y-1.2489
X0.9629 Y-1.2495
X0.9651 Y-1.2498
X0.974 Y-1.25
X1.0537
X1.0558 Y-1.2495 Z-0.1197 F30
X1.0578 Y-1.2491 Z-0.119
X1.0596 Y-1.2487 Z-0.1179
X1.0611 Y-1.2484 Z-0.1163
X1.0623 Y-1.2482 Z-0.1145
X1.0629 Y-1.2479 Z-0.1124
X1.0632 Y-1.2478 Z-0.1102
G0 Z0.2
X-1.1259 Y-1.1985
Z-0.05
G1 Z-0.075 F30
X-1.1257 Y-1.1986 Z-0.0789
X-1.1249 Y-1.1991 Z-0.0827
X-1.1236 Y-1.1999 Z-0.0863
X-1.1218 Y-1.2009 Z-0.0897
X-1.1196 Y-1.2022 Z-0.0927
X-1.1171 Y-1.2037 Z-0.0952
X-1.1142 Y-1.2055 Z-0.0973
X-1.1111 Y-1.2073 Z-0.0988
X-1.1078 Y-1.2093 Z-0.0997
X-1.1044 Y-1.2113 Z-0.1
G3 X-0.9725 Y-1.25 I0.1416 J0.2381
G1 X-0.9474 F39.37
X-0.9414 Y-1.2497
X-0.9357 Y-1.2479
X-0.9305 Y-1.245
X-0.9256 Y-1.2414
X-0.9203 Y-1.2369
X-0.9144 Y-1.2309
X-0.9079 Y-1.223
X-0.9007 Y-1.213
X-0.893 Y-1.2
X-0.8848 Y-1.1834
X-0.8762 Y-1.1615
X-0.8672 Y-1.1319
X-0.8589 Y-1.0938
X-0.8533 Y-1.0552
X-0.8495 Y-1.0164
X-0.847 Y-0.9775
X-0.8453 Y-0.9386
X-0.8441 Y-0.8996
X-0.8433 Y-0.8606
X-0.8428 Y-0.8216
X-0.8424 Y-0.7826
X-0.8421 Y-0.7436
X-0.842 Y-0.7046
X-0.8418 Y-0.6267
X-0.8417 Y-0.5097
X-0.8416 Y-0.1588
Y0.699
Y1.1279
X-0.8422 Y1.1611
X-0.8444 Y1.1825
X-0.8475 Y1.1998
X-0.8493 Y1.2067
X-0.8539 Y1.2185
X-0.861 Y1.2291
X-0.8702 Y1.2379
X-0.881 Y1.2445
X-0.8931 Y1.2486
X-0.9057 Y1.25
X-0.9651
G3 X-0.9746 Y1.2478 I0.0009 J-0.025 F30
G1 X-0.9782 Y1.2461 Z-0.0997
X-0.9817 Y1.2446 Z-0.0988
X-0.9849 Y1.2431 Z-0.0973
X-0.988 Y1.2417 Z-0.0952
X-0.9907 Y1.2404 Z-0.0927
X-0.993 Y1.2394 Z-0.0897
X-0.9949 Y1.2385 Z-0.0863
X-0.9963 Y1.2379 Z-0.0827
X-0.9971 Y1.2375 Z-0.0789
X-0.9974 Y1.2374 Z-0.075
G0 Z0.2
X-0.9592 Y-1.219
Z-0.05
G1 Z-0.075 F30
Y-1.2193 Z-0.0789
X-0.959 Y-1.2202 Z-0.0827
X-0.9588 Y-1.2216 Z-0.0863
X-0.9584 Y-1.2237 Z-0.0897
X-0.958 Y-1.2262 Z-0.0927
X-0.9574 Y-1.2291 Z-0.0952
X-0.9568 Y-1.2324 Z-0.0973
X-0.9562 Y-1.236 Z-0.0988
X-0.9555 Y-1.2397 Z-0.0997
X-0.9548 Y-1.2436 Z-0.1
G3 X-0.9474 Y-1.25 I0.0077 J0.0014
G1 X-0.912 F39.37
X-0.906 Y-1.2497
X-0.9001 Y-1.2488
X-0.8938 Y-1.2472
X-0.8874 Y-1.2451
X-0.8799 Y-1.2419
X-0.8722 Y-1.2378
X-0.8638 Y-1.2326
X-0.8544 Y-1.2255
X-0.849 Y-1.2207
X-0.8407 Y-1.2116
X-0.8345 Y-1.201
X-0.8306 Y-1.1893
X-0.8293 Y-1.177
G3 X-0.8315 Y-1.1675 I-0.025 J-0.0009 F30
X-0.8703 Y-1.1586 I-0.0227 J-0.0104 F39.37
G1 X-0.9271 Y-1.2058
G3 X-0.9215 Y-1.2478 I0.016 J-0.0192
X-0.912 Y-1.25 I0.0104 J0.0227 F30
G1 X-0.8544 F39.37
X-0.8522 Y-1.2499
X-0.85 Y-1.2495
X-0.8478 Y-1.249
X-0.8456 Y-1.2482
X-0.8434 Y-1.2472
X-0.8412 Y-1.2459
X-0.8374 Y-1.243
X-0.8358 Y-1.2413
X-0.8344 Y-1.2397
X-0.8323 Y-1.2364
X-0.8312 Y-1.2341
X-0.8304 Y-1.2319
X-0.8298 Y-1.2297
X-0.8295 Y-1.2275
X-0.8293 Y-1.2253
Y1.2253
X-0.8295 Y1.2275
X-0.8298 Y1.2297
X-0.8304 Y1.2319
X-0.8312 Y1.2341
X-0.8323 Y1.2364
X-0.8344 Y1.2397
X-0.8358 Y1.2413
X-0.8374 Y1.243
X-0.8412 Y1.2459
X-0.8434 Y1.2472
X-0.8456 Y1.2482
X-0.8478 Y1.249
X-0.85 Y1.2495
X-0.8522 Y1.2499
X-0.8544 Y1.25
X-0.9057
X-0.9078 Y1.2495 Z-0.0997 F30
X-0.9098 Y1.2491 Z-0.099
X-0.9117 Y1.2487 Z-0.0979
X-0.9132 Y1.2484 Z-0.0963
X-0.9143 Y1.2482 Z-0.0945
X-0.915 Y1.2479 Z-0.0924
X-0.9152 Y1.2478 Z-0.0902
G0 Z0.2
X1.1259 Y1.1985
Z-0.05
G1 Z-0.075 F30
X1.1257 Y1.1986 Z-0.0789
X1.1249 Y1.1991 Z-0.0827
X1.1236 Y1.1999 Z-0.0863
X1.1218 Y1.2009 Z-0.0897
X1.1196 Y1.2022 Z-0.0927
X1.1171 Y1.2037 Z-0.0952
X1.1142 Y1.2055 Z-0.0973
X1.1111 Y1.2073 Z-0.0988
X1.1078 Y1.2093 Z-0.0997
X1.1044 Y1.2113 Z-0.1
G3 X0.9725 Y1.25 I-0.1416 J-0.2381
G1 X0.9474 F39.37
X0.9414 Y1.2497
X0.9358 Y1.2477
X0.9306 Y1.2447
X0.9257 Y1.2412
X0.9204 Y1.2365
X0.9144 Y1.2303
X0.9078 Y1.2222
X0.9006 Y1.2119
X0.8928 Y1.1986
X0.8846 Y1.1814
X0.8759 Y1.1589
X0.8669 Y1.1283
X0.8589 Y1.0901
X0.8535 Y1.0515
X0.8499 Y1.0127
X0.8474 Y0.9737
X0.8458 Y0.9348
X0.8447 Y0.8958
X0.8439 Y0.8568
X0.8434 Y0.8178
X0.843 Y0.7788
X0.8428 Y0.7399
X0.8426 Y0.7009
X0.8424 Y0.6229
X0.8423 Y0.5059
Y0.155
Y-0.7028
Y-1.1317
X0.843 Y-1.1629
X0.8453 Y-1.184
X0.8485 Y-1.201
X0.8501 Y-1.207
X0.8547 Y-1.2188
X0.8618 Y-1.2293
X0.871 Y-1.238
X0.8818 Y-1.2446
X0.8938 Y-1.2486
X0.9064 Y-1.25
X0.9877
G3 X0.9972 Y-1.2478 I-0.0009 J0.025 F30
G1 X1.0008 Y-1.2461 Z-0.0997
X1.0042 Y-1.2446 Z-0.0988
X1.0075 Y-1.2431 Z-0.0973
X1.0106 Y-1.2417 Z-0.0952
X1.0133 Y-1.2404 Z-0.0927
X1.0156 Y-1.2394 Z-0.0897
X1.0175 Y-1.2385 Z-0.0863
X1.0188 Y-1.2379 Z-0.0827
X1.0197 Y-1.2375 Z-0.0789
X1.0199 Y-1.2374 Z-0.075
G0 Z0.2
X0.9592 Y1.219
Z-0.05
G1 Z-0.075 F30
Y1.2193 Z-0.0789
X0.959 Y1.2202 Z-0.0827
X0.9588 Y1.2216 Z-0.0863
X0.9584 Y1.2237 Z-0.0897
X0.958 Y1.2262 Z-0.0927
X0.9574 Y1.2291 Z-0.0952
X0.9568 Y1.2324 Z-0.0973
X0.9562 Y1.236 Z-0.0988
X0.9555 Y1.2397 Z-0.0997
X0.9548 Y1.2436 Z-0.1
G3 X0.9474 Y1.25 I-0.0077 J-0.0014
G1 X0.912 F39.37
X0.906 Y1.2497
X0.9001 Y1.2487
X0.8937 Y1.2471
X0.8872 Y1.2449
X0.8797 Y1.2416
X0.8718 Y1.2373
X0.8635 Y1.232
X0.854 Y1.2247
X0.8447 Y1.2163
X0.8379 Y1.2076
X0.8329 Y1.1978
X0.8298 Y1.1872
X0.8288 Y1.1762
G3 X0.831 Y1.1667 I0.025 J0.0009 F30
X0.8698 Y1.1579 I0.0227 J0.0104 F39.37
G1 X0.9272 Y1.2058
G3 X0.9215 Y1.2478 I-0.016 J0.0192
X0.912 Y1.25 I-0.0104 J-0.0227 F30
G1 X0.8589 F39.37
X0.85 Y1.2496
X0.8478 Y1.2491
X0.8456 Y1.2484
X0.8434 Y1.2475
X0.8412 Y1.2463
X0.839 Y1.2448
X0.8369 Y1.243
X0.8343 Y1.2402
X0.8323 Y1.2374
X0.8307 Y1.2341
X0.8299 Y1.2319
X0.8293 Y1.2297
X0.8289 Y1.2275
X0.8288 Y1.2253
Y-1.2253
X0.8289 Y-1.2275
X0.8293 Y-1.2297
X0.8299 Y-1.2319
X0.8307 Y-1.2341
X0.8323 Y-1.2374
X0.8343 Y-1.2402
X0.8369 Y-1.243
X0.839 Y-1.2448
X0.8412 Y-1.2463
X0.8434 Y-1.2475
X0.8456 Y-1.2484
X0.8478 Y-1.2491
X0.85 Y-1.2496
X0.8589 Y-1.25
X0.9064
X0.9085 Y-1.2495 Z-0.0997 F30
X0.9105 Y-1.2491 Z-0.099
X0.9123 Y-1.2487 Z-0.0979
X0.9138 Y-1.2484 Z-0.0963
X0.915 Y-1.2482 Z-0.0945
X0.9157 Y-1.2479 Z-0.0924
X0.9159 Y-1.2478 Z-0.0902
G0 Z0.2
X-1.0108 Y-1.1985
Z-0.03
G1 Z-0.055 F30
X-1.0106 Y-1.1986 Z-0.0589
X-1.0098 Y-1.1991 Z-0.0627
X-1.0085 Y-1.1999 Z-0.0663
X-1.0067 Y-1.2009 Z-0.0697
X-1.0045 Y-1.2022 Z-0.0727
X-1.002 Y-1.2037 Z-0.0752
X-0.9991 Y-1.2055 Z-0.0773
X-0.996 Y-1.2073 Z-0.0788
X-0.9927 Y-1.2093 Z-0.0797
X-0.9893 Y-1.2113 Z-0.08
G3 X-0.8574 Y-1.25 I0.1416 J0.2381
G1 X-0.8341 F39.37
X-0.8281 Y-1.2497
X-0.8225 Y-1.2476
X-0.8173 Y-1.2446
X-0.8125 Y-1.241
X-0.8071 Y-1.2362
X-0.8011 Y-1.2299
X-0.7944 Y-1.2218
X-0.7872 Y-1.2113
X-0.7794 Y-1.1978
X-0.7712 Y-1.1804
X-0.7625 Y-1.1575
X-0.7534 Y-1.1263
X-0.7456 Y-1.0881
X-0.7403 Y-1.0494
X-0.7368 Y-1.0106
X-0.7344 Y-0.9717
X-0.7328 Y-0.9327
X-0.7317 Y-0.8937
X-0.7309 Y-0.8548
X-0.7304 Y-0.8158
X-0.7301 Y-0.7768
X-0.7298 Y-0.7378
X-0.7297 Y-0.6988
X-0.7295 Y-0.6208
X-0.7294 Y-0.5038
X-0.7293 Y-0.1139
Y0.7049
Y1.1338
X-0.7302 Y1.1641
X-0.7325 Y1.1849
X-0.7357 Y1.2018
X-0.7372 Y1.2072
X-0.7419 Y1.2189
X-0.7489 Y1.2294
X-0.7581 Y1.2381
X-0.7689 Y1.2446
X-0.7809 Y1.2486
X-0.7934 Y1.25
X-0.85
G3 X-0.8595 Y1.2478 I0.0009 J-0.025 F30
G1 X-0.8631 Y1.2461 Z-0.0797
X-0.8665 Y1.2446 Z-0.0788
X-0.8698 Y1.2431 Z-0.0773
X-0.8729 Y1.2417 Z-0.0752
X-0.8756 Y1.2404 Z-0.0727
X-0.8779 Y1.2394 Z-0.0697
X-0.8798 Y1.2385 Z-0.0663
X-0.8811 Y1.2379 Z-0.0627
X-0.882 Y1.2375 Z-0.0589
X-0.8823 Y1.2374 Z-0.055
G0 Z0.2
X-0.8459 Y-1.219
Z-0.03
G1 Z-0.055 F30
Y-1.2193 Z-0.0589
X-0.8457 Y-1.2202 Z-0.0627
X-0.8455 Y-1.2216 Z-0.0663
X-0.8451 Y-1.2237 Z-0.0697
X-0.8446 Y-1.2262 Z-0.0727
X-0.8441 Y-1.2291 Z-0.0752
X-0.8435 Y-1.2324 Z-0.0773
X-0.8429 Y-1.236 Z-0.0788
X-0.8422 Y-1.2397 Z-0.0797
X-0.8415 Y-1.2436 Z-0.08
G3 X-0.8341 Y-1.25 I0.0077 J0.0014
G1 X-0.8009 F39.37
X-0.7949 Y-1.2497
X-0.7889 Y-1.2489
X-0.7829 Y-1.2475
X-0.7764 Y-1.2455
X-0.7694 Y-1.2427
X-0.7613 Y-1.2386
X-0.7534 Y-1.2338
X-0.7444 Y-1.2273
X-0.7349 Y-1.2192
X-0.7254 Y-1.2096
X-0.7147 Y-1.1971
X-0.7102 Y-1.1908
X-0.7042 Y-1.1803
X-0.7005 Y-1.1688
X-0.6992 Y-1.1567
G3 X-0.7015 Y-1.1472 I-0.025 J-0.0009 F30
X-0.7408 Y-1.1389 I-0.0227 J-0.0104 F39.37
G1 X-0.8166 Y-1.2063
G3 X-0.8104 Y-1.2478 I0.0166 J-0.0187
X-0.8009 Y-1.25 I0.0104 J0.0227 F30
G1 X-0.7349 F39.37
X-0.7289 Y-1.2497
X-0.7195 Y-1.2469
X-0.7112 Y-1.2416
X-0.7047 Y-1.2341
X-0.7006 Y-1.2252
X-0.6992 Y-1.2154
G3 X-0.7009 Y-1.2058 I-0.0353 J-0.0012 F30
X-0.7092 Y-1.192 I-0.0336 J-0.0109 F39.37
X-0.7583 Y-1.2396 I-0.0245 J-0.0238
X-0.7445 Y-1.2483 I0.0245 J0.0238
X-0.7349 Y-1.25 I0.0108 J0.0324 F30
