%
(CurvedTopBallSP)
(T1  D=0.125 CR=0.0625 - ZMIN=-0.5534 - ball end mill)
G90
G17
G20
G28 G91 Z0
G90

(Parallel1 2)
M9
T1 M6
S18000 M3
G54
M9
G0 X4.2683 Y0.2503
Z0.6
Z-0.4713
G1 Z-0.5409 F15
G18 G3 X4.25 Z-0.552 I-0.0125 K0
G1 X4.2029 Z-0.5276 F20
X4.1282 Z-0.4905
X4.0596 Z-0.458
X3.9835 Z-0.4238
X3.9033 Z-0.3896
X3.8295 Z-0.3597
X3.7516 Z-0.3299
X3.6731 Z-0.3016
X3.594 Z-0.2748
X3.5145 Z-0.2496
X3.4418 Z-0.228
X3.3614 Z-0.2057
X3.2769 Z-0.1841
X3.1994 Z-0.1658
X3.1178 Z-0.1482
X3.0359 Z-0.1322
X2.9537 Z-0.1178
X2.8787 Z-0.1061
X2.7961 Z-0.0947
X2.7132 Z-0.085
X2.6301 Z-0.0768
X2.625 Z-0.0766
G3 X2.6225 Z-0.0759 I0.0003 K0.0062
G2 X2.6198 Z-0.0753 I-0.0028 K-0.0056
G17 G2 X2.601 Y0.2691 I0 J0.0188
G1 Y0.294
G2 X2.6198 Y0.3128 I0.0187 J0
G18 G3 X2.6225 Z-0.0759 I0 K-0.0062
G2 X2.625 Z-0.0766 I0.0028 K0.0056
G1 X2.6301 Z-0.0768
X2.7132 Z-0.085
X2.7961 Z-0.0947
X2.8787 Z-0.1061
X2.9537 Z-0.1178
X3.0359 Z-0.1322
X3.1178 Z-0.1482
X3.1994 Z-0.1658
X3.2769 Z-0.1841
X3.3614 Z-0.2057
X3.4418 Z-0.228
X3.5145 Z-0.2496
X3.594 Z-0.2748
X3.6731 Z-0.3016
X3.7516 Z-0.3299
X3.8295 Z-0.3597
X3.9033 Z-0.3896
X3.9835 Z-0.4238
X4.0596 Z-0.458
X4.1282 Z-0.4905
X4.2029 Z-0.5276
X4.25 Z-0.552
G2 X4.2529 Z-0.5527 I0.0029 K0.0055
G17 G3 X4.2716 Y0.3315 I0 J0.0187
G1 Y0.3565
G3 X4.2529 Y0.3753 I-0.0187 J0
G18 G3 X4.25 Z-0.552 I0 K0.0063
G1 X4.2029 Z-0.5276
X4.1282 Z-0.4905
X4.0596 Z-0.458
X3.9835 Z-0.4238
X3.9033 Z-0.3896
X3.8295 Z-0.3597
X3.7516 Z-0.3299
X3.6731 Z-0.3016
X3.594 Z-0.2748
X3.5145 Z-0.2496
X3.4418 Z-0.228
X3.3614 Z-0.2057
X3.2769 Z-0.1841
X3.1994 Z-0.1658
X3.1178 Z-0.1482
X3.0359 Z-0.1322
X2.9537 Z-0.1178
X2.8787 Z-0.1061
X2.7961 Z-0.0947
X2.7132 Z-0.085
X2.6301 Z-0.0768
X2.625 Z-0.0766
G3 X2.6225 Z-0.0759 I0.0003 K0.0062
G2 X2.6198 Z-0.0753 I-0.0028 K-0.0056
G17 G2 X2.601 Y0.394 I0 J0.0187
G1 Y0.419
G2 X2.6198 Y0.4378 I0.0187 J0
G18 G3 X2.6225 Z-0.0759 I0 K-0.0062
G2 X2.625 Z-0.0766 I0.0028 K0.0056
G1 X2.6301 Z-0.0768
X2.7132 Z-0.085
X2.7961 Z-0.0947
X2.8787 Z-0.1061
X2.9537 Z-0.1178
X3.0359 Z-0.1322
X3.1178 Z-0.1482
X3.1994 Z-0.1658
X3.2769 Z-0.1841
X3.3614 Z-0.2057
X3.4418 Z-0.228
X3.5145 Z-0.2496
X3.594 Z-0.2748
X3.6731 Z-0.3016
X3.7516 Z-0.3299
X3.8295 Z-0.3597
X3.9033 Z-0.3896
X3.9835 Z-0.4238
X4.0596 Z-0.458
X4.1282 Z-0.4905
X4.2029 Z-0.5276
X4.25 Z-0.552
G2 X4.2529 Z-0.5527 I0.0029 K0.0055
G17 G3 X4.2716 Y0.4565 I0 J0.0188
G1 Y0.4815
G3 X4.2529 Y0.5002 I-0.0187 J0
G18 G3 X4.25 Z-0.552 I0 K0.0063
G1 X4.2029 Z-0.5276
X4.1282 Z-0.4905
X4.0596 Z-0.458
X3.9835 Z-0.4238
X3.9033 Z-0.3896
X3.8295 Z-0.3597
X3.7516 Z-0.3299
X3.6731 Z-0.3016
X3.594 Z-0.2748
X3.5145 Z-0.2496
X3.4418 Z-0.228
X3.3614 Z-0.2057
X3.2769 Z-0.1841
X3.1994 Z-0.1658
X3.1178 Z-0.1482
X3.0359 Z-0.1322
X2.9537 Z-0.1178
X2.8787 Z-0.1061
X2.7961 Z-0.0947
X2.7132 Z-0.085
X2.6301 Z-0.0768
X2.625 Z-0.0766
G3 X2.6225 Z-0.0759 I0.0003 K0.0062
G2 X2.6198 Z-0.0753 I-0.0028 K-0.0056
G17 G2 X2.601 Y0.519 I0 J0.0188
G1 Y0.544
G2 X2.6198 Y0.5627 I0.0187 J0
G18 G3 X2.6225 Z-0.0759 I0 K-0.0062
G2 X2.625 Z-0.0766 I0.0028 K0.0056
G1 X2.6301 Z-0.0768
X2.7132 Z-0.085
X2.7961 Z-0.0947
X2.8787 Z-0.1061
X2.9537 Z-0.1178
X3.0359 Z-0.1322
X3.1178 Z-0.1482
X3.1994 Z-0.1658
X3.2769 Z-0.1841
X3.3614 Z-0.2057
X3.4418 Z-0.228
X3.5145 Z-0.2496
X3.594 Z-0.2748
X3.6731 Z-0.3016
X3.7516 Z-0.3299
X3.8295 Z-0.3597
X3.9033 Z-0.3896
X3.9835 Z-0.4238
X4.0596 Z-0.458
X4.1282 Z-0.4905
X4.2029 Z-0.5276
X4.25 Z-0.552
G2 X4.2529 Z-0.5527 I0.0029 K0.0055
G17 G3 X4.2716 Y0.5815 I0 J0.0187
G1 Y0.6065
G3 X4.2529 Y0.6252 I-0.0187 J0
G18 G3 X4.25 Z-0.552 I0 K0.0063
G1 X4.2029 Z-0.5276
X4.1282 Z-0.4905
X4.0596 Z-0.458
X3.9835 Z-0.4238
X3.9033 Z-0.3896
X3.8295 Z-0.3597
X3.7516 Z-0.3299
X3.6731 Z-0.3016
X3.594 Z-0.2748
X3.5145 Z-0.2496
X3.4418 Z-0.228
X3.3614 Z-0.2057
X3.2769 Z-0.1841
X3.1994 Z-0.1658
X3.1178 Z-0.1482
X3.0359 Z-0.1322
X2.9537 Z-0.1178
X2.8787 Z-0.1061
X2.7961 Z-0.0947
X2.7132 Z-0.085
X2.6301 Z-0.0768
X2.625 Z-0.0766
G3 X2.6225 Z-0.0759 I0.0003 K0.0062
G2 X2.6198 Z-0.0753 I-0.0028 K-0.0056
G17 G2 X2.601 Y0.644 I0 J0.0187
G1 Y0.669
G2 X2.6198 Y0.6877 I0.0187 J0
G18 G3 X2.6225 Z-0.0759 I0 K-0.0062
G2 X2.625 Z-0.0766 I0.0028 K0.0056
G1 X2.6301 Z-0.0768
X2.7132 Z-0.085
X2.7961 Z-0.0947
X2.8787 Z-0.1061
X2.9537 Z-0.1178
X3.0359 Z-0.1322
X3.1178 Z-0.1482
X3.1994 Z-0.1658
X3.2769 Z-0.1841
X3.3614 Z-0.2057
X3.4418 Z-0.228
X3.5145 Z-0.2496
X3.594 Z-0.2748
X3.6731 Z-0.3016
X3.7516 Z-0.3299
X3.8295 Z-0.3597
X3.9033 Z-0.3896
X3.9835 Z-0.4238
X4.0596 Z-0.458
X4.1282 Z-0.4905
X4.2029 Z-0.5276
X4.25 Z-0.552
G2 X4.2529 Z-0.5527 I0.0029 K0.0055
G17 G3 X4.2716 Y0.7065 I0 J0.0187
G1 Y0.7314
G3 X4.2529 Y0.7502 I-0.0187 J0
G18 G3 X4.25 Z-0.552 I0 K0.0063
G1 X4.2029 Z-0.5276
X4.1282 Z-0.4905
X4.0596 Z-0.458
X3.9835 Z-0.4238
X3.9033 Z-0.3896
X3.8295 Z-0.3597
X3.7516 Z-0.3299
X3.6731 Z-0.3016
X3.594 Z-0.2748
X3.5145 Z-0.2496
X3.4418 Z-0.228
X3.3614 Z-0.2057
X3.2769 Z-0.1841
X3.1994 Z-0.1658
X3.1178 Z-0.1482
X3.0359 Z-0.1322
X2.9537 Z-0.1178
X2.8787 Z-0.1061
X2.7961 Z-0.0947
X2.7132 Z-0.085
X2.6301 Z-0.0768
X2.625 Z-0.0766
G3 X2.6225 Z-0.0759 I0.0003 K0.0062
G2 X2.6198 Z-0.0753 I-0.0028 K-0.0056
G17 G2 X2.601 Y0.7689 I0 J0.0187
G1 Y0.7939
G2 X2.6198 Y0.8127 I0.0187 J0
G18 G3 X2.6225 Z-0.0759 I0 K-0.0062
G2 X2.625 Z-0.0766 I0.0028 K0.0056
G1 X2.6301 Z-0.0768
X2.7132 Z-0.085
X2.7961 Z-0.0947
X2.8787 Z-0.1061
X2.9537 Z-0.1178
X3.0359 Z-0.1322
X3.1178 Z-0.1482
X3.1994 Z-0.1658
X3.2769 Z-0.1841
X3.3614 Z-0.2057
X3.4418 Z-0.228
X3.5145 Z-0.2496
X3.594 Z-0.2748
X3.6731 Z-0.3016
X3.7516 Z-0.3299
X3.8295 Z-0.3597
X3.9033 Z-0.3896
X3.9835 Z-0.4238
X4.0596 Z-0.458
X4.1282 Z-0.4905
X4.2029 Z-0.5276
X4.25 Z-0.552
G2 X4.2529 Z-0.5527 I0.0029 K0.0055
G17 G3 X4.2716 Y0.8314 I0 J0.0187
G1 Y0.8564
G3 X4.2529 Y0.8752 I-0.0187 J0
G18 G3 X4.25 Z-0.552 I0 K0.0063
G1 X4.2029 Z-0.5276
X4.1282 Z-0.4905
X4.0596 Z-0.458
X3.9835 Z-0.4238
X3.9033 Z-0.3896
X3.8295 Z-0.3597
X3.7516 Z-0.3299
X3.6731 Z-0.3016
X3.594 Z-0.2748
X3.5145 Z-0.2496
X3.4418 Z-0.228
X3.3614 Z-0.2057
X3.2769 Z-0.1841
X3.1994 Z-0.1658
X3.1178 Z-0.1482
X3.0359 Z-0.1322
X2.9537 Z-0.1178
X2.8787 Z-0.1061
X2.7961 Z-0.0947
X2.7132 Z-0.085
X2.6301 Z-0.0768
X2.625 Z-0.0766
G3 X2.6225 Z-0.0759 I0.0003 K0.0062
G2 X2.6198 Z-0.0753 I-0.0028 K-0.0056
G17 G2 X2.601 Y0.8939 I0 J0.0187
G1 Y0.9189
G2 X2.6198 Y0.9376 I0.0187 J0
G18 G3 X2.6225 Z-0.0759 I0 K-0.0062
G2 X2.625 Z-0.0766 I0.0028 K0.0056
G1 X2.6301 Z-0.0768
X2.7132 Z-0.085
X2.7961 Z-0.0947
X2.8787 Z-0.1061
X2.9537 Z-0.1178
X3.0359 Z-0.1322
X3.1178 Z-0.1482
X3.1994 Z-0.1658
X3.2769 Z-0.1841
X3.3614 Z-0.2057
X3.4418 Z-0.228
X3.5145 Z-0.2496
X3.594 Z-0.2748
X3.6731 Z-0.3016
X3.7516 Z-0.3299
X3.8295 Z-0.3597
X3.9033 Z-0.3896
X3.9835 Z-0.4238
X4.0596 Z-0.458
X4.1282 Z-0.4905
X4.2029 Z-0.5276
X4.25 Z-0.552
G2 X4.2529 Z-0.5527 I0.0029 K0.0055
G17 G3 X4.2716 Y0.9564 I0 J0.0188
G1 Y0.9814
G3 X4.2529 Y1.0001 I-0.0187 J0
G18 G3 X4.25 Z-0.552 I0 K0.0063
G1 X4.2029 Z-0.5276
X4.1282 Z-0.4905
X4.0596 Z-0.458
X3.9835 Z-0.4238
X3.9033 Z-0.3896
X3.8295 Z-0.3597
X3.7516 Z-0.3299
X3.6731 Z-0.3016
X3.594 Z-0.2748
X3.5145 Z-0.2496
X3.4418 Z-0.228
X3.3614 Z-0.2057
X3.2769 Z-0.1841
X3.1994 Z-0.1658
X3.1178 Z-0.1482
X3.0359 Z-0.1322
X2.9537 Z-0.1178
X2.8787 Z-0.1061
X2.7961 Z-0.0947
X2.7132 Z-0.085
X2.6301 Z-0.0768
X2.625 Z-0.0766
G3 X2.6225 Z-0.0759 I0.0003 K0.0062
G2 X2.6198 Z-0.0753 I-0.0028 K-0.0056
G17 G2 X2.601 Y1.0189 I0 J0.0187
G1 Y1.0439
G2 X2.6198 Y1.0626 I0.0187 J0
G18 G3 X2.6225 Z-0.0759 I0 K-0.0062
G2 X2.625 Z-0.0766 I0.0028 K0.0056
G1 X2.6301 Z-0.0768
X2.7132 Z-0.085
X2.7961 Z-0.0947
X2.8787 Z-0.1061
X2.9537 Z-0.1178
X3.0359 Z-0.1322
X3.1178 Z-0.1482
X3.1994 Z-0.1658
X3.2769 Z-0.1841
X3.3614 Z-0.2057
X3.4418 Z-0.228
X3.5145 Z-0.2496
X3.594 Z-0.2748
X3.6731 Z-0.3016
X3.7516 Z-0.3299
X3.8295 Z-0.3597
X3.9033 Z-0.3896
X3.9835 Z-0.4238
X4.0596 Z-0.458
X4.1282 Z-0.4905
X4.2029 Z-0.5276
X4.25 Z-0.552
G2 X4.2529 Z-0.5527 I0.0029 K0.0055
G17 G3 X4.2716 Y1.0814 I0 J0.0187
G1 Y1.1063
G3 X4.2529 Y1.1251 I-0.0187 J0
G18 G3 X4.25 Z-0.552 I0 K0.0063
G1 X4.2029 Z-0.5276
X4.1282 Z-0.4905
X4.0596 Z-0.458
X3.9835 Z-0.4238
X3.9033 Z-0.3896
X3.8295 Z-0.3597
X3.7516 Z-0.3299
X3.6731 Z-0.3016
X3.594 Z-0.2748
X3.5145 Z-0.2496
X3.4418 Z-0.228
X3.3614 Z-0.2057
X3.2769 Z-0.1841
X3.1994 Z-0.1658
X3.1178 Z-0.1482
X3.0359 Z-0.1322
X2.9537 Z-0.1178
X2.8787 Z-0.1061
X2.7961 Z-0.0947
X2.7132 Z-0.085
X2.6301 Z-0.0768
X2.625 Z-0.0766
G3 X2.6225 Z-0.0759 I0.0003 K0.0062
G2 X2.6198 Z-0.0753 I-0.0028 K-0.0056
G17 G2 X2.601 Y1.1438 I0 J0.0187
G1 Y1.1688
G2 X2.6198 Y1.1876 I0.0187 J0
G18 G3 X2.6225 Z-0.0759 I0 K-0.0062
G2 X2.625 Z-0.0766 I0.0028 K0.0056
G1 X2.6301 Z-0.0768
X2.7132 Z-0.085
X2.7961 Z-0.0947
X2.8787 Z-0.1061
X2.9537 Z-0.1178
X3.0359 Z-0.1322
X3.1178 Z-0.1482
X3.1994 Z-0.1658
X3.2769 Z-0.1841
X3.3614 Z-0.2057
X3.4418 Z-0.228
X3.5145 Z-0.2496
X3.594 Z-0.2748
X3.6731 Z-0.3016
X3.7516 Z-0.3299
X3.8295 Z-0.3597
X3.9033 Z-0.3896
X3.9835 Z-0.4238
X4.0596 Z-0.458
X4.1282 Z-0.4905
X4.2029 Z-0.5276
X4.25 Z-0.552
G2 X4.2529 Z-0.5527 I0.0029 K0.0055
G17 G3 X4.2716 Y1.2063 I0 J0.0187
G1 Y1.2313
G3 X4.2529 Y1.2501 I-0.0187 J0
G18 G3 X4.25 Z-0.552 I0 K0.0063
G1 X4.2029 Z-0.5276
X4.1282 Z-0.4905
X4.0596 Z-0.458
X3.9835 Z-0.4238
X3.9033 Z-0.3896
X3.8295 Z-0.3597
X3.7516 Z-0.3299
X3.6731 Z-0.3016
X3.594 Z-0.2748
X3.5145 Z-0.2496
X3.4418 Z-0.228
X3.3614 Z-0.2057
X3.2769 Z-0.1841
X3.1994 Z-0.1658
X3.1178 Z-0.1482
X3.0359 Z-0.1322
X2.9537 Z-0.1178
X2.8787 Z-0.1061
X2.7961 Z-0.0947
X2.7132 Z-0.085
X2.6301 Z-0.0768
X2.625 Z-0.0766
G3 X2.6225 Z-0.0759 I0.0003 K0.0062
G2 X2.6198 Z-0.0753 I-0.0028 K-0.0056
G17 G2 X2.601 Y1.2688 I0 J0.0187
G1 Y1.2938
G2 X2.6198 Y1.3125 I0.0187 J0
G18 G3 X2.6225 Z-0.0759 I0 K-0.0062
G2 X2.625 Z-0.0766 I0.0028 K0.0056
G1 X2.6301 Z-0.0768
X2.7132 Z-0.085
X2.7961 Z-0.0947
X2.8787 Z-0.1061
X2.9537 Z-0.1178
X3.0359 Z-0.1322
X3.1178 Z-0.1482
X3.1994 Z-0.1658
X3.2769 Z-0.1841
X3.3614 Z-0.2057
X3.4418 Z-0.228
X3.5145 Z-0.2496
X3.594 Z-0.2748
X3.6731 Z-0.3016
X3.7516 Z-0.3299
X3.8295 Z-0.3597
X3.9033 Z-0.3896
X3.9835 Z-0.4238
X4.0596 Z-0.458
X4.1282 Z-0.4905
X4.2029 Z-0.5276
X4.25 Z-0.552
G2 X4.2529 Z-0.5527 I0.0029 K0.0055
G17 G3 X4.2716 Y1.3313 I0 J0.0188
G1 Y1.3563
G3 X4.2529 Y1.375 I-0.0187 J0
G18 G3 X4.25 Z-0.552 I0 K0.0063
G1 X4.2029 Z-0.5276
X4.1282 Z-0.4905
X4.0596 Z-0.458
X3.9835 Z-0.4238
X3.9033 Z-0.3896
X3.8295 Z-0.3597
X3.7516 Z-0.3299
X3.6731 Z-0.3016
X3.594 Z-0.2748
X3.5145 Z-0.2496
X3.4418 Z-0.228
X3.3614 Z-0.2057
X3.2769 Z-0.1841
X3.1994 Z-0.1658
X3.1178 Z-0.1482
X3.0359 Z-0.1322
X2.9537 Z-0.1178
X2.8787 Z-0.1061
X2.7961 Z-0.0947
X2.7132 Z-0.085
X2.6301 Z-0.0768
X2.625 Z-0.0766
G3 X2.6225 Z-0.0759 I0.0003 K0.0062
G2 X2.6198 Z-0.0753 I-0.0028 K-0.0056
G17 G2 X2.601 Y1.3938 I0 J0.0187
G1 Y1.4188
G2 X2.6198 Y1.4375 I0.0187 J0
G18 G3 X2.6225 Z-0.0759 I0 K-0.0062
G2 X2.625 Z-0.0766 I0.0028 K0.0056
G1 X2.6301 Z-0.0768
X2.7132 Z-0.085
X2.7961 Z-0.0947
X2.8787 Z-0.1061
X2.9537 Z-0.1178
X3.0359 Z-0.1322
X3.1178 Z-0.1482
X3.1994 Z-0.1658
X3.2769 Z-0.1841
X3.3614 Z-0.2057
X3.4418 Z-0.228
X3.5145 Z-0.2496
X3.594 Z-0.2748
X3.6731 Z-0.3016
X3.7516 Z-0.3299
X3.8295 Z-0.3597
X3.9033 Z-0.3896
X3.9835 Z-0.4238
X4.0596 Z-0.458
X4.1282 Z-0.4905
X4.2029 Z-0.5276
X4.25 Z-0.552
G2 X4.2529 Z-0.5527 I0.0029 K0.0055
G17 G3 X4.2716 Y1.4563 I0 J0.0187
G1 Y1.4812
G3 X4.2529 Y1.5 I-0.0187 J0
G18 G3 X4.25 Z-0.552 I0 K0.0063
G1 X4.2029 Z-0.5276
X4.1282 Z-0.4905
X4.0596 Z-0.458
X3.9835 Z-0.4238
X3.9033 Z-0.3896
X3.8295 Z-0.3597
X3.7516 Z-0.3299
X3.6731 Z-0.3016
X3.594 Z-0.2748
X3.5145 Z-0.2496
X3.4418 Z-0.228
X3.3614 Z-0.2057
X3.2769 Z-0.1841
X3.1994 Z-0.1658
X3.1178 Z-0.1482
X3.0359 Z-0.1322
X2.9537 Z-0.1178
X2.8787 Z-0.1061
X2.7961 Z-0.0947
X2.7132 Z-0.085
X2.6301 Z-0.0768
X2.625 Z-0.0766
G3 X2.6225 Z-0.0759 I0.0003 K0.0062
G2 X2.6198 Z-0.0753 I-0.0028 K-0.0056
G17 G2 X2.601 Y1.5187 I0 J0.0187
G1 Y1.5437
G2 X2.6198 Y1.5625 I0.0187 J0
G18 G3 X2.6225 Z-0.0759 I0 K-0.0062
G2 X2.625 Z-0.0766 I0.0028 K0.0056
G1 X2.6301 Z-0.0768
X2.7132 Z-0.085
X2.7961 Z-0.0947
X2.8787 Z-0.1061
X2.9537 Z-0.1178
X3.0359 Z-0.1322
X3.1178 Z-0.1482
X3.1994 Z-0.1658
X3.2769 Z-0.1841
X3.3614 Z-0.2057
X3.4418 Z-0.228
X3.5145 Z-0.2496
X3.594 Z-0.2748
X3.6731 Z-0.3016
X3.7516 Z-0.3299
X3.8295 Z-0.3597
X3.9033 Z-0.3896
X3.9835 Z-0.4238
X4.0596 Z-0.458
X4.1282 Z-0.4905
X4.2029 Z-0.5276
X4.25 Z-0.552
G2 X4.2529 Z-0.5527 I0.0029 K0.0055
G17 G3 X4.2716 Y1.5812 I0 J0.0187
G1 Y1.6062
G3 X4.2529 Y1.625 I-0.0187 J0
G18 G3 X4.25 Z-0.552 I0 K0.0063
G1 X4.2029 Z-0.5276
X4.1282 Z-0.4905
X4.0596 Z-0.458
X3.9835 Z-0.4238
X3.9033 Z-0.3896
X3.8295 Z-0.3597
X3.7516 Z-0.3299
X3.6731 Z-0.3016
X3.594 Z-0.2748
X3.5145 Z-0.2496
X3.4418 Z-0.228
X3.3614 Z-0.2057
X3.2769 Z-0.1841
X3.1994 Z-0.1658
X3.1178 Z-0.1482
X3.0359 Z-0.1322
X2.9537 Z-0.1178
X2.8787 Z-0.1061
X2.7961 Z-0.0947
X2.7132 Z-0.085
X2.6301 Z-0.0768
X2.625 Z-0.0766
G3 X2.6225 Z-0.0759 I0.0003 K0.0062
G2 X2.6198 Z-0.0753 I-0.0028 K-0.0056
G17 G2 X2.601 Y1.6437 I0 J0.0187
G1 Y1.6687
G2 X2.6198 Y1.6875 I0.0187 J0
G18 G3 X2.6225 Z-0.0759 I0 K-0.0062
G2 X2.625 Z-0.0766 I0.0028 K0.0056
G1 X2.6301 Z-0.0768
X2.7132 Z-0.085
X2.7961 Z-0.0947
X2.8787 Z-0.1061
X2.9537 Z-0.1178
X3.0359 Z-0.1322
X3.1178 Z-0.1482
X3.1994 Z-0.1658
X3.2769 Z-0.1841
X3.3614 Z-0.2057
X3.4418 Z-0.228
X3.5145 Z-0.2496
X3.594 Z-0.2748
X3.6731 Z-0.3016
X3.7516 Z-0.3299
X3.8295 Z-0.3597
X3.9033 Z-0.3896
X3.9835 Z-0.4238
X4.0596 Z-0.458
X4.1282 Z-0.4905
X4.2029 Z-0.5276
X4.25 Z-0.552
G2 X4.2529 Z-0.5527 I0.0029 K0.0055
G17 G3 X4.2716 Y1.7062 I0 J0.0187
G1 Y1.7312
G3 X4.2529 Y1.7499 I-0.0187 J0
G18 G3 X4.25 Z-0.552 I0 K0.0063
G1 X4.2029 Z-0.5276
X4.1282 Z-0.4905
X4.0596 Z-0.458
X3.9835 Z-0.4238
X3.9033 Z-0.3896
X3.8295 Z-0.3597
X3.7516 Z-0.3299
X3.6731 Z-0.3016
X3.594 Z-0.2748
X3.5145 Z-0.2496
X3.4418 Z-0.228
X3.3614 Z-0.2057
X3.2769 Z-0.1841
X3.1994 Z-0.1658
X3.1178 Z-0.1482
X3.0359 Z-0.1322
X2.9537 Z-0.1178
X2.8787 Z-0.1061
X2.7961 Z-0.0947
X2.7132 Z-0.085
X2.6301 Z-0.0768
X2.625 Z-0.0766
G3 X2.6225 Z-0.0759 I0.0003 K0.0062
G2 X2.6198 Z-0.0753 I-0.0028 K-0.0056
G17 G2 X2.601 Y1.7687 I0 J0.0187
G1 Y1.7937
G2 X2.6198 Y1.8124 I0.0187 J0
G18 G3 X2.6225 Z-0.0759 I0 K-0.0062
G2 X2.625 Z-0.0766 I0.0028 K0.0056
G1 X2.6301 Z-0.0768
X2.7132 Z-0.085
X2.7961 Z-0.0947
X2.8787 Z-0.1061
X2.9537 Z-0.1178
X3.0359 Z-0.1322
X3.1178 Z-0.1482
X3.1994 Z-0.1658
X3.2769 Z-0.1841
X3.3614 Z-0.2057
X3.4418 Z-0.228
X3.5145 Z-0.2496
X3.594 Z-0.2748
X3.6731 Z-0.3016
X3.7516 Z-0.3299
X3.8295 Z-0.3597
X3.9033 Z-0.3896
X3.9835 Z-0.4238
X4.0596 Z-0.458
X4.1282 Z-0.4905
X4.2029 Z-0.5276
X4.25 Z-0.552
G2 X4.2529 Z-0.5527 I0.0029 K0.0055
G17 G3 X4.2716 Y1.8312 I0 J0.0187
G1 Y1.8562
G3 X4.2529 Y1.8749 I-0.0187 J0
G18 G3 X4.25 Z-0.552 I0 K0.0063
G1 X4.2029 Z-0.5276
X4.1282 Z-0.4905
X4.0596 Z-0.458
X3.9835 Z-0.4238
X3.9033 Z-0.3896
X3.8295 Z-0.3597
X3.7516 Z-0.3299
X3.6731 Z-0.3016
X3.594 Z-0.2748
X3.5145 Z-0.2496
X3.4418 Z-0.228
X3.3614 Z-0.2057
X3.2769 Z-0.1841
X3.1994 Z-0.1658
X3.1178 Z-0.1482
X3.0359 Z-0.1322
X2.9537 Z-0.1178
X2.8787 Z-0.1061
X2.7961 Z-0.0947
X2.7132 Z-0.085
X2.6301 Z-0.0768
X2.625 Z-0.0766
G3 X2.6225 Z-0.0759 I0.0003 K0.0062
G2 X2.6198 Z-0.0753 I-0.0028 K-0.0056
G17 G2 X2.601 Y1.8937 I0 J0.0188
G1 Y1.9186
G2 X2.6198 Y1.9374 I0.0187 J0
G18 G3 X2.6225 Z-0.0759 I0 K-0.0062
G2 X2.625 Z-0.0766 I0.0028 K0.0056
G1 X2.6301 Z-0.0768
X2.7132 Z-0.085
X2.7961 Z-0.0947
X2.8787 Z-0.1061
X2.9537 Z-0.1178
X3.0359 Z-0.1322
X3.1178 Z-0.1482
X3.1994 Z-0.1658
X3.2769 Z-0.1841
X3.3614 Z-0.2057
X3.4418 Z-0.228
X3.5145 Z-0.2496
X3.594 Z-0.2748
X3.6731 Z-0.3016
X3.7516 Z-0.3299
X3.8295 Z-0.3597
X3.9033 Z-0.3896
X3.9835 Z-0.4238
X4.0596 Z-0.458
X4.1282 Z-0.4905
X4.2029 Z-0.5276
X4.25 Z-0.552
G2 X4.2529 Z-0.5527 I0.0029 K0.0055
G17 G3 X4.2716 Y1.9561 I0 J0.0187
G1 Y1.9811
G3 X4.2529 Y1.9999 I-0.0187 J0
G18 G3 X4.25 Z-0.552 I0 K0.0063
G1 X4.2029 Z-0.5276
X4.1282 Z-0.4905
X4.0596 Z-0.458
X3.9835 Z-0.4238
X3.9033 Z-0.3896
X3.8295 Z-0.3597
X3.7516 Z-0.3299
X3.6731 Z-0.3016
X3.594 Z-0.2748
X3.5145 Z-0.2496
X3.4418 Z-0.228
X3.3614 Z-0.2057
X3.2769 Z-0.1841
X3.1994 Z-0.1658
X3.1178 Z-0.1482
X3.0359 Z-0.1322
X2.9537 Z-0.1178
X2.8787 Z-0.1061
X2.7961 Z-0.0947
X2.7132 Z-0.085
X2.6301 Z-0.0768
X2.625 Z-0.0766
G3 X2.6225 Z-0.0759 I0.0003 K0.0062
G2 X2.6198 Z-0.0753 I-0.0028 K-0.0056
G17 G2 X2.601 Y2.0186 I0 J0.0187
G1 Y2.0436
G2 X2.6198 Y2.0624 I0.0187 J0
G18 G3 X2.6225 Z-0.0759 I0 K-0.0062
G2 X2.625 Z-0.0766 I0.0028 K0.0056
G1 X2.6301 Z-0.0768
X2.7132 Z-0.085
X2.7961 Z-0.0947
X2.8787 Z-0.1061
X2.9537 Z-0.1178
X3.0359 Z-0.1322
X3.1178 Z-0.1482
X3.1994 Z-0.1658
X3.2769 Z-0.1841
X3.3614 Z-0.2057
X3.4418 Z-0.228
X3.5145 Z-0.2496
X3.594 Z-0.2748
X3.6731 Z-0.3016
X3.7516 Z-0.3299
X3.8295 Z-0.3597
X3.9033 Z-0.3896
X3.9835 Z-0.4238
X4.0596 Z-0.458
X4.1282 Z-0.4905
X4.2029 Z-0.5276
X4.25 Z-0.552
G2 X4.2529 Z-0.5527 I0.0029 K0.0055
G17 G3 X4.2716 Y2.0811 I0 J0.0187
G1 Y2.1061
G3 X4.2529 Y2.1248 I-0.0187 J0
G18 G3 X4.25 Z-0.552 I0 K0.0063
G1 X4.2029 Z-0.5276
X4.1282 Z-0.4905
X4.0596 Z-0.458
X3.9835 Z-0.4238
X3.9033 Z-0.3896
X3.8295 Z-0.3597
X3.7516 Z-0.3299
X3.6731 Z-0.3016
X3.594 Z-0.2748
X3.5145 Z-0.2496
X3.4418 Z-0.228
X3.3614 Z-0.2057
X3.2769 Z-0.1841
X3.1994 Z-0.1658
X3.1178 Z-0.1482
X3.0359 Z-0.1322
X2.9537 Z-0.1178
X2.8787 Z-0.1061
X2.7961 Z-0.0947
X2.7132 Z-0.085
X2.6301 Z-0.0768
X2.625 Z-0.0766
G3 X2.6225 Z-0.0759 I0.0003 K0.0062
G2 X2.6198 Z-0.0753 I-0.0028 K-0.0056
G17 G2 X2.601 Y2.1436 I0 J0.0187
G1 Y2.1686
G2 X2.6198 Y2.1873 I0.0187 J0
G18 G3 X2.6225 Z-0.0759 I0 K-0.0062
G2 X2.625 Z-0.0766 I0.0028 K0.0056
G1 X2.6301 Z-0.0768
X2.7132 Z-0.085
X2.7961 Z-0.0947
X2.8787 Z-0.1061
X2.9537 Z-0.1178
X3.0359 Z-0.1322
X3.1178 Z-0.1482
X3.1994 Z-0.1658
X3.2769 Z-0.1841
X3.3614 Z-0.2057
X3.4418 Z-0.228
X3.5145 Z-0.2496
X3.594 Z-0.2748
X3.6731 Z-0.3016
X3.7516 Z-0.3299
X3.8295 Z-0.3597
X3.9033 Z-0.3896
X3.9835 Z-0.4238
X4.0596 Z-0.458
X4.1282 Z-0.4905
X4.2029 Z-0.5276
X4.25 Z-0.552
G2 X4.2529 Z-0.5527 I0.0029 K0.0055
G17 G3 X4.2716 Y2.2061 I0 J0.0187
G1 Y2.2311
G3 X4.2529 Y2.2498 I-0.0187 J0
G18 G3 X4.25 Z-0.552 I0 K0.0063
G1 X4.2029 Z-0.5276
X4.1282 Z-0.4905
X4.0596 Z-0.458
X3.9835 Z-0.4238
X3.9033 Z-0.3896
X3.8295 Z-0.3597
X3.7516 Z-0.3299
X3.6731 Z-0.3016
X3.594 Z-0.2748
X3.5145 Z-0.2496
X3.4418 Z-0.228
X3.3614 Z-0.2057
X3.2769 Z-0.1841
X3.1994 Z-0.1658
X3.1178 Z-0.1482
X3.0359 Z-0.1322
X2.9537 Z-0.1178
X2.8787 Z-0.1061
X2.7961 Z-0.0947
X2.7132 Z-0.085
X2.6301 Z-0.0768
X2.625 Z-0.0766
G3 X2.6225 Z-0.0759 I0.0003 K0.0062
G2 X2.6198 Z-0.0753 I-0.0028 K-0.0056
G17 G2 X2.601 Y2.2686 I0 J0.0187
G1 Y2.2935
G2 X2.6198 Y2.3123 I0.0187 J0
G18 G3 X2.6225 Z-0.0759 I0 K-0.0062
G2 X2.625 Z-0.0766 I0.0028 K0.0056
G1 X2.6301 Z-0.0768
X2.7132 Z-0.085
X2.7961 Z-0.0947
X2.8787 Z-0.1061
X2.9537 Z-0.1178
X3.0359 Z-0.1322
X3.1178 Z-0.1482
X3.1994 Z-0.1658
X3.2769 Z-0.1841
X3.3614 Z-0.2057
X3.4418 Z-0.228
X3.5145 Z-0.2496
X3.594 Z-0.2748
X3.6731 Z-0.3016
X3.7516 Z-0.3299
X3.8295 Z-0.3597
X3.9033 Z-0.3896
X3.9835 Z-0.4238
X4.0596 Z-0.458
X4.1282 Z-0.4905
X4.2029 Z-0.5276
X4.25 Z-0.552
G2 X4.2529 Z-0.5527 I0.0029 K0.0055
G17 G3 X4.2716 Y2.331 I0 J0.0187
G1 Y2.356
G3 X4.2529 Y2.3748 I-0.0187 J0
G18 G3 X4.25 Z-0.552 I0 K0.0063
G1 X4.2029 Z-0.5276
X4.1282 Z-0.4905
X4.0596 Z-0.458
X3.9835 Z-0.4238
X3.9033 Z-0.3896
X3.8295 Z-0.3597
X3.7516 Z-0.3299
X3.6731 Z-0.3016
X3.594 Z-0.2748
X3.5145 Z-0.2496
X3.4418 Z-0.228
X3.3614 Z-0.2057
X3.2769 Z-0.1841
X3.1994 Z-0.1658
X3.1178 Z-0.1482
X3.0359 Z-0.1322
X2.9537 Z-0.1178
X2.8787 Z-0.1061
X2.7961 Z-0.0947
X2.7132 Z-0.085
X2.6301 Z-0.0768
X2.625 Z-0.0766
G3 X2.6225 Z-0.0759 I0.0003 K0.0062
G2 X2.6198 Z-0.0753 I-0.0028 K-0.0056
G17 G2 X2.601 Y2.3935 I0 J0.0187
G1 Y2.4185
G2 X2.6198 Y2.4373 I0.0187 J0
G18 G3 X2.6225 Z-0.0759 I0 K-0.0062
G2 X2.625 Z-0.0766 I0.0028 K0.0056
G1 X2.6301 Z-0.0768
X2.7132 Z-0.085
X2.7961 Z-0.0947
X2.8787 Z-0.1061
X2.9537 Z-0.1178
X3.0359 Z-0.1322
X3.1178 Z-0.1482
X3.1994 Z-0.1658
X3.2769 Z-0.1841
X3.3614 Z-0.2057
X3.4418 Z-0.228
X3.5145 Z-0.2496
X3.594 Z-0.2748
X3.6731 Z-0.3016
X3.7516 Z-0.3299
X3.8295 Z-0.3597
X3.9033 Z-0.3896
X3.9835 Z-0.4238
X4.0596 Z-0.458
X4.1282 Z-0.4905
X4.2029 Z-0.5276
X4.25 Z-0.552
G2 X4.2529 Z-0.5527 I0.0029 K0.0055
G17 G3 X4.2716 Y2.456 I0 J0.0187
G1 Y2.481
G3 X4.2529 Y2.4997 I-0.0187 J0
G18 G3 X4.25 Z-0.552 I0 K0.0063
G1 X4.2029 Z-0.5276
X4.1282 Z-0.4905
X4.0596 Z-0.458
X3.9835 Z-0.4238
X3.9033 Z-0.3896
X3.8295 Z-0.3597
X3.7516 Z-0.3299
X3.6731 Z-0.3016
X3.594 Z-0.2748
X3.5145 Z-0.2496
X3.4418 Z-0.228
X3.3614 Z-0.2057
X3.2769 Z-0.1841
X3.1994 Z-0.1658
X3.1178 Z-0.1482
X3.0359 Z-0.1322
X2.9537 Z-0.1178
X2.8787 Z-0.1061
X2.7961 Z-0.0947
X2.7132 Z-0.085
X2.6301 Z-0.0768
X2.625 Z-0.0766
G3 X2.6225 Z-0.0759 I0.0003 K0.0062
G2 X2.6198 Z-0.0753 I-0.0028 K-0.0056
G17 G2 X2.601 Y2.5185 I0 J0.0187
G1 Y2.5435
G2 X2.6198 Y2.5622 I0.0187 J0
G18 G3 X2.6225 Z-0.0759 I0 K-0.0062
G2 X2.625 Z-0.0766 I0.0028 K0.0056
G1 X2.6301 Z-0.0768
X2.7132 Z-0.085
X2.7961 Z-0.0947
X2.8787 Z-0.1061
X2.9537 Z-0.1178
X3.0359 Z-0.1322
X3.1178 Z-0.1482
X3.1994 Z-0.1658
X3.2769 Z-0.1841
X3.3614 Z-0.2057
X3.4418 Z-0.228
X3.5145 Z-0.2496
X3.594 Z-0.2748
X3.6731 Z-0.3016
X3.7516 Z-0.3299
X3.8295 Z-0.3597
X3.9033 Z-0.3896
X3.9835 Z-0.4238
X4.0596 Z-0.458
X4.1282 Z-0.4905
X4.2029 Z-0.5276
X4.25 Z-0.552
G2 X4.2529 Z-0.5527 I0.0029 K0.0055
G17 G3 X4.2716 Y2.581 I0 J0.0187
G1 Y2.606
G3 X4.2529 Y2.6247 I-0.0187 J0
G18 G3 X4.25 Z-0.552 I0 K0.0063
G1 X4.2029 Z-0.5276
X4.1282 Z-0.4905
X4.0596 Z-0.458
X3.9835 Z-0.4238
X3.9033 Z-0.3896
X3.8295 Z-0.3597
X3.7516 Z-0.3299
X3.6731 Z-0.3016
X3.594 Z-0.2748
X3.5145 Z-0.2496
X3.4418 Z-0.228
X3.3614 Z-0.2057
X3.2769 Z-0.1841
X3.1994 Z-0.1658
X3.1178 Z-0.1482
X3.0359 Z-0.1322
X2.9537 Z-0.1178
X2.8787 Z-0.1061
X2.7961 Z-0.0947
X2.7132 Z-0.085
X2.6301 Z-0.0768
X2.625 Z-0.0766
G3 X2.6225 Z-0.0759 I0.0003 K0.0062
G2 X2.6198 Z-0.0753 I-0.0028 K-0.0056
G17 G2 X2.601 Y2.6435 I0 J0.0187
G1 Y2.6685
G2 X2.6198 Y2.6872 I0.0187 J0
G18 G3 X2.6225 Z-0.0759 I0 K-0.0062
G2 X2.625 Z-0.0766 I0.0028 K0.0056
G1 X2.6301 Z-0.0768
X2.7132 Z-0.085
X2.7961 Z-0.0947
X2.8787 Z-0.1061
X2.9537 Z-0.1178
X3.0359 Z-0.1322
X3.1178 Z-0.1482
X3.1994 Z-0.1658
X3.2769 Z-0.1841
X3.3614 Z-0.2057
X3.4418 Z-0.228
X3.5145 Z-0.2496
X3.594 Z-0.2748
X3.6731 Z-0.3016
X3.7516 Z-0.3299
X3.8295 Z-0.3597
X3.9033 Z-0.3896
X3.9835 Z-0.4238
X4.0596 Z-0.458
X4.1282 Z-0.4905
X4.2029 Z-0.5276
X4.25 Z-0.552
G2 X4.2529 Z-0.5527 I0.0029 K0.0055
G17 G3 X4.2716 Y2.706 I0 J0.0187
G1 Y2.7309
G3 X4.2529 Y2.7497 I-0.0187 J0
G18 G3 X4.25 Z-0.552 I0 K0.0063
G1 X4.2029 Z-0.5276
X4.1282 Z-0.4905
X4.0596 Z-0.458
X3.9835 Z-0.4238
X3.9033 Z-0.3896
X3.8295 Z-0.3597
X3.7516 Z-0.3299
X3.6731 Z-0.3016
X3.594 Z-0.2748
X3.5145 Z-0.2496
X3.4418 Z-0.228
X3.3614 Z-0.2057
X3.2769 Z-0.1841
X3.1994 Z-0.1658
X3.1178 Z-0.1482
X3.0359 Z-0.1322
X2.9537 Z-0.1178
X2.8787 Z-0.1061
X2.7961 Z-0.0947
X2.7132 Z-0.085
X2.6301 Z-0.0768
X2.625 Z-0.0766
G3 X2.613 Z-0.0641 I0.0005 K0.0125 F15
G0 Z0.2
X1.8768 Y0.2503
Z0.002
G1 Z-0.065 F15
G3 X1.865 Z-0.0775 I-0.0125 K0
G1 X1.8572 Z-0.0779 F20
X1.7742 Z-0.0864
X1.6921 Z-0.0963
X1.6177 Z-0.1066
X1.536 Z-0.1195
X1.4546 Z-0.134
X1.3701 Z-0.1507
X1.2901 Z-0.1682
X1.2104 Z-0.1872
X1.131 Z-0.2077
X1.0554 Z-0.2288
X0.9728 Z-0.2535
X0.8948 Z-0.2785
X0.8173 Z-0.305
X0.7403 Z-0.3329
X0.6638 Z-0.3623
X0.5879 Z-0.3932
X0.5126 Z-0.4255
X0.4379 Z-0.4592
X0.3639 Z-0.4944
X0.2905 Z-0.5309
X0.25 Z-0.552
G3 X0.2471 Z-0.5527 I-0.0029 K0.0055
G17 G2 X0.2284 Y0.2691 I0 J0.0188
G1 Y0.294
G2 X0.2471 Y0.3128 I0.0187 J0
G18 G2 X0.25 Z-0.552 I0 K0.0062
G1 X0.2905 Z-0.5309
X0.3639 Z-0.4944
X0.4379 Z-0.4592
X0.5126 Z-0.4255
X0.5879 Z-0.3932
X0.6638 Z-0.3623
X0.7403 Z-0.3329
X0.8173 Z-0.305
X0.8948 Z-0.2785
X0.9728 Z-0.2535
X1.0554 Z-0.2288
X1.131 Z-0.2077
X1.2104 Z-0.1872
X1.2901 Z-0.1682
X1.3701 Z-0.1507
X1.4546 Z-0.134
X1.536 Z-0.1195
X1.6177 Z-0.1066
X1.6921 Z-0.0963
X1.7742 Z-0.0864
X1.8572 Z-0.0779
X1.865 Z-0.0775
G2 X1.8674 Z-0.0768 I-0.0004 K0.0062
G3 X1.8701 Z-0.0762 I0.0028 K-0.0056
G17 G3 X1.8889 Y0.3315 I0 J0.0187
G1 Y0.3565
G3 X1.8701 Y0.3753 I-0.0187 J0
G18 G2 X1.8674 Z-0.0768 I0 K-0.0063
G3 X1.865 Z-0.0775 I-0.0028 K0.0056
G1 X1.8572 Z-0.0779
X1.7742 Z-0.0864
X1.6921 Z-0.0963
X1.6177 Z-0.1066
X1.536 Z-0.1195
X1.4546 Z-0.134
X1.3701 Z-0.1507
X1.2901 Z-0.1682
X1.2104 Z-0.1872
X1.131 Z-0.2077
X1.0554 Z-0.2288
X0.9728 Z-0.2535
X0.8948 Z-0.2785
X0.8173 Z-0.305
X0.7403 Z-0.3329
X0.6638 Z-0.3623
X0.5879 Z-0.3932
X0.5126 Z-0.4255
X0.4379 Z-0.4592
X0.3639 Z-0.4944
X0.2905 Z-0.5309
X0.25 Z-0.552
G3 X0.2471 Z-0.5527 I-0.0029 K0.0055
G17 G2 X0.2284 Y0.394 I0 J0.0187
G1 Y0.419
G2 X0.2471 Y0.4378 I0.0187 J0
G18 G2 X0.25 Z-0.552 I0 K0.0062
G1 X0.2905 Z-0.5309
X0.3639 Z-0.4944
X0.4379 Z-0.4592
X0.5126 Z-0.4255
X0.5879 Z-0.3932
X0.6638 Z-0.3623
X0.7403 Z-0.3329
X0.8173 Z-0.305
X0.8948 Z-0.2785
X0.9728 Z-0.2535
X1.0554 Z-0.2288
X1.131 Z-0.2077
X1.2104 Z-0.1872
X1.2901 Z-0.1682
X1.3701 Z-0.1507
X1.4546 Z-0.134
X1.536 Z-0.1195
X1.6177 Z-0.1066
X1.6921 Z-0.0963
X1.7742 Z-0.0864
X1.8572 Z-0.0779
X1.865 Z-0.0775
G2 X1.8674 Z-0.0768 I-0.0004 K0.0062
G3 X1.8701 Z-0.0762 I0.0028 K-0.0056
G17 G3 X1.8889 Y0.4565 I0 J0.0188
G1 Y0.4815
G3 X1.8701 Y0.5002 I-0.0187 J0
G18 G2 X1.8674 Z-0.0768 I0 K-0.0063
G3 X1.865 Z-0.0775 I-0.0028 K0.0056
G1 X1.8572 Z-0.0779
X1.7742 Z-0.0864
X1.6921 Z-0.0963
X1.6177 Z-0.1066
X1.536 Z-0.1195
X1.4546 Z-0.134
X1.3701 Z-0.1507
X1.2901 Z-0.1682
X1.2104 Z-0.1872
X1.131 Z-0.2077
X1.0554 Z-0.2288
X0.9728 Z-0.2535
X0.8948 Z-0.2785
X0.8173 Z-0.305
X0.7403 Z-0.3329
X0.6638 Z-0.3623
X0.5879 Z-0.3932
X0.5126 Z-0.4255
X0.4379 Z-0.4592
X0.3639 Z-0.4944
X0.2905 Z-0.5309
X0.25 Z-0.552
G3 X0.2471 Z-0.5527 I-0.0029 K0.0055
G17 G2 X0.2284 Y0.519 I0 J0.0188
G1 Y0.544
G2 X0.2471 Y0.5627 I0.0187 J0
G18 G2 X0.25 Z-0.552 I0 K0.0062
G1 X0.2905 Z-0.5309
X0.3639 Z-0.4944
X0.4379 Z-0.4592
X0.5126 Z-0.4255
X0.5879 Z-0.3932
X0.6638 Z-0.3623
X0.7403 Z-0.3329
X0.8173 Z-0.305
X0.8948 Z-0.2785
X0.9728 Z-0.2535
X1.0554 Z-0.2288
X1.131 Z-0.2077
X1.2104 Z-0.1872
X1.2901 Z-0.1682
X1.3701 Z-0.1507
X1.4546 Z-0.134
X1.536 Z-0.1195
X1.6177 Z-0.1066
X1.6921 Z-0.0963
X1.7742 Z-0.0864
X1.8572 Z-0.0779
X1.865 Z-0.0775
G2 X1.8674 Z-0.0768 I-0.0004 K0.0062
G3 X1.8701 Z-0.0762 I0.0028 K-0.0056
G17 G3 X1.8889 Y0.5815 I0 J0.0187
G1 Y0.6065
G3 X1.8701 Y0.6252 I-0.0187 J0
G18 G2 X1.8674 Z-0.0768 I0 K-0.0063
G3 X1.865 Z-0.0775 I-0.0028 K0.0056
G1 X1.8572 Z-0.0779
X1.7742 Z-0.0864
X1.6921 Z-0.0963
X1.6177 Z-0.1066
X1.536 Z-0.1195
X1.4546 Z-0.134
X1.3701 Z-0.1507
X1.2901 Z-0.1682
X1.2104 Z-0.1872
X1.131 Z-0.2077
X1.0554 Z-0.2288
X0.9728 Z-0.2535
X0.8948 Z-0.2785
X0.8173 Z-0.305
X0.7403 Z-0.3329
X0.6638 Z-0.3623
X0.5879 Z-0.3932
X0.5126 Z-0.4255
X0.4379 Z-0.4592
X0.3639 Z-0.4944
X0.2905 Z-0.5309
X0.25 Z-0.552
G3 X0.2471 Z-0.5527 I-0.0029 K0.0055
G17 G2 X0.2284 Y0.644 I0 J0.0187
G1 Y0.669
G2 X0.2471 Y0.6877 I0.0187 J0
G18 G2 X0.25 Z-0.552 I0 K0.0062
G1 X0.2905 Z-0.5309
X0.3639 Z-0.4944
X0.4379 Z-0.4592
X0.5126 Z-0.4255
X0.5879 Z-0.3932
X0.6638 Z-0.3623
X0.7403 Z-0.3329
X0.8173 Z-0.305
X0.8948 Z-0.2785
X0.9728 Z-0.2535
X1.0554 Z-0.2288
X1.131 Z-0.2077
X1.2104 Z-0.1872
X1.2901 Z-0.1682
X1.3701 Z-0.1507
X1.4546 Z-0.134
X1.536 Z-0.1195
X1.6177 Z-0.1066
X1.6921 Z-0.0963
X1.7742 Z-0.0864
X1.8572 Z-0.0779
X1.865 Z-0.0775
G2 X1.8674 Z-0.0768 I-0.0004 K0.0062
G3 X1.8701 Z-0.0762 I0.0028 K-0.0056
G17 G3 X1.8889 Y0.7065 I0 J0.0187
G1 Y0.7314
G3 X1.8701 Y0.7502 I-0.0187 J0
G18 G2 X1.8674 Z-0.0768 I0 K-0.0063
G3 X1.865 Z-0.0775 I-0.0028 K0.0056
G1 X1.8572 Z-0.0779
X1.7742 Z-0.0864
X1.6921 Z-0.0963
X1.6177 Z-0.1066
X1.536 Z-0.1195
X1.4546 Z-0.134
X1.3701 Z-0.1507
X1.2901 Z-0.1682
X1.2104 Z-0.1872
X1.131 Z-0.2077
X1.0554 Z-0.2288
X0.9728 Z-0.2535
X0.8948 Z-0.2785
X0.8173 Z-0.305
X0.7403 Z-0.3329
X0.6638 Z-0.3623
X0.5879 Z-0.3932
X0.5126 Z-0.4255
X0.4379 Z-0.4592
X0.3639 Z-0.4944
X0.2905 Z-0.5309
X0.25 Z-0.552
G3 X0.2471 Z-0.5527 I-0.0029 K0.0055
G17 G2 X0.2284 Y0.7689 I0 J0.0187
G1 Y0.7939
G2 X0.2471 Y0.8127 I0.0187 J0
G18 G2 X0.25 Z-0.552 I0 K0.0062
G1 X0.2905 Z-0.5309
X0.3639 Z-0.4944
X0.4379 Z-0.4592
X0.5126 Z-0.4255
X0.5879 Z-0.3932
X0.6638 Z-0.3623
X0.7403 Z-0.3329
X0.8173 Z-0.305
X0.8948 Z-0.2785
X0.9728 Z-0.2535
X1.0554 Z-0.2288
X1.131 Z-0.2077
X1.2104 Z-0.1872
X1.2901 Z-0.1682
X1.3701 Z-0.1507
X1.4546 Z-0.134
X1.536 Z-0.1195
X1.6177 Z-0.1066
X1.6921 Z-0.0963
X1.7742 Z-0.0864
X1.8572 Z-0.0779
X1.865 Z-0.0775
G2 X1.8674 Z-0.0768 I-0.0004 K0.0062
G3 X1.8701 Z-0.0762 I0.0028 K-0.0056
G17 G3 X1.8889 Y0.8314 I0 J0.0187
G1 Y0.8564
G3 X1.8701 Y0.8752 I-0.0187 J0
G18 G2 X1.8674 Z-0.0768 I0 K-0.0063
G3 X1.865 Z-0.0775 I-0.0028 K0.0056
G1 X1.8572 Z-0.0779
X1.7742 Z-0.0864
X1.6921 Z-0.0963
X1.6177 Z-0.1066
X1.536 Z-0.1195
X1.4546 Z-0.134
X1.3701 Z-0.1507
X1.2901 Z-0.1682
X1.2104 Z-0.1872
X1.131 Z-0.2077
X1.0554 Z-0.2288
X0.9728 Z-0.2535
X0.8948 Z-0.2785
X0.8173 Z-0.305
X0.7403 Z-0.3329
X0.6638 Z-0.3623
X0.5879 Z-0.3932
X0.5126 Z-0.4255
X0.4379 Z-0.4592
X0.3639 Z-0.4944
X0.2905 Z-0.5309
X0.25 Z-0.552
G3 X0.2471 Z-0.5527 I-0.0029 K0.0055
G17 G2 X0.2284 Y0.8939 I0 J0.0187
G1 Y0.9189
G2 X0.2471 Y0.9376 I0.0187 J0
G18 G2 X0.25 Z-0.552 I0 K0.0062
G1 X0.2905 Z-0.5309
X0.3639 Z-0.4944
X0.4379 Z-0.4592
X0.5126 Z-0.4255
X0.5879 Z-0.3932
X0.6638 Z-0.3623
X0.7403 Z-0.3329
X0.8173 Z-0.305
X0.8948 Z-0.2785
X0.9728 Z-0.2535
X1.0554 Z-0.2288
X1.131 Z-0.2077
X1.2104 Z-0.1872
X1.2901 Z-0.1682
X1.3701 Z-0.1507
X1.4546 Z-0.134
X1.536 Z-0.1195
X1.6177 Z-0.1066
X1.6921 Z-0.0963
X1.7742 Z-0.0864
X1.8572 Z-0.0779
X1.865 Z-0.0775
G2 X1.8674 Z-0.0768 I-0.0004 K0.0062
G3 X1.8701 Z-0.0762 I0.0028 K-0.0056
G17 G3 X1.8889 Y0.9564 I0 J0.0188
G1 Y0.9814
G3 X1.8701 Y1.0001 I-0.0187 J0
G18 G2 X1.8674 Z-0.0768 I0 K-0.0063
G3 X1.865 Z-0.0775 I-0.0028 K0.0056
G1 X1.8572 Z-0.0779
X1.7742 Z-0.0864
X1.6921 Z-0.0963
X1.6177 Z-0.1066
X1.536 Z-0.1195
X1.4546 Z-0.134
X1.3701 Z-0.1507
X1.2901 Z-0.1682
X1.2104 Z-0.1872
X1.131 Z-0.2077
X1.0554 Z-0.2288
X0.9728 Z-0.2535
X0.8948 Z-0.2785
X0.8173 Z-0.305
X0.7403 Z-0.3329
X0.6638 Z-0.3623
X0.5879 Z-0.3932
X0.5126 Z-0.4255
X0.4379 Z-0.4592
X0.3639 Z-0.4944
X0.2905 Z-0.5309
X0.25 Z-0.552
G3 X0.2471 Z-0.5527 I-0.0029 K0.0055
G17 G2 X0.2284 Y1.0189 I0 J0.0187
G1 Y1.0439
G2 X0.2471 Y1.0626 I0.0187 J0
G18 G2 X0.25 Z-0.552 I0 K0.0062
G1 X0.2905 Z-0.5309
X0.3639 Z-0.4944
X0.4379 Z-0.4592
X0.5126 Z-0.4255
X0.5879 Z-0.3932
X0.6638 Z-0.3623
X0.7403 Z-0.3329
X0.8173 Z-0.305
X0.8948 Z-0.2785
X0.9728 Z-0.2535
X1.0554 Z-0.2288
X1.131 Z-0.2077
X1.2104 Z-0.1872
X1.2901 Z-0.1682
X1.3701 Z-0.1507
X1.4546 Z-0.134
X1.536 Z-0.1195
X1.6177 Z-0.1066
X1.6921 Z-0.0963
X1.7742 Z-0.0864
X1.8572 Z-0.0779
X1.865 Z-0.0775
G2 X1.8674 Z-0.0768 I-0.0004 K0.0062
G3 X1.8701 Z-0.0762 I0.0028 K-0.0056
G17 G3 X1.8889 Y1.0814 I0 J0.0187
G1 Y1.1063
G3 X1.8701 Y1.1251 I-0.0187 J0
G18 G2 X1.8674 Z-0.0768 I0 K-0.0063
G3 X1.865 Z-0.0775 I-0.0028 K0.0056
G1 X1.8572 Z-0.0779
X1.7742 Z-0.0864
X1.6921 Z-0.0963
X1.6177 Z-0.1066
X1.536 Z-0.1195
X1.4546 Z-0.134
X1.3701 Z-0.1507
X1.2901 Z-0.1682
X1.2104 Z-0.1872
X1.131 Z-0.2077
X1.0554 Z-0.2288
X0.9728 Z-0.2535
X0.8948 Z-0.2785
X0.8173 Z-0.305
X0.7403 Z-0.3329
X0.6638 Z-0.3623
X0.5879 Z-0.3932
X0.5126 Z-0.4255
X0.4379 Z-0.4592
X0.3639 Z-0.4944
X0.2905 Z-0.5309
X0.25 Z-0.552
G3 X0.2471 Z-0.5527 I-0.0029 K0.0055
G17 G2 X0.2284 Y1.1438 I0 J0.0187
G1 Y1.1688
G2 X0.2471 Y1.1876 I0.0187 J0
G18 G2 X0.25 Z-0.552 I0 K0.0062
G1 X0.2905 Z-0.5309
X0.3639 Z-0.4944
X0.4379 Z-0.4592
X0.5126 Z-0.4255
X0.5879 Z-0.3932
X0.6638 Z-0.3623
X0.7403 Z-0.3329
X0.8173 Z-0.305
X0.8948 Z-0.2785
X0.9728 Z-0.2535
X1.0554 Z-0.2288
X1.131 Z-0.2077
X1.2104 Z-0.1872
X1.2901 Z-0.1682
X1.3701 Z-0.1507
X1.4546 Z-0.134
X1.536 Z-0.1195
X1.6177 Z-0.1066
X1.6921 Z-0.0963
X1.7742 Z-0.0864
X1.8572 Z-0.0779
X1.865 Z-0.0775
G2 X1.8674 Z-0.0768 I-0.0004 K0.0062
G3 X1.8701 Z-0.0762 I0.0028 K-0.0056
G17 G3 X1.8889 Y1.2063 I0 J0.0187
G1 Y1.2313
G3 X1.8701 Y1.2501 I-0.0187 J0
G18 G2 X1.8674 Z-0.0768 I0 K-0.0063
G3 X1.865 Z-0.0775 I-0.0028 K0.0056
G1 X1.8572 Z-0.0779
X1.7742 Z-0.0864
X1.6921 Z-0.0963
X1.6177 Z-0.1066
X1.536 Z-0.1195
X1.4546 Z-0.134
X1.3701 Z-0.1507
X1.2901 Z-0.1682
X1.2104 Z-0.1872
X1.131 Z-0.2077
X1.0554 Z-0.2288
X0.9728 Z-0.2535
X0.8948 Z-0.2785
X0.8173 Z-0.305
X0.7403 Z-0.3329
X0.6638 Z-0.3623
X0.5879 Z-0.3932
X0.5126 Z-0.4255
X0.4379 Z-0.4592
X0.3639 Z-0.4944
X0.2905 Z-0.5309
X0.25 Z-0.552
G3 X0.2471 Z-0.5527 I-0.0029 K0.0055
G17 G2 X0.2284 Y1.2688 I0 J0.0187
G1 Y1.2938
G2 X0.2471 Y1.3125 I0.0187 J0
G18 G2 X0.25 Z-0.552 I0 K0.0062
G1 X0.2905 Z-0.5309
X0.3639 Z-0.4944
X0.4379 Z-0.4592
X0.5126 Z-0.4255
X0.5879 Z-0.3932
X0.6638 Z-0.3623
X0.7403 Z-0.3329
X0.8173 Z-0.305
X0.8948 Z-0.2785
X0.9728 Z-0.2535
X1.0554 Z-0.2288
X1.131 Z-0.2077
X1.2104 Z-0.1872
X1.2901 Z-0.1682
X1.3701 Z-0.1507
X1.4546 Z-0.134
X1.536 Z-0.1195
X1.6177 Z-0.1066
X1.6921 Z-0.0963
X1.7742 Z-0.0864
X1.8572 Z-0.0779
X1.865 Z-0.0775
G2 X1.8674 Z-0.0768 I-0.0004 K0.0062
G3 X1.8701 Z-0.0762 I0.0028 K-0.0056
G17 G3 X1.8889 Y1.3313 I0 J0.0188
G1 Y1.3563
G3 X1.8701 Y1.375 I-0.0187 J0
G18 G2 X1.8674 Z-0.0768 I0 K-0.0063
G3 X1.865 Z-0.0775 I-0.0028 K0.0056
G1 X1.8572 Z-0.0779
X1.7742 Z-0.0864
X1.6921 Z-0.0963
X1.6177 Z-0.1066
X1.536 Z-0.1195
X1.4546 Z-0.134
X1.3701 Z-0.1507
X1.2901 Z-0.1682
X1.2104 Z-0.1872
X1.131 Z-0.2077
X1.0554 Z-0.2288
X0.9728 Z-0.2535
X0.8948 Z-0.2785
X0.8173 Z-0.305
X0.7403 Z-0.3329
X0.6638 Z-0.3623
X0.5879 Z-0.3932
X0.5126 Z-0.4255
X0.4379 Z-0.4592
X0.3639 Z-0.4944
X0.2905 Z-0.5309
X0.25 Z-0.552
G3 X0.2471 Z-0.5527 I-0.0029 K0.0055
G17 G2 X0.2284 Y1.3938 I0 J0.0187
G1 Y1.4188
G2 X0.2471 Y1.4375 I0.0187 J0
G18 G2 X0.25 Z-0.552 I0 K0.0062
G1 X0.2905 Z-0.5309
X0.3639 Z-0.4944
X0.4379 Z-0.4592
X0.5126 Z-0.4255
X0.5879 Z-0.3932
X0.6638 Z-0.3623
X0.7403 Z-0.3329
X0.8173 Z-0.305
X0.8948 Z-0.2785
X0.9728 Z-0.2535
X1.0554 Z-0.2288
X1.131 Z-0.2077
X1.2104 Z-0.1872
X1.2901 Z-0.1682
X1.3701 Z-0.1507
X1.4546 Z-0.134
X1.536 Z-0.1195
X1.6177 Z-0.1066
X1.6921 Z-0.0963
X1.7742 Z-0.0864
X1.8572 Z-0.0779
X1.865 Z-0.0775
G2 X1.8674 Z-0.0768 I-0.0004 K0.0062
G3 X1.8701 Z-0.0762 I0.0028 K-0.0056
G17 G3 X1.8889 Y1.4563 I0 J0.0187
G1 Y1.4812
G3 X1.8701 Y1.5 I-0.0187 J0
G18 G2 X1.8674 Z-0.0768 I0 K-0.0063
G3 X1.865 Z-0.0775 I-0.0028 K0.0056
G1 X1.8572 Z-0.0779
X1.7742 Z-0.0864
X1.6921 Z-0.0963
X1.6177 Z-0.1066
X1.536 Z-0.1195
X1.4546 Z-0.134
X1.3701 Z-0.1507
X1.2901 Z-0.1682
X1.2104 Z-0.1872
X1.131 Z-0.2077
X1.0554 Z-0.2288
X0.9728 Z-0.2535
X0.8948 Z-0.2785
X0.8173 Z-0.305
X0.7403 Z-0.3329
X0.6638 Z-0.3623
X0.5879 Z-0.3932
X0.5126 Z-0.4255
X0.4379 Z-0.4592
X0.3639 Z-0.4944
X0.2905 Z-0.5309
X0.25 Z-0.552
G3 X0.2471 Z-0.5527 I-0.0029 K0.0055
G17 G2 X0.2284 Y1.5187 I0 J0.0187
G1 Y1.5437
G2 X0.2471 Y1.5625 I0.0187 J0
G18 G2 X0.25 Z-0.552 I0 K0.0062
G1 X0.2905 Z-0.5309
X0.3639 Z-0.4944
X0.4379 Z-0.4592
X0.5126 Z-0.4255
X0.5879 Z-0.3932
X0.6638 Z-0.3623
X0.7403 Z-0.3329
X0.8173 Z-0.305
X0.8948 Z-0.2785
X0.9728 Z-0.2535
X1.0554 Z-0.2288
X1.131 Z-0.2077
X1.2104 Z-0.1872
X1.2901 Z-0.1682
X1.3701 Z-0.1507
X1.4546 Z-0.134
X1.536 Z-0.1195
X1.6177 Z-0.1066
X1.6921 Z-0.0963
X1.7742 Z-0.0864
X1.8572 Z-0.0779
X1.865 Z-0.0775
G2 X1.8674 Z-0.0768 I-0.0004 K0.0062
G3 X1.8701 Z-0.0762 I0.0028 K-0.0056
G17 G3 X1.8889 Y1.5812 I0 J0.0187
G1 Y1.6062
G3 X1.8701 Y1.625 I-0.0187 J0
G18 G2 X1.8674 Z-0.0768 I0 K-0.0063
G3 X1.865 Z-0.0775 I-0.0028 K0.0056
G1 X1.8572 Z-0.0779
X1.7742 Z-0.0864
X1.6921 Z-0.0963
X1.6177 Z-0.1066
X1.536 Z-0.1195
X1.4546 Z-0.134
X1.3701 Z-0.1507
X1.2901 Z-0.1682
X1.2104 Z-0.1872
X1.131 Z-0.2077
X1.0554 Z-0.2288
X0.9728 Z-0.2535
X0.8948 Z-0.2785
X0.8173 Z-0.305
X0.7403 Z-0.3329
X0.6638 Z-0.3623
X0.5879 Z-0.3932
X0.5126 Z-0.4255
X0.4379 Z-0.4592
X0.3639 Z-0.4944
X0.2905 Z-0.5309
X0.25 Z-0.552
G3 X0.2471 Z-0.5527 I-0.0029 K0.0055
G17 G2 X0.2284 Y1.6437 I0 J0.0187
G1 Y1.6687
G2 X0.2471 Y1.6875 I0.0187 J0
G18 G2 X0.25 Z-0.552 I0 K0.0062
G1 X0.2905 Z-0.5309
X0.3639 Z-0.4944
X0.4379 Z-0.4592
X0.5126 Z-0.4255
X0.5879 Z-0.3932
X0.6638 Z-0.3623
X0.7403 Z-0.3329
X0.8173 Z-0.305
X0.8948 Z-0.2785
X0.9728 Z-0.2535
X1.0554 Z-0.2288
X1.131 Z-0.2077
X1.2104 Z-0.1872
X1.2901 Z-0.1682
X1.3701 Z-0.1507
X1.4546 Z-0.134
X1.536 Z-0.1195
X1.6177 Z-0.1066
X1.6921 Z-0.0963
X1.7742 Z-0.0864
X1.8572 Z-0.0779
X1.865 Z-0.0775
G2 X1.8674 Z-0.0768 I-0.0004 K0.0062
G3 X1.8701 Z-0.0762 I0.0028 K-0.0056
G17 G3 X1.8889 Y1.7062 I0 J0.0187
G1 Y1.7312
G3 X1.8701 Y1.7499 I-0.0187 J0
G18 G2 X1.8674 Z-0.0768 I0 K-0.0063
G3 X1.865 Z-0.0775 I-0.0028 K0.0056
G1 X1.8572 Z-0.0779
X1.7742 Z-0.0864
X1.6921 Z-0.0963
X1.6177 Z-0.1066
X1.536 Z-0.1195
X1.4546 Z-0.134
X1.3701 Z-0.1507
X1.2901 Z-0.1682
X1.2104 Z-0.1872
X1.131 Z-0.2077
X1.0554 Z-0.2288
X0.9728 Z-0.2535
X0.8948 Z-0.2785
X0.8173 Z-0.305
X0.7403 Z-0.3329
X0.6638 Z-0.3623
X0.5879 Z-0.3932
X0.5126 Z-0.4255
X0.4379 Z-0.4592
X0.3639 Z-0.4944
X0.2905 Z-0.5309
X0.25 Z-0.552
G3 X0.2471 Z-0.5527 I-0.0029 K0.0055
G17 G2 X0.2284 Y1.7687 I0 J0.0187
G1 Y1.7937
G2 X0.2471 Y1.8124 I0.0187 J0
G18 G2 X0.25 Z-0.552 I0 K0.0062
G1 X0.2905 Z-0.5309
X0.3639 Z-0.4944
X0.4379 Z-0.4592
X0.5126 Z-0.4255
X0.5879 Z-0.3932
X0.6638 Z-0.3623
X0.7403 Z-0.3329
X0.8173 Z-0.305
X0.8948 Z-0.2785
X0.9728 Z-0.2535
X1.0554 Z-0.2288
X1.131 Z-0.2077
X1.2104 Z-0.1872
X1.2901 Z-0.1682
X1.3701 Z-0.1507
X1.4546 Z-0.134
X1.536 Z-0.1195
X1.6177 Z-0.1066
X1.6921 Z-0.0963
X1.7742 Z-0.0864
X1.8572 Z-0.0779
X1.865 Z-0.0775
G2 X1.8674 Z-0.0768 I-0.0004 K0.0062
G3 X1.8701 Z-0.0762 I0.0028 K-0.0056
G17 G3 X1.8889 Y1.8312 I0 J0.0187
G1 Y1.8562
G3 X1.8701 Y1.8749 I-0.0187 J0
G18 G2 X1.8674 Z-0.0768 I0 K-0.0063
G3 X1.865 Z-0.0775 I-0.0028 K0.0056
G1 X1.8572 Z-0.0779
X1.7742 Z-0.0864
X1.6921 Z-0.0963
X1.6177 Z-0.1066
X1.536 Z-0.1195
X1.4546 Z-0.134
X1.3701 Z-0.1507
X1.2901 Z-0.1682
X1.2104 Z-0.1872
X1.131 Z-0.2077
X1.0554 Z-0.2288
X0.9728 Z-0.2535
X0.8948 Z-0.2785
X0.8173 Z-0.305
X0.7403 Z-0.3329
X0.6638 Z-0.3623
X0.5879 Z-0.3932
X0.5126 Z-0.4255
X0.4379 Z-0.4592
X0.3639 Z-0.4944
X0.2905 Z-0.5309
X0.25 Z-0.552
G3 X0.2471 Z-0.5527 I-0.0029 K0.0055
G17 G2 X0.2284 Y1.8937 I0 J0.0188
G1 Y1.9186
G2 X0.2471 Y1.9374 I0.0187 J0
G18 G2 X0.25 Z-0.552 I0 K0.0062
G1 X0.2905 Z-0.5309
X0.3639 Z-0.4944
X0.4379 Z-0.4592
X0.5126 Z-0.4255
X0.5879 Z-0.3932
X0.6638 Z-0.3623
X0.7403 Z-0.3329
X0.8173 Z-0.305
X0.8948 Z-0.2785
X0.9728 Z-0.2535
X1.0554 Z-0.2288
X1.131 Z-0.2077
X1.2104 Z-0.1872
X1.2901 Z-0.1682
X1.3701 Z-0.1507
X1.4546 Z-0.134
X1.536 Z-0.1195
X1.6177 Z-0.1066
X1.6921 Z-0.0963
X1.7742 Z-0.0864
X1.8572 Z-0.0779
X1.865 Z-0.0775
G2 X1.8674 Z-0.0768 I-0.0004 K0.0062
G3 X1.8701 Z-0.0762 I0.0028 K-0.0056
G17 G3 X1.8889 Y1.9561 I0 J0.0187
G1 Y1.9811
G3 X1.8701 Y1.9999 I-0.0187 J0
G18 G2 X1.8674 Z-0.0768 I0 K-0.0063
G3 X1.865 Z-0.0775 I-0.0028 K0.0056
G1 X1.8572 Z-0.0779
X1.7742 Z-0.0864
X1.6921 Z-0.0963
X1.6177 Z-0.1066
X1.536 Z-0.1195
X1.4546 Z-0.134
X1.3701 Z-0.1507
X1.2901 Z-0.1682
X1.2104 Z-0.1872
X1.131 Z-0.2077
X1.0554 Z-0.2288
X0.9728 Z-0.2535
X0.8948 Z-0.2785
X0.8173 Z-0.305
X0.7403 Z-0.3329
X0.6638 Z-0.3623
X0.5879 Z-0.3932
X0.5126 Z-0.4255
X0.4379 Z-0.4592
X0.3639 Z-0.4944
X0.2905 Z-0.5309
X0.25 Z-0.552
G3 X0.2471 Z-0.5527 I-0.0029 K0.0055
G17 G2 X0.2284 Y2.0186 I0 J0.0187
G1 Y2.0436
G2 X0.2471 Y2.0624 I0.0187 J0
G18 G2 X0.25 Z-0.552 I0 K0.0062
G1 X0.2905 Z-0.5309
X0.3639 Z-0.4944
X0.4379 Z-0.4592
X0.5126 Z-0.4255
X0.5879 Z-0.3932
X0.6638 Z-0.3623
X0.7403 Z-0.3329
X0.8173 Z-0.305
X0.8948 Z-0.2785
X0.9728 Z-0.2535
X1.0554 Z-0.2288
X1.131 Z-0.2077
X1.2104 Z-0.1872
X1.2901 Z-0.1682
X1.3701 Z-0.1507
X1.4546 Z-0.134
X1.536 Z-0.1195
X1.6177 Z-0.1066
X1.6921 Z-0.0963
X1.7742 Z-0.0864
X1.8572 Z-0.0779
X1.865 Z-0.0775
G2 X1.8674 Z-0.0768 I-0.0004 K0.0062
G3 X1.8701 Z-0.0762 I0.0028 K-0.0056
G17 G3 X1.8889 Y2.0811 I0 J0.0187
G1 Y2.1061
G3 X1.8701 Y2.1248 I-0.0187 J0
G18 G2 X1.8674 Z-0.0768 I0 K-0.0063
G3 X1.865 Z-0.0775 I-0.0028 K0.0056
G1 X1.8572 Z-0.0779
X1.7742 Z-0.0864
X1.6921 Z-0.0963
X1.6177 Z-0.1066
X1.536 Z-0.1195
X1.4546 Z-0.134
X1.3701 Z-0.1507
X1.2901 Z-0.1682
X1.2104 Z-0.1872
X1.131 Z-0.2077
X1.0554 Z-0.2288
X0.9728 Z-0.2535
X0.8948 Z-0.2785
X0.8173 Z-0.305
X0.7403 Z-0.3329
X0.6638 Z-0.3623
X0.5879 Z-0.3932
X0.5126 Z-0.4255
X0.4379 Z-0.4592
X0.3639 Z-0.4944
X0.2905 Z-0.5309
X0.25 Z-0.552
G3 X0.2471 Z-0.5527 I-0.0029 K0.0055
G17 G2 X0.2284 Y2.1436 I0 J0.0187
G1 Y2.1686
G2 X0.2471 Y2.1873 I0.0187 J0
G18 G2 X0.25 Z-0.552 I0 K0.0062
G1 X0.2905 Z-0.5309
X0.3639 Z-0.4944
X0.4379 Z-0.4592
X0.5126 Z-0.4255
X0.5879 Z-0.3932
X0.6638 Z-0.3623
X0.7403 Z-0.3329
X0.8173 Z-0.305
X0.8948 Z-0.2785
X0.9728 Z-0.2535
X1.0554 Z-0.2288
X1.131 Z-0.2077
X1.2104 Z-0.1872
X1.2901 Z-0.1682
X1.3701 Z-0.1507
X1.4546 Z-0.134
X1.536 Z-0.1195
X1.6177 Z-0.1066
X1.6921 Z-0.0963
X1.7742 Z-0.0864
X1.8572 Z-0.0779
X1.865 Z-0.0775
G2 X1.8674 Z-0.0768 I-0.0004 K0.0062
G3 X1.8701 Z-0.0762 I0.0028 K-0.0056
G17 G3 X1.8889 Y2.2061 I0 J0.0187
G1 Y2.2311
G3 X1.8701 Y2.2498 I-0.0187 J0
G18 G2 X1.8674 Z-0.0768 I0 K-0.0063
G3 X1.865 Z-0.0775 I-0.0028 K0.0056
G1 X1.8572 Z-0.0779
X1.7742 Z-0.0864
X1.6921 Z-0.0963
X1.6177 Z-0.1066
X1.536 Z-0.1195
X1.4546 Z-0.134
X1.3701 Z-0.1507
X1.2901 Z-0.1682
X1.2104 Z-0.1872
X1.131 Z-0.2077
X1.0554 Z-0.2288
X0.9728 Z-0.2535
X0.8948 Z-0.2785
X0.8173 Z-0.305
X0.7403 Z-0.3329
X0.6638 Z-0.3623
X0.5879 Z-0.3932
X0.5126 Z-0.4255
X0.4379 Z-0.4592
X0.3639 Z-0.4944
X0.2905 Z-0.5309
X0.25 Z-0.552
G3 X0.2471 Z-0.5527 I-0.0029 K0.0055
G17 G2 X0.2284 Y2.2686 I0 J0.0187
G1 Y2.2935
G2 X0.2471 Y2.3123 I0.0187 J0
G18 G2 X0.25 Z-0.552 I0 K0.0062
G1 X0.2905 Z-0.5309
X0.3639 Z-0.4944
X0.4379 Z-0.4592
X0.5126 Z-0.4255
X0.5879 Z-0.3932
X0.6638 Z-0.3623
X0.7403 Z-0.3329
X0.8173 Z-0.305
X0.8948 Z-0.2785
X0.9728 Z-0.2535
X1.0554 Z-0.2288
X1.131 Z-0.2077
X1.2104 Z-0.1872
X1.2901 Z-0.1682
X1.3701 Z-0.1507
X1.4546 Z-0.134
X1.536 Z-0.1195
X1.6177 Z-0.1066
X1.6921 Z-0.0963
X1.7742 Z-0.0864
X1.8572 Z-0.0779
X1.865 Z-0.0775
G2 X1.8674 Z-0.0768 I-0.0004 K0.0062
G3 X1.8701 Z-0.0762 I0.0028 K-0.0056
G17 G3 X1.8889 Y2.331 I0 J0.0187
G1 Y2.356
G3 X1.8701 Y2.3748 I-0.0187 J0
G18 G2 X1.8674 Z-0.0768 I0 K-0.0063
G3 X1.865 Z-0.0775 I-0.0028 K0.0056
G1 X1.8572 Z-0.0779
X1.7742 Z-0.0864
X1.6921 Z-0.0963
X1.6177 Z-0.1066
X1.536 Z-0.1195
X1.4546 Z-0.134
X1.3701 Z-0.1507
X1.2901 Z-0.1682
X1.2104 Z-0.1872
X1.131 Z-0.2077
X1.0554 Z-0.2288
X0.9728 Z-0.2535
X0.8948 Z-0.2785
X0.8173 Z-0.305
X0.7403 Z-0.3329
X0.6638 Z-0.3623
X0.5879 Z-0.3932
X0.5126 Z-0.4255
X0.4379 Z-0.4592
X0.3639 Z-0.4944
X0.2905 Z-0.5309
X0.25 Z-0.552
G3 X0.2471 Z-0.5527 I-0.0029 K0.0055
G17 G2 X0.2284 Y2.3935 I0 J0.0187
G1 Y2.4185
G2 X0.2471 Y2.4373 I0.0187 J0
G18 G2 X0.25 Z-0.552 I0 K0.0062
G1 X0.2905 Z-0.5309
X0.3639 Z-0.4944
X0.4379 Z-0.4592
X0.5126 Z-0.4255
X0.5879 Z-0.3932
X0.6638 Z-0.3623
X0.7403 Z-0.3329
X0.8173 Z-0.305
X0.8948 Z-0.2785
X0.9728 Z-0.2535
X1.0554 Z-0.2288
X1.131 Z-0.2077
X1.2104 Z-0.1872
X1.2901 Z-0.1682
X1.3701 Z-0.1507
X1.4546 Z-0.134
X1.536 Z-0.1195
X1.6177 Z-0.1066
X1.6921 Z-0.0963
X1.7742 Z-0.0864
X1.8572 Z-0.0779
X1.865 Z-0.0775
G2 X1.8674 Z-0.0768 I-0.0004 K0.0062
G3 X1.8701 Z-0.0762 I0.0028 K-0.0056
G17 G3 X1.8889 Y2.456 I0 J0.0187
G1 Y2.481
G3 X1.8701 Y2.4997 I-0.0187 J0
G18 G2 X1.8674 Z-0.0768 I0 K-0.0063
G3 X1.865 Z-0.0775 I-0.0028 K0.0056
G1 X1.8572 Z-0.0779
X1.7742 Z-0.0864
X1.6921 Z-0.0963
X1.6177 Z-0.1066
X1.536 Z-0.1195
X1.4546 Z-0.134
X1.3701 Z-0.1507
X1.2901 Z-0.1682
X1.2104 Z-0.1872
X1.131 Z-0.2077
X1.0554 Z-0.2288
X0.9728 Z-0.2535
X0.8948 Z-0.2785
X0.8173 Z-0.305
X0.7403 Z-0.3329
X0.6638 Z-0.3623
X0.5879 Z-0.3932
X0.5126 Z-0.4255
X0.4379 Z-0.4592
X0.3639 Z-0.4944
X0.2905 Z-0.5309
X0.25 Z-0.552
G3 X0.2471 Z-0.5527 I-0.0029 K0.0055
G17 G2 X0.2284 Y2.5185 I0 J0.0187
G1 Y2.5435
G2 X0.2471 Y2.5622 I0.0187 J0
G18 G2 X0.25 Z-0.552 I0 K0.0062
G1 X0.2905 Z-0.5309
X0.3639 Z-0.4944
X0.4379 Z-0.4592
X0.5126 Z-0.4255
X0.5879 Z-0.3932
X0.6638 Z-0.3623
X0.7403 Z-0.3329
X0.8173 Z-0.305
X0.8948 Z-0.2785
X0.9728 Z-0.2535
X1.0554 Z-0.2288
X1.131 Z-0.2077
X1.2104 Z-0.1872
X1.2901 Z-0.1682
X1.3701 Z-0.1507
X1.4546 Z-0.134
X1.536 Z-0.1195
X1.6177 Z-0.1066
X1.6921 Z-0.0963
X1.7742 Z-0.0864
X1.8572 Z-0.0779
X1.865 Z-0.0775
G2 X1.8674 Z-0.0768 I-0.0004 K0.0062
G3 X1.8701 Z-0.0762 I0.0028 K-0.0056
G17 G3 X1.8889 Y2.581 I0 J0.0187
G1 Y2.606
G3 X1.8701 Y2.6247 I-0.0187 J0
G18 G2 X1.8674 Z-0.0768 I0 K-0.0063
G3 X1.865 Z-0.0775 I-0.0028 K0.0056
G1 X1.8572 Z-0.0779
X1.7742 Z-0.0864
X1.6921 Z-0.0963
X1.6177 Z-0.1066
X1.536 Z-0.1195
X1.4546 Z-0.134
X1.3701 Z-0.1507
X1.2901 Z-0.1682
X1.2104 Z-0.1872
X1.131 Z-0.2077
X1.0554 Z-0.2288
X0.9728 Z-0.2535
X0.8948 Z-0.2785
X0.8173 Z-0.305
X0.7403 Z-0.3329
X0.6638 Z-0.3623
X0.5879 Z-0.3932
X0.5126 Z-0.4255
X0.4379 Z-0.4592
X0.3639 Z-0.4944
X0.2905 Z-0.5309
X0.25 Z-0.552
G3 X0.2471 Z-0.5527 I-0.0029 K0.0055
G17 G2 X0.2284 Y2.6435 I0 J0.0187
G1 Y2.6685
G2 X0.2471 Y2.6872 I0.0187 J0
G18 G2 X0.25 Z-0.552 I0 K0.0062
G1 X0.2905 Z-0.5309
X0.3639 Z-0.4944
X0.4379 Z-0.4592
X0.5126 Z-0.4255
X0.5879 Z-0.3932
X0.6638 Z-0.3623
X0.7403 Z-0.3329
X0.8173 Z-0.305
X0.8948 Z-0.2785
X0.9728 Z-0.2535
X1.0554 Z-0.2288
X1.131 Z-0.2077
X1.2104 Z-0.1872
X1.2901 Z-0.1682
X1.3701 Z-0.1507
X1.4546 Z-0.134
X1.536 Z-0.1195
X1.6177 Z-0.1066
X1.6921 Z-0.0963
X1.7742 Z-0.0864
X1.8572 Z-0.0779
X1.865 Z-0.0775
G2 X1.8674 Z-0.0768 I-0.0004 K0.0062
G3 X1.8701 Z-0.0762 I0.0028 K-0.0056
G17 G3 X1.8889 Y2.706 I0 J0.0187
G1 Y2.7309
G3 X1.8701 Y2.7497 I-0.0187 J0
G18 G2 X1.8674 Z-0.0768 I0 K-0.0063
G3 X1.865 Z-0.0775 I-0.0028 K0.0056
G1 X1.8572 Z-0.0779
X1.7742 Z-0.0864
X1.6921 Z-0.0963
X1.6177 Z-0.1066
X1.536 Z-0.1195
X1.4546 Z-0.134
X1.3701 Z-0.1507
X1.2901 Z-0.1682
X1.2104 Z-0.1872
X1.131 Z-0.2077
X1.0554 Z-0.2288
X0.9728 Z-0.2535
X0.8948 Z-0.2785
X0.8173 Z-0.305
X0.7403 Z-0.3329
X0.6638 Z-0.3623
X0.5879 Z-0.3932
X0.5126 Z-0.4255
X0.4379 Z-0.4592
X0.3639 Z-0.4944
X0.2905 Z-0.5309
X0.25 Z-0.552
G3 X0.2317 Z-0.5409 I-0.0058 K0.0111 F15
G0 Z0.6
G17
M9
G28 G91 Z0
G28 X0 Y0
M30
%
