%
(CurvedTopBall)
(T1  D=0.125 CR=0.0625 - ZMIN=-0.5534 - ball end mill)
G90
G17
G20
G28 G91 Z0
G90

(Parallel1 2)
M9
T1 M6
S18000 M3
G54
M9
G0 X2.0183 Y-1.2497
Z0.6
Z-0.4713
G1 Z-0.5409 F15
G18 G3 X2 Z-0.552 I-0.0125 K0
G1 X1.9529 Z-0.5276 F20
X1.8782 Z-0.4905
X1.8096 Z-0.458
X1.7335 Z-0.4238
X1.6534 Z-0.3896
X1.5795 Z-0.3597
X1.5016 Z-0.3299
X1.4231 Z-0.3016
X1.344 Z-0.2748
X1.2645 Z-0.2496
X1.1918 Z-0.228
X1.1114 Z-0.2057
X1.0269 Z-0.1841
X0.9494 Z-0.1658
X0.8678 Z-0.1482
X0.7859 Z-0.1322
X0.7037 Z-0.1178
X0.6287 Z-0.1061
X0.5461 Z-0.0947
X0.4632 Z-0.085
X0.3801 Z-0.0768
X0.375 Z-0.0766
G3 X0.3725 Z-0.0759 I0.0003 K0.0062
G2 X0.3698 Z-0.0753 I-0.0028 K-0.0056
G17 G2 X0.351 Y-1.2309 I0 J0.0187
G1 Y-1.206
G2 X0.3698 Y-1.1872 I0.0187 J0
G18 G3 X0.3725 Z-0.0759 I0 K-0.0062
G2 X0.375 Z-0.0766 I0.0028 K0.0056
G1 X0.3801 Z-0.0768
X0.4632 Z-0.085
X0.5461 Z-0.0947
X0.6287 Z-0.1061
X0.7037 Z-0.1178
X0.7859 Z-0.1322
X0.8678 Z-0.1482
X0.9494 Z-0.1658
X1.0269 Z-0.1841
X1.1114 Z-0.2057
X1.1918 Z-0.228
X1.2645 Z-0.2496
X1.344 Z-0.2748
X1.4231 Z-0.3016
X1.5016 Z-0.3299
X1.5795 Z-0.3597
X1.6534 Z-0.3896
X1.7335 Z-0.4238
X1.8096 Z-0.458
X1.8782 Z-0.4905
X1.9529 Z-0.5276
X2 Z-0.552
G2 X2.0029 Z-0.5527 I0.0029 K0.0055
G17 G3 X2.0216 Y-1.1685 I0 J0.0187
G1 Y-1.1435
G3 X2.0029 Y-1.1247 I-0.0187 J0
G18 G3 X2 Z-0.552 I0 K0.0063
G1 X1.9529 Z-0.5276
X1.8782 Z-0.4905
X1.8096 Z-0.458
X1.7335 Z-0.4238
X1.6534 Z-0.3896
X1.5795 Z-0.3597
X1.5016 Z-0.3299
X1.4231 Z-0.3016
X1.344 Z-0.2748
X1.2645 Z-0.2496
X1.1918 Z-0.228
X1.1114 Z-0.2057
X1.0269 Z-0.1841
X0.9494 Z-0.1658
X0.8678 Z-0.1482
X0.7859 Z-0.1322
X0.7037 Z-0.1178
X0.6287 Z-0.1061
X0.5461 Z-0.0947
X0.4632 Z-0.085
X0.3801 Z-0.0768
X0.375 Z-0.0766
G3 X0.3725 Z-0.0759 I0.0003 K0.0062
G2 X0.3698 Z-0.0753 I-0.0028 K-0.0056
G17 G2 X0.351 Y-1.106 I0 J0.0187
G1 Y-1.081
G2 X0.3698 Y-1.0622 I0.0187 J0
G18 G3 X0.3725 Z-0.0759 I0 K-0.0062
G2 X0.375 Z-0.0766 I0.0028 K0.0056
G1 X0.3801 Z-0.0768
X0.4632 Z-0.085
X0.5461 Z-0.0947
X0.6287 Z-0.1061
X0.7037 Z-0.1178
X0.7859 Z-0.1322
X0.8678 Z-0.1482
X0.9494 Z-0.1658
X1.0269 Z-0.1841
X1.1114 Z-0.2057
X1.1918 Z-0.228
X1.2645 Z-0.2496
X1.344 Z-0.2748
X1.4231 Z-0.3016
X1.5016 Z-0.3299
X1.5795 Z-0.3597
X1.6534 Z-0.3896
X1.7335 Z-0.4238
X1.8096 Z-0.458
X1.8782 Z-0.4905
X1.9529 Z-0.5276
X2 Z-0.552
G2 X2.0029 Z-0.5527 I0.0029 K0.0055
G17 G3 X2.0216 Y-1.0435 I0 J0.0187
G1 Y-1.0185
G3 X2.0029 Y-0.9998 I-0.0187 J0
G18 G3 X2 Z-0.552 I0 K0.0063
G1 X1.9529 Z-0.5276
X1.8782 Z-0.4905
X1.8096 Z-0.458
X1.7335 Z-0.4238
X1.6534 Z-0.3896
X1.5795 Z-0.3597
X1.5016 Z-0.3299
X1.4231 Z-0.3016
X1.344 Z-0.2748
X1.2645 Z-0.2496
X1.1918 Z-0.228
X1.1114 Z-0.2057
X1.0269 Z-0.1841
X0.9494 Z-0.1658
X0.8678 Z-0.1482
X0.7859 Z-0.1322
X0.7037 Z-0.1178
X0.6287 Z-0.1061
X0.5461 Z-0.0947
X0.4632 Z-0.085
X0.3801 Z-0.0768
X0.375 Z-0.0766
G3 X0.3725 Z-0.0759 I0.0003 K0.0062
G2 X0.3698 Z-0.0753 I-0.0028 K-0.0056
G17 G2 X0.351 Y-0.981 I0 J0.0187
G1 Y-0.956
G2 X0.3698 Y-0.9373 I0.0187 J0
G18 G3 X0.3725 Z-0.0759 I0 K-0.0062
G2 X0.375 Z-0.0766 I0.0028 K0.0056
G1 X0.3801 Z-0.0768
X0.4632 Z-0.085
X0.5461 Z-0.0947
X0.6287 Z-0.1061
X0.7037 Z-0.1178
X0.7859 Z-0.1322
X0.8678 Z-0.1482
X0.9494 Z-0.1658
X1.0269 Z-0.1841
X1.1114 Z-0.2057
X1.1918 Z-0.228
X1.2645 Z-0.2496
X1.344 Z-0.2748
X1.4231 Z-0.3016
X1.5016 Z-0.3299
X1.5795 Z-0.3597
X1.6534 Z-0.3896
X1.7335 Z-0.4238
X1.8096 Z-0.458
X1.8782 Z-0.4905
X1.9529 Z-0.5276
X2 Z-0.552
G2 X2.0029 Z-0.5527 I0.0029 K0.0055
G17 G3 X2.0216 Y-0.9185 I0 J0.0187
G1 Y-0.8935
G3 X2.0029 Y-0.8748 I-0.0187 J0
G18 G3 X2 Z-0.552 I0 K0.0063
G1 X1.9529 Z-0.5276
X1.8782 Z-0.4905
X1.8096 Z-0.458
X1.7335 Z-0.4238
X1.6534 Z-0.3896
X1.5795 Z-0.3597
X1.5016 Z-0.3299
X1.4231 Z-0.3016
X1.344 Z-0.2748
X1.2645 Z-0.2496
X1.1918 Z-0.228
X1.1114 Z-0.2057
X1.0269 Z-0.1841
X0.9494 Z-0.1658
X0.8678 Z-0.1482
X0.7859 Z-0.1322
X0.7037 Z-0.1178
X0.6287 Z-0.1061
X0.5461 Z-0.0947
X0.4632 Z-0.085
X0.3801 Z-0.0768
X0.375 Z-0.0766
G3 X0.3725 Z-0.0759 I0.0003 K0.0062
G2 X0.3698 Z-0.0753 I-0.0028 K-0.0056
G17 G2 X0.351 Y-0.856 I0 J0.0187
G1 Y-0.831
G2 X0.3698 Y-0.8123 I0.0187 J0
G18 G3 X0.3725 Z-0.0759 I0 K-0.0062
G2 X0.375 Z-0.0766 I0.0028 K0.0056
G1 X0.3801 Z-0.0768
X0.4632 Z-0.085
X0.5461 Z-0.0947
X0.6287 Z-0.1061
X0.7037 Z-0.1178
X0.7859 Z-0.1322
X0.8678 Z-0.1482
X0.9494 Z-0.1658
X1.0269 Z-0.1841
X1.1114 Z-0.2057
X1.1918 Z-0.228
X1.2645 Z-0.2496
X1.344 Z-0.2748
X1.4231 Z-0.3016
X1.5016 Z-0.3299
X1.5795 Z-0.3597
X1.6534 Z-0.3896
X1.7335 Z-0.4238
X1.8096 Z-0.458
X1.8782 Z-0.4905
X1.9529 Z-0.5276
X2 Z-0.552
G2 X2.0029 Z-0.5527 I0.0029 K0.0055
G17 G3 X2.0216 Y-0.7935 I0 J0.0187
G1 Y-0.7686
G3 X2.0029 Y-0.7498 I-0.0187 J0
G18 G3 X2 Z-0.552 I0 K0.0063
G1 X1.9529 Z-0.5276
X1.8782 Z-0.4905
X1.8096 Z-0.458
X1.7335 Z-0.4238
X1.6534 Z-0.3896
X1.5795 Z-0.3597
X1.5016 Z-0.3299
X1.4231 Z-0.3016
X1.344 Z-0.2748
X1.2645 Z-0.2496
X1.1918 Z-0.228
X1.1114 Z-0.2057
X1.0269 Z-0.1841
X0.9494 Z-0.1658
X0.8678 Z-0.1482
X0.7859 Z-0.1322
X0.7037 Z-0.1178
X0.6287 Z-0.1061
X0.5461 Z-0.0947
X0.4632 Z-0.085
X0.3801 Z-0.0768
X0.375 Z-0.0766
G3 X0.3725 Z-0.0759 I0.0003 K0.0062
G2 X0.3698 Z-0.0753 I-0.0028 K-0.0056
G17 G2 X0.351 Y-0.7311 I0 J0.0187
G1 Y-0.7061
G2 X0.3698 Y-0.6873 I0.0187 J0
G18 G3 X0.3725 Z-0.0759 I0 K-0.0062
G2 X0.375 Z-0.0766 I0.0028 K0.0056
G1 X0.3801 Z-0.0768
X0.4632 Z-0.085
X0.5461 Z-0.0947
X0.6287 Z-0.1061
X0.7037 Z-0.1178
X0.7859 Z-0.1322
X0.8678 Z-0.1482
X0.9494 Z-0.1658
X1.0269 Z-0.1841
X1.1114 Z-0.2057
X1.1918 Z-0.228
X1.2645 Z-0.2496
X1.344 Z-0.2748
X1.4231 Z-0.3016
X1.5016 Z-0.3299
X1.5795 Z-0.3597
X1.6534 Z-0.3896
X1.7335 Z-0.4238
X1.8096 Z-0.458
X1.8782 Z-0.4905
X1.9529 Z-0.5276
X2 Z-0.552
G2 X2.0029 Z-0.5527 I0.0029 K0.0055
G17 G3 X2.0216 Y-0.6686 I0 J0.0188
G1 Y-0.6436
G3 X2.0029 Y-0.6248 I-0.0187 J0
G18 G3 X2 Z-0.552 I0 K0.0063
G1 X1.9529 Z-0.5276
X1.8782 Z-0.4905
X1.8096 Z-0.458
X1.7335 Z-0.4238
X1.6534 Z-0.3896
X1.5795 Z-0.3597
X1.5016 Z-0.3299
X1.4231 Z-0.3016
X1.344 Z-0.2748
X1.2645 Z-0.2496
X1.1918 Z-0.228
X1.1114 Z-0.2057
X1.0269 Z-0.1841
X0.9494 Z-0.1658
X0.8678 Z-0.1482
X0.7859 Z-0.1322
X0.7037 Z-0.1178
X0.6287 Z-0.1061
X0.5461 Z-0.0947
X0.4632 Z-0.085
X0.3801 Z-0.0768
X0.375 Z-0.0766
G3 X0.3725 Z-0.0759 I0.0003 K0.0062
G2 X0.3698 Z-0.0753 I-0.0028 K-0.0056
G17 G2 X0.351 Y-0.6061 I0 J0.0187
G1 Y-0.5811
G2 X0.3698 Y-0.5624 I0.0187 J0
G18 G3 X0.3725 Z-0.0759 I0 K-0.0062
G2 X0.375 Z-0.0766 I0.0028 K0.0056
G1 X0.3801 Z-0.0768
X0.4632 Z-0.085
X0.5461 Z-0.0947
X0.6287 Z-0.1061
X0.7037 Z-0.1178
X0.7859 Z-0.1322
X0.8678 Z-0.1482
X0.9494 Z-0.1658
X1.0269 Z-0.1841
X1.1114 Z-0.2057
X1.1918 Z-0.228
X1.2645 Z-0.2496
X1.344 Z-0.2748
X1.4231 Z-0.3016
X1.5016 Z-0.3299
X1.5795 Z-0.3597
X1.6534 Z-0.3896
X1.7335 Z-0.4238
X1.8096 Z-0.458
X1.8782 Z-0.4905
X1.9529 Z-0.5276
X2 Z-0.552
G2 X2.0029 Z-0.5527 I0.0029 K0.0055
G17 G3 X2.0216 Y-0.5436 I0 J0.0188
G1 Y-0.5186
G3 X2.0029 Y-0.4999 I-0.0187 J0
G18 G3 X2 Z-0.552 I0 K0.0063
G1 X1.9529 Z-0.5276
X1.8782 Z-0.4905
X1.8096 Z-0.458
X1.7335 Z-0.4238
X1.6534 Z-0.3896
X1.5795 Z-0.3597
X1.5016 Z-0.3299
X1.4231 Z-0.3016
X1.344 Z-0.2748
X1.2645 Z-0.2496
X1.1918 Z-0.228
X1.1114 Z-0.2057
X1.0269 Z-0.1841
X0.9494 Z-0.1658
X0.8678 Z-0.1482
X0.7859 Z-0.1322
X0.7037 Z-0.1178
X0.6287 Z-0.1061
X0.5461 Z-0.0947
X0.4632 Z-0.085
X0.3801 Z-0.0768
X0.375 Z-0.0766
G3 X0.3725 Z-0.0759 I0.0003 K0.0062
G2 X0.3698 Z-0.0753 I-0.0028 K-0.0056
G17 G2 X0.351 Y-0.4811 I0 J0.0188
G1 Y-0.4561
G2 X0.3698 Y-0.4374 I0.0187 J0
G18 G3 X0.3725 Z-0.0759 I0 K-0.0062
G2 X0.375 Z-0.0766 I0.0028 K0.0056
G1 X0.3801 Z-0.0768
X0.4632 Z-0.085
X0.5461 Z-0.0947
X0.6287 Z-0.1061
X0.7037 Z-0.1178
X0.7859 Z-0.1322
X0.8678 Z-0.1482
X0.9494 Z-0.1658
X1.0269 Z-0.1841
X1.1114 Z-0.2057
X1.1918 Z-0.228
X1.2645 Z-0.2496
X1.344 Z-0.2748
X1.4231 Z-0.3016
X1.5016 Z-0.3299
X1.5795 Z-0.3597
X1.6534 Z-0.3896
X1.7335 Z-0.4238
X1.8096 Z-0.458
X1.8782 Z-0.4905
X1.9529 Z-0.5276
X2 Z-0.552
G2 X2.0029 Z-0.5527 I0.0029 K0.0055
G17 G3 X2.0216 Y-0.4186 I0 J0.0187
G1 Y-0.3937
G3 X2.0029 Y-0.3749 I-0.0187 J0
G18 G3 X2 Z-0.552 I0 K0.0063
G1 X1.9529 Z-0.5276
X1.8782 Z-0.4905
X1.8096 Z-0.458
X1.7335 Z-0.4238
X1.6534 Z-0.3896
X1.5795 Z-0.3597
X1.5016 Z-0.3299
X1.4231 Z-0.3016
X1.344 Z-0.2748
X1.2645 Z-0.2496
X1.1918 Z-0.228
X1.1114 Z-0.2057
X1.0269 Z-0.1841
X0.9494 Z-0.1658
X0.8678 Z-0.1482
X0.7859 Z-0.1322
X0.7037 Z-0.1178
X0.6287 Z-0.1061
X0.5461 Z-0.0947
X0.4632 Z-0.085
X0.3801 Z-0.0768
X0.375 Z-0.0766
G3 X0.3725 Z-0.0759 I0.0003 K0.0062
G2 X0.3698 Z-0.0753 I-0.0028 K-0.0056
G17 G2 X0.351 Y-0.3562 I0 J0.0187
G1 Y-0.3312
G2 X0.3698 Y-0.3124 I0.0187 J0
G18 G3 X0.3725 Z-0.0759 I0 K-0.0062
G2 X0.375 Z-0.0766 I0.0028 K0.0056
G1 X0.3801 Z-0.0768
X0.4632 Z-0.085
X0.5461 Z-0.0947
X0.6287 Z-0.1061
X0.7037 Z-0.1178
X0.7859 Z-0.1322
X0.8678 Z-0.1482
X0.9494 Z-0.1658
X1.0269 Z-0.1841
X1.1114 Z-0.2057
X1.1918 Z-0.228
X1.2645 Z-0.2496
X1.344 Z-0.2748
X1.4231 Z-0.3016
X1.5016 Z-0.3299
X1.5795 Z-0.3597
X1.6534 Z-0.3896
X1.7335 Z-0.4238
X1.8096 Z-0.458
X1.8782 Z-0.4905
X1.9529 Z-0.5276
X2 Z-0.552
G2 X2.0029 Z-0.5527 I0.0029 K0.0055
G17 G3 X2.0216 Y-0.2937 I0 J0.0188
G1 Y-0.2687
G3 X2.0029 Y-0.2499 I-0.0187 J0
G18 G3 X2 Z-0.552 I0 K0.0063
G1 X1.9529 Z-0.5276
X1.8782 Z-0.4905
X1.8096 Z-0.458
X1.7335 Z-0.4238
X1.6534 Z-0.3896
X1.5795 Z-0.3597
X1.5016 Z-0.3299
X1.4231 Z-0.3016
X1.344 Z-0.2748
X1.2645 Z-0.2496
X1.1918 Z-0.228
X1.1114 Z-0.2057
X1.0269 Z-0.1841
X0.9494 Z-0.1658
X0.8678 Z-0.1482
X0.7859 Z-0.1322
X0.7037 Z-0.1178
X0.6287 Z-0.1061
X0.5461 Z-0.0947
X0.4632 Z-0.085
X0.3801 Z-0.0768
X0.375 Z-0.0766
G3 X0.3725 Z-0.0759 I0.0003 K0.0062
G2 X0.3698 Z-0.0753 I-0.0028 K-0.0056
G17 G2 X0.351 Y-0.2312 I0 J0.0188
G1 Y-0.2062
G2 X0.3698 Y-0.1875 I0.0187 J0
G18 G3 X0.3725 Z-0.0759 I0 K-0.0062
G2 X0.375 Z-0.0766 I0.0028 K0.0056
G1 X0.3801 Z-0.0768
X0.4632 Z-0.085
X0.5461 Z-0.0947
X0.6287 Z-0.1061
X0.7037 Z-0.1178
X0.7859 Z-0.1322
X0.8678 Z-0.1482
X0.9494 Z-0.1658
X1.0269 Z-0.1841
X1.1114 Z-0.2057
X1.1918 Z-0.228
X1.2645 Z-0.2496
X1.344 Z-0.2748
X1.4231 Z-0.3016
X1.5016 Z-0.3299
X1.5795 Z-0.3597
X1.6534 Z-0.3896
X1.7335 Z-0.4238
X1.8096 Z-0.458
X1.8782 Z-0.4905
X1.9529 Z-0.5276
X2 Z-0.552
G2 X2.0029 Z-0.5527 I0.0029 K0.0055
G17 G3 X2.0216 Y-0.1687 I0 J0.0187
G1 Y-0.1437
G3 X2.0029 Y-0.125 I-0.0187 J0
G18 G3 X2 Z-0.552 I0 K0.0063
G1 X1.9529 Z-0.5276
X1.8782 Z-0.4905
X1.8096 Z-0.458
X1.7335 Z-0.4238
X1.6534 Z-0.3896
X1.5795 Z-0.3597
X1.5016 Z-0.3299
X1.4231 Z-0.3016
X1.344 Z-0.2748
X1.2645 Z-0.2496
X1.1918 Z-0.228
X1.1114 Z-0.2057
X1.0269 Z-0.1841
X0.9494 Z-0.1658
X0.8678 Z-0.1482
X0.7859 Z-0.1322
X0.7037 Z-0.1178
X0.6287 Z-0.1061
X0.5461 Z-0.0947
X0.4632 Z-0.085
X0.3801 Z-0.0768
X0.375 Z-0.0766
G3 X0.3725 Z-0.0759 I0.0003 K0.0062
G2 X0.3698 Z-0.0753 I-0.0028 K-0.0056
G17 G2 X0.351 Y-0.1062 I0 J0.0188
G1 Y-0.0812
G2 X0.3698 Y-0.0625 I0.0187 J0
G18 G3 X0.3725 Z-0.0759 I0 K-0.0062
G2 X0.375 Z-0.0766 I0.0028 K0.0056
G1 X0.3801 Z-0.0768
X0.4632 Z-0.085
X0.5461 Z-0.0947
X0.6287 Z-0.1061
X0.7037 Z-0.1178
X0.7859 Z-0.1322
X0.8678 Z-0.1482
X0.9494 Z-0.1658
X1.0269 Z-0.1841
X1.1114 Z-0.2057
X1.1918 Z-0.228
X1.2645 Z-0.2496
X1.344 Z-0.2748
X1.4231 Z-0.3016
X1.5016 Z-0.3299
X1.5795 Z-0.3597
X1.6534 Z-0.3896
X1.7335 Z-0.4238
X1.8096 Z-0.458
X1.8782 Z-0.4905
X1.9529 Z-0.5276
X2 Z-0.552
G2 X2.0029 Z-0.5527 I0.0029 K0.0055
G17 G3 X2.0216 Y-0.0437 I0 J0.0188
G1 Y-0.0188
G3 X2.0029 Y0 I-0.0187 J0
G18 G3 X2 Z-0.552 I0 K0.0063
G1 X1.9529 Z-0.5276
X1.8782 Z-0.4905
X1.8096 Z-0.458
X1.7335 Z-0.4238
X1.6534 Z-0.3896
X1.5795 Z-0.3597
X1.5016 Z-0.3299
X1.4231 Z-0.3016
X1.344 Z-0.2748
X1.2645 Z-0.2496
X1.1918 Z-0.228
X1.1114 Z-0.2057
X1.0269 Z-0.1841
X0.9494 Z-0.1658
X0.8678 Z-0.1482
X0.7859 Z-0.1322
X0.7037 Z-0.1178
X0.6287 Z-0.1061
X0.5461 Z-0.0947
X0.4632 Z-0.085
X0.3801 Z-0.0768
X0.375 Z-0.0766
G3 X0.3725 Z-0.0759 I0.0003 K0.0062
G2 X0.3698 Z-0.0753 I-0.0028 K-0.0056
G17 G2 X0.351 Y0.0187 I0 J0.0188
G1 Y0.0437
G2 X0.3698 Y0.0625 I0.0187 J0
G18 G3 X0.3725 Z-0.0759 I0 K-0.0062
G2 X0.375 Z-0.0766 I0.0028 K0.0056
G1 X0.3801 Z-0.0768
X0.4632 Z-0.085
X0.5461 Z-0.0947
X0.6287 Z-0.1061
X0.7037 Z-0.1178
X0.7859 Z-0.1322
X0.8678 Z-0.1482
X0.9494 Z-0.1658
X1.0269 Z-0.1841
X1.1114 Z-0.2057
X1.1918 Z-0.228
X1.2645 Z-0.2496
X1.344 Z-0.2748
X1.4231 Z-0.3016
X1.5016 Z-0.3299
X1.5795 Z-0.3597
X1.6534 Z-0.3896
X1.7335 Z-0.4238
X1.8096 Z-0.458
X1.8782 Z-0.4905
X1.9529 Z-0.5276
X2 Z-0.552
G2 X2.0029 Z-0.5527 I0.0029 K0.0055
G17 G3 X2.0216 Y0.0812 I0 J0.0188
G1 Y0.1062
G3 X2.0029 Y0.125 I-0.0187 J0
G18 G3 X2 Z-0.552 I0 K0.0063
G1 X1.9529 Z-0.5276
X1.8782 Z-0.4905
X1.8096 Z-0.458
X1.7335 Z-0.4238
X1.6534 Z-0.3896
X1.5795 Z-0.3597
X1.5016 Z-0.3299
X1.4231 Z-0.3016
X1.344 Z-0.2748
X1.2645 Z-0.2496
X1.1918 Z-0.228
X1.1114 Z-0.2057
X1.0269 Z-0.1841
X0.9494 Z-0.1658
X0.8678 Z-0.1482
X0.7859 Z-0.1322
X0.7037 Z-0.1178
X0.6287 Z-0.1061
X0.5461 Z-0.0947
X0.4632 Z-0.085
X0.3801 Z-0.0768
X0.375 Z-0.0766
G3 X0.3725 Z-0.0759 I0.0003 K0.0062
G2 X0.3698 Z-0.0753 I-0.0028 K-0.0056
G17 G2 X0.351 Y0.1437 I0 J0.0188
G1 Y0.1687
G2 X0.3698 Y0.1875 I0.0187 J0
G18 G3 X0.3725 Z-0.0759 I0 K-0.0062
G2 X0.375 Z-0.0766 I0.0028 K0.0056
G1 X0.3801 Z-0.0768
X0.4632 Z-0.085
X0.5461 Z-0.0947
X0.6287 Z-0.1061
X0.7037 Z-0.1178
X0.7859 Z-0.1322
X0.8678 Z-0.1482
X0.9494 Z-0.1658
X1.0269 Z-0.1841
X1.1114 Z-0.2057
X1.1918 Z-0.228
X1.2645 Z-0.2496
X1.344 Z-0.2748
X1.4231 Z-0.3016
X1.5016 Z-0.3299
X1.5795 Z-0.3597
X1.6534 Z-0.3896
X1.7335 Z-0.4238
X1.8096 Z-0.458
X1.8782 Z-0.4905
X1.9529 Z-0.5276
X2 Z-0.552
G2 X2.0029 Z-0.5527 I0.0029 K0.0055
G17 G3 X2.0216 Y0.2062 I0 J0.0188
G1 Y0.2312
G3 X2.0029 Y0.2499 I-0.0187 J0
G18 G3 X2 Z-0.552 I0 K0.0063
G1 X1.9529 Z-0.5276
X1.8782 Z-0.4905
X1.8096 Z-0.458
X1.7335 Z-0.4238
X1.6534 Z-0.3896
X1.5795 Z-0.3597
X1.5016 Z-0.3299
X1.4231 Z-0.3016
X1.344 Z-0.2748
X1.2645 Z-0.2496
X1.1918 Z-0.228
X1.1114 Z-0.2057
X1.0269 Z-0.1841
X0.9494 Z-0.1658
X0.8678 Z-0.1482
X0.7859 Z-0.1322
X0.7037 Z-0.1178
X0.6287 Z-0.1061
X0.5461 Z-0.0947
X0.4632 Z-0.085
X0.3801 Z-0.0768
X0.375 Z-0.0766
G3 X0.3725 Z-0.0759 I0.0003 K0.0062
G2 X0.3698 Z-0.0753 I-0.0028 K-0.0056
G17 G2 X0.351 Y0.2687 I0 J0.0188
G1 Y0.2937
G2 X0.3698 Y0.3124 I0.0187 J0
G18 G3 X0.3725 Z-0.0759 I0 K-0.0062
G2 X0.375 Z-0.0766 I0.0028 K0.0056
G1 X0.3801 Z-0.0768
X0.4632 Z-0.085
X0.5461 Z-0.0947
X0.6287 Z-0.1061
X0.7037 Z-0.1178
X0.7859 Z-0.1322
X0.8678 Z-0.1482
X0.9494 Z-0.1658
X1.0269 Z-0.1841
X1.1114 Z-0.2057
X1.1918 Z-0.228
X1.2645 Z-0.2496
X1.344 Z-0.2748
X1.4231 Z-0.3016
X1.5016 Z-0.3299
X1.5795 Z-0.3597
X1.6534 Z-0.3896
X1.7335 Z-0.4238
X1.8096 Z-0.458
X1.8782 Z-0.4905
X1.9529 Z-0.5276
X2 Z-0.552
G2 X2.0029 Z-0.5527 I0.0029 K0.0055
G17 G3 X2.0216 Y0.3312 I0 J0.0187
G1 Y0.3562
G3 X2.0029 Y0.3749 I-0.0187 J0
G18 G3 X2 Z-0.552 I0 K0.0063
G1 X1.9529 Z-0.5276
X1.8782 Z-0.4905
X1.8096 Z-0.458
X1.7335 Z-0.4238
X1.6534 Z-0.3896
X1.5795 Z-0.3597
X1.5016 Z-0.3299
X1.4231 Z-0.3016
X1.344 Z-0.2748
X1.2645 Z-0.2496
X1.1918 Z-0.228
X1.1114 Z-0.2057
X1.0269 Z-0.1841
X0.9494 Z-0.1658
X0.8678 Z-0.1482
X0.7859 Z-0.1322
X0.7037 Z-0.1178
X0.6287 Z-0.1061
X0.5461 Z-0.0947
X0.4632 Z-0.085
X0.3801 Z-0.0768
X0.375 Z-0.0766
G3 X0.3725 Z-0.0759 I0.0003 K0.0062
G2 X0.3698 Z-0.0753 I-0.0028 K-0.0056
G17 G2 X0.351 Y0.3937 I0 J0.0187
G1 Y0.4186
G2 X0.3698 Y0.4374 I0.0187 J0
G18 G3 X0.3725 Z-0.0759 I0 K-0.0062
G2 X0.375 Z-0.0766 I0.0028 K0.0056
G1 X0.3801 Z-0.0768
X0.4632 Z-0.085
X0.5461 Z-0.0947
X0.6287 Z-0.1061
X0.7037 Z-0.1178
X0.7859 Z-0.1322
X0.8678 Z-0.1482
X0.9494 Z-0.1658
X1.0269 Z-0.1841
X1.1114 Z-0.2057
X1.1918 Z-0.228
X1.2645 Z-0.2496
X1.344 Z-0.2748
X1.4231 Z-0.3016
X1.5016 Z-0.3299
X1.5795 Z-0.3597
X1.6534 Z-0.3896
X1.7335 Z-0.4238
X1.8096 Z-0.458
X1.8782 Z-0.4905
X1.9529 Z-0.5276
X2 Z-0.552
G2 X2.0029 Z-0.5527 I0.0029 K0.0055
G17 G3 X2.0216 Y0.4561 I0 J0.0188
G1 Y0.4811
G3 X2.0029 Y0.4999 I-0.0187 J0
G18 G3 X2 Z-0.552 I0 K0.0063
G1 X1.9529 Z-0.5276
X1.8782 Z-0.4905
X1.8096 Z-0.458
X1.7335 Z-0.4238
X1.6534 Z-0.3896
X1.5795 Z-0.3597
X1.5016 Z-0.3299
X1.4231 Z-0.3016
X1.344 Z-0.2748
X1.2645 Z-0.2496
X1.1918 Z-0.228
X1.1114 Z-0.2057
X1.0269 Z-0.1841
X0.9494 Z-0.1658
X0.8678 Z-0.1482
X0.7859 Z-0.1322
X0.7037 Z-0.1178
X0.6287 Z-0.1061
X0.5461 Z-0.0947
X0.4632 Z-0.085
X0.3801 Z-0.0768
X0.375 Z-0.0766
G3 X0.3725 Z-0.0759 I0.0003 K0.0062
G2 X0.3698 Z-0.0753 I-0.0028 K-0.0056
G17 G2 X0.351 Y0.5186 I0 J0.0187
G1 Y0.5436
G2 X0.3698 Y0.5624 I0.0187 J0
G18 G3 X0.3725 Z-0.0759 I0 K-0.0062
G2 X0.375 Z-0.0766 I0.0028 K0.0056
G1 X0.3801 Z-0.0768
X0.4632 Z-0.085
X0.5461 Z-0.0947
X0.6287 Z-0.1061
X0.7037 Z-0.1178
X0.7859 Z-0.1322
X0.8678 Z-0.1482
X0.9494 Z-0.1658
X1.0269 Z-0.1841
X1.1114 Z-0.2057
X1.1918 Z-0.228
X1.2645 Z-0.2496
X1.344 Z-0.2748
X1.4231 Z-0.3016
X1.5016 Z-0.3299
X1.5795 Z-0.3597
X1.6534 Z-0.3896
X1.7335 Z-0.4238
X1.8096 Z-0.458
X1.8782 Z-0.4905
X1.9529 Z-0.5276
X2 Z-0.552
G2 X2.0029 Z-0.5527 I0.0029 K0.0055
G17 G3 X2.0216 Y0.5811 I0 J0.0187
G1 Y0.6061
G3 X2.0029 Y0.6248 I-0.0187 J0
G18 G3 X2 Z-0.552 I0 K0.0063
G1 X1.9529 Z-0.5276
X1.8782 Z-0.4905
X1.8096 Z-0.458
X1.7335 Z-0.4238
X1.6534 Z-0.3896
X1.5795 Z-0.3597
X1.5016 Z-0.3299
X1.4231 Z-0.3016
X1.344 Z-0.2748
X1.2645 Z-0.2496
X1.1918 Z-0.228
X1.1114 Z-0.2057
X1.0269 Z-0.1841
X0.9494 Z-0.1658
X0.8678 Z-0.1482
X0.7859 Z-0.1322
X0.7037 Z-0.1178
X0.6287 Z-0.1061
X0.5461 Z-0.0947
X0.4632 Z-0.085
X0.3801 Z-0.0768
X0.375 Z-0.0766
G3 X0.3725 Z-0.0759 I0.0003 K0.0062
G2 X0.3698 Z-0.0753 I-0.0028 K-0.0056
G17 G2 X0.351 Y0.6436 I0 J0.0188
G1 Y0.6686
G2 X0.3698 Y0.6873 I0.0187 J0
G18 G3 X0.3725 Z-0.0759 I0 K-0.0062
G2 X0.375 Z-0.0766 I0.0028 K0.0056
G1 X0.3801 Z-0.0768
X0.4632 Z-0.085
X0.5461 Z-0.0947
X0.6287 Z-0.1061
X0.7037 Z-0.1178
X0.7859 Z-0.1322
X0.8678 Z-0.1482
X0.9494 Z-0.1658
X1.0269 Z-0.1841
X1.1114 Z-0.2057
X1.1918 Z-0.228
X1.2645 Z-0.2496
X1.344 Z-0.2748
X1.4231 Z-0.3016
X1.5016 Z-0.3299
X1.5795 Z-0.3597
X1.6534 Z-0.3896
X1.7335 Z-0.4238
X1.8096 Z-0.458
X1.8782 Z-0.4905
X1.9529 Z-0.5276
X2 Z-0.552
G2 X2.0029 Z-0.5527 I0.0029 K0.0055
G17 G3 X2.0216 Y0.7061 I0 J0.0187
G1 Y0.7311
G3 X2.0029 Y0.7498 I-0.0187 J0
G18 G3 X2 Z-0.552 I0 K0.0063
G1 X1.9529 Z-0.5276
X1.8782 Z-0.4905
X1.8096 Z-0.458
X1.7335 Z-0.4238
X1.6534 Z-0.3896
X1.5795 Z-0.3597
X1.5016 Z-0.3299
X1.4231 Z-0.3016
X1.344 Z-0.2748
X1.2645 Z-0.2496
X1.1918 Z-0.228
X1.1114 Z-0.2057
X1.0269 Z-0.1841
X0.9494 Z-0.1658
X0.8678 Z-0.1482
X0.7859 Z-0.1322
X0.7037 Z-0.1178
X0.6287 Z-0.1061
X0.5461 Z-0.0947
X0.4632 Z-0.085
X0.3801 Z-0.0768
X0.375 Z-0.0766
G3 X0.3725 Z-0.0759 I0.0003 K0.0062
G2 X0.3698 Z-0.0753 I-0.0028 K-0.0056
G17 G2 X0.351 Y0.7686 I0 J0.0187
G1 Y0.7935
G2 X0.3698 Y0.8123 I0.0187 J0
G18 G3 X0.3725 Z-0.0759 I0 K-0.0062
G2 X0.375 Z-0.0766 I0.0028 K0.0056
G1 X0.3801 Z-0.0768
X0.4632 Z-0.085
X0.5461 Z-0.0947
X0.6287 Z-0.1061
X0.7037 Z-0.1178
X0.7859 Z-0.1322
X0.8678 Z-0.1482
X0.9494 Z-0.1658
X1.0269 Z-0.1841
X1.1114 Z-0.2057
X1.1918 Z-0.228
X1.2645 Z-0.2496
X1.344 Z-0.2748
X1.4231 Z-0.3016
X1.5016 Z-0.3299
X1.5795 Z-0.3597
X1.6534 Z-0.3896
X1.7335 Z-0.4238
X1.8096 Z-0.458
X1.8782 Z-0.4905
X1.9529 Z-0.5276
X2 Z-0.552
G2 X2.0029 Z-0.5527 I0.0029 K0.0055
G17 G3 X2.0216 Y0.831 I0 J0.0187
G1 Y0.856
G3 X2.0029 Y0.8748 I-0.0187 J0
G18 G3 X2 Z-0.552 I0 K0.0063
G1 X1.9529 Z-0.5276
X1.8782 Z-0.4905
X1.8096 Z-0.458
X1.7335 Z-0.4238
X1.6534 Z-0.3896
X1.5795 Z-0.3597
X1.5016 Z-0.3299
X1.4231 Z-0.3016
X1.344 Z-0.2748
X1.2645 Z-0.2496
X1.1918 Z-0.228
X1.1114 Z-0.2057
X1.0269 Z-0.1841
X0.9494 Z-0.1658
X0.8678 Z-0.1482
X0.7859 Z-0.1322
X0.7037 Z-0.1178
X0.6287 Z-0.1061
X0.5461 Z-0.0947
X0.4632 Z-0.085
X0.3801 Z-0.0768
X0.375 Z-0.0766
G3 X0.3725 Z-0.0759 I0.0003 K0.0062
G2 X0.3698 Z-0.0753 I-0.0028 K-0.0056
G17 G2 X0.351 Y0.8935 I0 J0.0187
G1 Y0.9185
G2 X0.3698 Y0.9373 I0.0187 J0
G18 G3 X0.3725 Z-0.0759 I0 K-0.0062
G2 X0.375 Z-0.0766 I0.0028 K0.0056
G1 X0.3801 Z-0.0768
X0.4632 Z-0.085
X0.5461 Z-0.0947
X0.6287 Z-0.1061
X0.7037 Z-0.1178
X0.7859 Z-0.1322
X0.8678 Z-0.1482
X0.9494 Z-0.1658
X1.0269 Z-0.1841
X1.1114 Z-0.2057
X1.1918 Z-0.228
X1.2645 Z-0.2496
X1.344 Z-0.2748
X1.4231 Z-0.3016
X1.5016 Z-0.3299
X1.5795 Z-0.3597
X1.6534 Z-0.3896
X1.7335 Z-0.4238
X1.8096 Z-0.458
X1.8782 Z-0.4905
X1.9529 Z-0.5276
X2 Z-0.552
G2 X2.0029 Z-0.5527 I0.0029 K0.0055
G17 G3 X2.0216 Y0.956 I0 J0.0187
G1 Y0.981
G3 X2.0029 Y0.9997 I-0.0187 J0
G18 G3 X2 Z-0.552 I0 K0.0063
G1 X1.9529 Z-0.5276
X1.8782 Z-0.4905
X1.8096 Z-0.458
X1.7335 Z-0.4238
X1.6534 Z-0.3896
X1.5795 Z-0.3597
X1.5016 Z-0.3299
X1.4231 Z-0.3016
X1.344 Z-0.2748
X1.2645 Z-0.2496
X1.1918 Z-0.228
X1.1114 Z-0.2057
X1.0269 Z-0.1841
X0.9494 Z-0.1658
X0.8678 Z-0.1482
X0.7859 Z-0.1322
X0.7037 Z-0.1178
X0.6287 Z-0.1061
X0.5461 Z-0.0947
X0.4632 Z-0.085
X0.3801 Z-0.0768
X0.375 Z-0.0766
G3 X0.3725 Z-0.0759 I0.0003 K0.0062
G2 X0.3698 Z-0.0753 I-0.0028 K-0.0056
G17 G2 X0.351 Y1.0185 I0 J0.0187
G1 Y1.0435
G2 X0.3698 Y1.0622 I0.0187 J0
G18 G3 X0.3725 Z-0.0759 I0 K-0.0062
G2 X0.375 Z-0.0766 I0.0028 K0.0056
G1 X0.3801 Z-0.0768
X0.4632 Z-0.085
X0.5461 Z-0.0947
X0.6287 Z-0.1061
X0.7037 Z-0.1178
X0.7859 Z-0.1322
X0.8678 Z-0.1482
X0.9494 Z-0.1658
X1.0269 Z-0.1841
X1.1114 Z-0.2057
X1.1918 Z-0.228
X1.2645 Z-0.2496
X1.344 Z-0.2748
X1.4231 Z-0.3016
X1.5016 Z-0.3299
X1.5795 Z-0.3597
X1.6534 Z-0.3896
X1.7335 Z-0.4238
X1.8096 Z-0.458
X1.8782 Z-0.4905
X1.9529 Z-0.5276
X2 Z-0.552
G2 X2.0029 Z-0.5527 I0.0029 K0.0055
G17 G3 X2.0216 Y1.081 I0 J0.0187
G1 Y1.106
G3 X2.0029 Y1.1247 I-0.0187 J0
G18 G3 X2 Z-0.552 I0 K0.0063
G1 X1.9529 Z-0.5276
X1.8782 Z-0.4905
X1.8096 Z-0.458
X1.7335 Z-0.4238
X1.6534 Z-0.3896
X1.5795 Z-0.3597
X1.5016 Z-0.3299
X1.4231 Z-0.3016
X1.344 Z-0.2748
X1.2645 Z-0.2496
X1.1918 Z-0.228
X1.1114 Z-0.2057
X1.0269 Z-0.1841
X0.9494 Z-0.1658
X0.8678 Z-0.1482
X0.7859 Z-0.1322
X0.7037 Z-0.1178
X0.6287 Z-0.1061
X0.5461 Z-0.0947
X0.4632 Z-0.085
X0.3801 Z-0.0768
X0.375 Z-0.0766
G3 X0.3725 Z-0.0759 I0.0003 K0.0062
G2 X0.3698 Z-0.0753 I-0.0028 K-0.0056
G17 G2 X0.351 Y1.1435 I0 J0.0187
G1 Y1.1685
G2 X0.3698 Y1.1872 I0.0187 J0
G18 G3 X0.3725 Z-0.0759 I0 K-0.0062
G2 X0.375 Z-0.0766 I0.0028 K0.0056
G1 X0.3801 Z-0.0768
X0.4632 Z-0.085
X0.5461 Z-0.0947
X0.6287 Z-0.1061
X0.7037 Z-0.1178
X0.7859 Z-0.1322
X0.8678 Z-0.1482
X0.9494 Z-0.1658
X1.0269 Z-0.1841
X1.1114 Z-0.2057
X1.1918 Z-0.228
X1.2645 Z-0.2496
X1.344 Z-0.2748
X1.4231 Z-0.3016
X1.5016 Z-0.3299
X1.5795 Z-0.3597
X1.6534 Z-0.3896
X1.7335 Z-0.4238
X1.8096 Z-0.458
X1.8782 Z-0.4905
X1.9529 Z-0.5276
X2 Z-0.552
G2 X2.0029 Z-0.5527 I0.0029 K0.0055
G17 G3 X2.0216 Y1.206 I0 J0.0187
G1 Y1.2309
G3 X2.0029 Y1.2497 I-0.0187 J0
G18 G3 X2 Z-0.552 I0 K0.0063
G1 X1.9529 Z-0.5276
X1.8782 Z-0.4905
X1.8096 Z-0.458
X1.7335 Z-0.4238
X1.6534 Z-0.3896
X1.5795 Z-0.3597
X1.5016 Z-0.3299
X1.4231 Z-0.3016
X1.344 Z-0.2748
X1.2645 Z-0.2496
X1.1918 Z-0.228
X1.1114 Z-0.2057
X1.0269 Z-0.1841
X0.9494 Z-0.1658
X0.8678 Z-0.1482
X0.7859 Z-0.1322
X0.7037 Z-0.1178
X0.6287 Z-0.1061
X0.5461 Z-0.0947
X0.4632 Z-0.085
X0.3801 Z-0.0768
X0.375 Z-0.0766
G3 X0.363 Z-0.0641 I0.0005 K0.0125 F15
G0 Z0.2
X-0.3732 Y-1.2497
Z0.002
G1 Z-0.065 F15
G3 X-0.385 Z-0.0775 I-0.0125 K0
G1 X-0.3928 Z-0.0779 F20
X-0.4758 Z-0.0864
X-0.5579 Z-0.0963
X-0.6323 Z-0.1066
X-0.714 Z-0.1195
X-0.7954 Z-0.134
X-0.8799 Z-0.1507
X-0.9599 Z-0.1682
X-1.0396 Z-0.1872
X-1.119 Z-0.2077
X-1.1946 Z-0.2288
X-1.2772 Z-0.2535
X-1.3552 Z-0.2785
X-1.4327 Z-0.305
X-1.5097 Z-0.3329
X-1.5862 Z-0.3623
X-1.6621 Z-0.3932
X-1.7374 Z-0.4255
X-1.8121 Z-0.4592
X-1.8861 Z-0.4944
X-1.9595 Z-0.5309
X-2 Z-0.552
G3 X-2.0091 Z-0.5465 I-0.0029 K0.0055 F15
G19 G2 Y-1.2434 Z-0.5402 J0.0062 K0
G1 Y-1.1935 F20
G2 Y-1.1872 Z-0.5465 J0 K-0.0063 F15
G18 G2 X-2 Z-0.552 I0.0062 K0
G1 X-1.9595 Z-0.5309 F20
X-1.8861 Z-0.4944
X-1.8121 Z-0.4592
X-1.7374 Z-0.4255
X-1.6621 Z-0.3932
X-1.5862 Z-0.3623
X-1.5097 Z-0.3329
X-1.4327 Z-0.305
X-1.3552 Z-0.2785
X-1.2772 Z-0.2535
X-1.1946 Z-0.2288
X-1.119 Z-0.2077
X-1.0396 Z-0.1872
X-0.9599 Z-0.1682
X-0.8799 Z-0.1507
X-0.7954 Z-0.134
X-0.714 Z-0.1195
X-0.6323 Z-0.1066
X-0.5579 Z-0.0963
X-0.4758 Z-0.0864
X-0.3928 Z-0.0779
X-0.385 Z-0.0775
G2 X-0.3826 Z-0.0768 I-0.0004 K0.0062
G3 X-0.3799 Z-0.0762 I0.0028 K-0.0056
G17 G3 X-0.3611 Y-1.1685 I0 J0.0187
G1 Y-1.1435
G3 X-0.3799 Y-1.1247 I-0.0187 J0
G18 G2 X-0.3826 Z-0.0768 I0 K-0.0063
G3 X-0.385 Z-0.0775 I-0.0028 K0.0056
G1 X-0.3928 Z-0.0779
X-0.4758 Z-0.0864
X-0.5579 Z-0.0963
X-0.6323 Z-0.1066
X-0.714 Z-0.1195
X-0.7954 Z-0.134
X-0.8799 Z-0.1507
X-0.9599 Z-0.1682
X-1.0396 Z-0.1872
X-1.119 Z-0.2077
X-1.1946 Z-0.2288
X-1.2772 Z-0.2535
X-1.3552 Z-0.2785
X-1.4327 Z-0.305
X-1.5097 Z-0.3329
X-1.5862 Z-0.3623
X-1.6621 Z-0.3932
X-1.7374 Z-0.4255
X-1.8121 Z-0.4592
X-1.8861 Z-0.4944
X-1.9595 Z-0.5309
X-2 Z-0.552
G3 X-2.0091 Z-0.5465 I-0.0029 K0.0055 F15
G19 G2 Y-1.1185 Z-0.5402 J0.0062 K0
G1 Y-1.0685 F20
G2 Y-1.0622 Z-0.5465 J0 K-0.0063 F15
G18 G2 X-2 Z-0.552 I0.0062 K0
G1 X-1.9595 Z-0.5309 F20
X-1.8861 Z-0.4944
X-1.8121 Z-0.4592
X-1.7374 Z-0.4255
X-1.6621 Z-0.3932
X-1.5862 Z-0.3623
X-1.5097 Z-0.3329
X-1.4327 Z-0.305
X-1.3552 Z-0.2785
X-1.2772 Z-0.2535
X-1.1946 Z-0.2288
X-1.119 Z-0.2077
X-1.0396 Z-0.1872
X-0.9599 Z-0.1682
X-0.8799 Z-0.1507
X-0.7954 Z-0.134
X-0.714 Z-0.1195
X-0.6323 Z-0.1066
X-0.5579 Z-0.0963
X-0.4758 Z-0.0864
X-0.3928 Z-0.0779
X-0.385 Z-0.0775
G2 X-0.3826 Z-0.0768 I-0.0004 K0.0062
G3 X-0.3799 Z-0.0762 I0.0028 K-0.0056
G17 G3 X-0.3611 Y-1.0435 I0 J0.0187
G1 Y-1.0185
G3 X-0.3799 Y-0.9998 I-0.0187 J0
G18 G2 X-0.3826 Z-0.0768 I0 K-0.0063
G3 X-0.385 Z-0.0775 I-0.0028 K0.0056
G1 X-0.3928 Z-0.0779
X-0.4758 Z-0.0864
X-0.5579 Z-0.0963
X-0.6323 Z-0.1066
X-0.714 Z-0.1195
X-0.7954 Z-0.134
X-0.8799 Z-0.1507
X-0.9599 Z-0.1682
X-1.0396 Z-0.1872
X-1.119 Z-0.2077
X-1.1946 Z-0.2288
X-1.2772 Z-0.2535
X-1.3552 Z-0.2785
X-1.4327 Z-0.305
X-1.5097 Z-0.3329
X-1.5862 Z-0.3623
X-1.6621 Z-0.3932
X-1.7374 Z-0.4255
X-1.8121 Z-0.4592
X-1.8861 Z-0.4944
X-1.9595 Z-0.5309
X-2 Z-0.552
G3 X-2.0091 Z-0.5465 I-0.0029 K0.0055 F15
G19 G2 Y-0.9935 Z-0.5402 J0.0063 K0
G1 Y-0.9435 F20
G2 Y-0.9373 Z-0.5465 J0 K-0.0063 F15
G18 G2 X-2 Z-0.552 I0.0062 K0
G1 X-1.9595 Z-0.5309 F20
X-1.8861 Z-0.4944
X-1.8121 Z-0.4592
X-1.7374 Z-0.4255
X-1.6621 Z-0.3932
X-1.5862 Z-0.3623
X-1.5097 Z-0.3329
X-1.4327 Z-0.305
X-1.3552 Z-0.2785
X-1.2772 Z-0.2535
X-1.1946 Z-0.2288
X-1.119 Z-0.2077
X-1.0396 Z-0.1872
X-0.9599 Z-0.1682
X-0.8799 Z-0.1507
X-0.7954 Z-0.134
X-0.714 Z-0.1195
X-0.6323 Z-0.1066
X-0.5579 Z-0.0963
X-0.4758 Z-0.0864
X-0.3928 Z-0.0779
X-0.385 Z-0.0775
G2 X-0.3826 Z-0.0768 I-0.0004 K0.0062
G3 X-0.3799 Z-0.0762 I0.0028 K-0.0056
G17 G3 X-0.3611 Y-0.9185 I0 J0.0187
G1 Y-0.8935
G3 X-0.3799 Y-0.8748 I-0.0187 J0
G18 G2 X-0.3826 Z-0.0768 I0 K-0.0063
G3 X-0.385 Z-0.0775 I-0.0028 K0.0056
G1 X-0.3928 Z-0.0779
X-0.4758 Z-0.0864
X-0.5579 Z-0.0963
X-0.6323 Z-0.1066
X-0.714 Z-0.1195
X-0.7954 Z-0.134
X-0.8799 Z-0.1507
X-0.9599 Z-0.1682
X-1.0396 Z-0.1872
X-1.119 Z-0.2077
X-1.1946 Z-0.2288
X-1.2772 Z-0.2535
X-1.3552 Z-0.2785
X-1.4327 Z-0.305
X-1.5097 Z-0.3329
X-1.5862 Z-0.3623
X-1.6621 Z-0.3932
X-1.7374 Z-0.4255
X-1.8121 Z-0.4592
X-1.8861 Z-0.4944
X-1.9595 Z-0.5309
X-2 Z-0.552
G3 X-2.0091 Z-0.5465 I-0.0029 K0.0055 F15
G19 G2 Y-0.8685 Z-0.5402 J0.0063 K0
G1 Y-0.8185 F20
G2 Y-0.8123 Z-0.5465 J0 K-0.0063 F15
G18 G2 X-2 Z-0.552 I0.0062 K0
G1 X-1.9595 Z-0.5309 F20
X-1.8861 Z-0.4944
X-1.8121 Z-0.4592
X-1.7374 Z-0.4255
X-1.6621 Z-0.3932
X-1.5862 Z-0.3623
X-1.5097 Z-0.3329
X-1.4327 Z-0.305
X-1.3552 Z-0.2785
X-1.2772 Z-0.2535
X-1.1946 Z-0.2288
X-1.119 Z-0.2077
X-1.0396 Z-0.1872
X-0.9599 Z-0.1682
X-0.8799 Z-0.1507
X-0.7954 Z-0.134
X-0.714 Z-0.1195
X-0.6323 Z-0.1066
X-0.5579 Z-0.0963
X-0.4758 Z-0.0864
X-0.3928 Z-0.0779
X-0.385 Z-0.0775
G2 X-0.3826 Z-0.0768 I-0.0004 K0.0062
G3 X-0.3799 Z-0.0762 I0.0028 K-0.0056
G17 G3 X-0.3611 Y-0.7935 I0 J0.0187
G1 Y-0.7686
G3 X-0.3799 Y-0.7498 I-0.0187 J0
G18 G2 X-0.3826 Z-0.0768 I0 K-0.0063
G3 X-0.385 Z-0.0775 I-0.0028 K0.0056
G1 X-0.3928 Z-0.0779
X-0.4758 Z-0.0864
X-0.5579 Z-0.0963
X-0.6323 Z-0.1066
X-0.714 Z-0.1195
X-0.7954 Z-0.134
X-0.8799 Z-0.1507
X-0.9599 Z-0.1682
X-1.0396 Z-0.1872
X-1.119 Z-0.2077
X-1.1946 Z-0.2288
X-1.2772 Z-0.2535
X-1.3552 Z-0.2785
X-1.4327 Z-0.305
X-1.5097 Z-0.3329
X-1.5862 Z-0.3623
X-1.6621 Z-0.3932
X-1.7374 Z-0.4255
X-1.8121 Z-0.4592
X-1.8861 Z-0.4944
X-1.9595 Z-0.5309
X-2 Z-0.552
G3 X-2.0091 Z-0.5465 I-0.0029 K0.0055 F15
G19 G2 Y-0.7436 Z-0.5402 J0.0063 K0
G1 Y-0.6936 F20
G2 Y-0.6873 Z-0.5465 J0 K-0.0063 F15
G18 G2 X-2 Z-0.552 I0.0062 K0
G1 X-1.9595 Z-0.5309 F20
X-1.8861 Z-0.4944
X-1.8121 Z-0.4592
X-1.7374 Z-0.4255
X-1.6621 Z-0.3932
X-1.5862 Z-0.3623
X-1.5097 Z-0.3329
X-1.4327 Z-0.305
X-1.3552 Z-0.2785
X-1.2772 Z-0.2535
X-1.1946 Z-0.2288
X-1.119 Z-0.2077
X-1.0396 Z-0.1872
X-0.9599 Z-0.1682
X-0.8799 Z-0.1507
X-0.7954 Z-0.134
X-0.714 Z-0.1195
X-0.6323 Z-0.1066
X-0.5579 Z-0.0963
X-0.4758 Z-0.0864
X-0.3928 Z-0.0779
X-0.385 Z-0.0775
G2 X-0.3826 Z-0.0768 I-0.0004 K0.0062
G3 X-0.3799 Z-0.0762 I0.0028 K-0.0056
G17 G3 X-0.3611 Y-0.6686 I0 J0.0188
G1 Y-0.6436
G3 X-0.3799 Y-0.6248 I-0.0187 J0
G18 G2 X-0.3826 Z-0.0768 I0 K-0.0063
G3 X-0.385 Z-0.0775 I-0.0028 K0.0056
G1 X-0.3928 Z-0.0779
X-0.4758 Z-0.0864
X-0.5579 Z-0.0963
X-0.6323 Z-0.1066
X-0.714 Z-0.1195
X-0.7954 Z-0.134
X-0.8799 Z-0.1507
X-0.9599 Z-0.1682
X-1.0396 Z-0.1872
X-1.119 Z-0.2077
X-1.1946 Z-0.2288
X-1.2772 Z-0.2535
X-1.3552 Z-0.2785
X-1.4327 Z-0.305
X-1.5097 Z-0.3329
X-1.5862 Z-0.3623
X-1.6621 Z-0.3932
X-1.7374 Z-0.4255
X-1.8121 Z-0.4592
X-1.8861 Z-0.4944
X-1.9595 Z-0.5309
X-2 Z-0.552
G3 X-2.0091 Z-0.5465 I-0.0029 K0.0055 F15
G19 G2 Y-0.6186 Z-0.5402 J0.0062 K0
G1 Y-0.5686 F20
G2 Y-0.5624 Z-0.5465 J0 K-0.0063 F15
G18 G2 X-2 Z-0.552 I0.0062 K0
G1 X-1.9595 Z-0.5309 F20
X-1.8861 Z-0.4944
X-1.8121 Z-0.4592
X-1.7374 Z-0.4255
X-1.6621 Z-0.3932
X-1.5862 Z-0.3623
X-1.5097 Z-0.3329
X-1.4327 Z-0.305
X-1.3552 Z-0.2785
X-1.2772 Z-0.2535
X-1.1946 Z-0.2288
X-1.119 Z-0.2077
X-1.0396 Z-0.1872
X-0.9599 Z-0.1682
X-0.8799 Z-0.1507
X-0.7954 Z-0.134
X-0.714 Z-0.1195
X-0.6323 Z-0.1066
X-0.5579 Z-0.0963
X-0.4758 Z-0.0864
X-0.3928 Z-0.0779
X-0.385 Z-0.0775
G2 X-0.3826 Z-0.0768 I-0.0004 K0.0062
G3 X-0.3799 Z-0.0762 I0.0028 K-0.0056
G17 G3 X-0.3611 Y-0.5436 I0 J0.0188
G1 Y-0.5186
G3 X-0.3799 Y-0.4999 I-0.0187 J0
G18 G2 X-0.3826 Z-0.0768 I0 K-0.0063
G3 X-0.385 Z-0.0775 I-0.0028 K0.0056
G1 X-0.3928 Z-0.0779
X-0.4758 Z-0.0864
X-0.5579 Z-0.0963
X-0.6323 Z-0.1066
X-0.714 Z-0.1195
X-0.7954 Z-0.134
X-0.8799 Z-0.1507
X-0.9599 Z-0.1682
X-1.0396 Z-0.1872
X-1.119 Z-0.2077
X-1.1946 Z-0.2288
X-1.2772 Z-0.2535
X-1.3552 Z-0.2785
X-1.4327 Z-0.305
X-1.5097 Z-0.3329
X-1.5862 Z-0.3623
X-1.6621 Z-0.3932
X-1.7374 Z-0.4255
X-1.8121 Z-0.4592
X-1.8861 Z-0.4944
X-1.9595 Z-0.5309
X-2 Z-0.552
G3 X-2.0091 Z-0.5465 I-0.0029 K0.0055 F15
G19 G2 Y-0.4936 Z-0.5402 J0.0063 K0
G1 Y-0.4436 F20
G2 Y-0.4374 Z-0.5465 J0 K-0.0063 F15
G18 G2 X-2 Z-0.552 I0.0062 K0
G1 X-1.9595 Z-0.5309 F20
X-1.8861 Z-0.4944
X-1.8121 Z-0.4592
X-1.7374 Z-0.4255
X-1.6621 Z-0.3932
X-1.5862 Z-0.3623
X-1.5097 Z-0.3329
X-1.4327 Z-0.305
X-1.3552 Z-0.2785
X-1.2772 Z-0.2535
X-1.1946 Z-0.2288
X-1.119 Z-0.2077
X-1.0396 Z-0.1872
X-0.9599 Z-0.1682
X-0.8799 Z-0.1507
X-0.7954 Z-0.134
X-0.714 Z-0.1195
X-0.6323 Z-0.1066
X-0.5579 Z-0.0963
X-0.4758 Z-0.0864
X-0.3928 Z-0.0779
X-0.385 Z-0.0775
G2 X-0.3826 Z-0.0768 I-0.0004 K0.0062
G3 X-0.3799 Z-0.0762 I0.0028 K-0.0056
G17 G3 X-0.3611 Y-0.4186 I0 J0.0187
G1 Y-0.3937
G3 X-0.3799 Y-0.3749 I-0.0187 J0
G18 G2 X-0.3826 Z-0.0768 I0 K-0.0063
G3 X-0.385 Z-0.0775 I-0.0028 K0.0056
G1 X-0.3928 Z-0.0779
X-0.4758 Z-0.0864
X-0.5579 Z-0.0963
X-0.6323 Z-0.1066
X-0.714 Z-0.1195
X-0.7954 Z-0.134
X-0.8799 Z-0.1507
X-0.9599 Z-0.1682
X-1.0396 Z-0.1872
X-1.119 Z-0.2077
X-1.1946 Z-0.2288
X-1.2772 Z-0.2535
X-1.3552 Z-0.2785
X-1.4327 Z-0.305
X-1.5097 Z-0.3329
X-1.5862 Z-0.3623
X-1.6621 Z-0.3932
X-1.7374 Z-0.4255
X-1.8121 Z-0.4592
X-1.8861 Z-0.4944
X-1.9595 Z-0.5309
X-2 Z-0.552
G3 X-2.0091 Z-0.5465 I-0.0029 K0.0055 F15
G19 G2 Y-0.3687 Z-0.5402 J0.0062 K0
G1 Y-0.3187 F20
G2 Y-0.3124 Z-0.5465 J0 K-0.0063 F15
G18 G2 X-2 Z-0.552 I0.0062 K0
G1 X-1.9595 Z-0.5309 F20
X-1.8861 Z-0.4944
X-1.8121 Z-0.4592
X-1.7374 Z-0.4255
X-1.6621 Z-0.3932
X-1.5862 Z-0.3623
X-1.5097 Z-0.3329
X-1.4327 Z-0.305
X-1.3552 Z-0.2785
X-1.2772 Z-0.2535
X-1.1946 Z-0.2288
X-1.119 Z-0.2077
X-1.0396 Z-0.1872
X-0.9599 Z-0.1682
X-0.8799 Z-0.1507
X-0.7954 Z-0.134
X-0.714 Z-0.1195
X-0.6323 Z-0.1066
X-0.5579 Z-0.0963
X-0.4758 Z-0.0864
X-0.3928 Z-0.0779
X-0.385 Z-0.0775
G2 X-0.3826 Z-0.0768 I-0.0004 K0.0062
G3 X-0.3799 Z-0.0762 I0.0028 K-0.0056
G17 G3 X-0.3611 Y-0.2937 I0 J0.0188
G1 Y-0.2687
G3 X-0.3799 Y-0.2499 I-0.0187 J0
G18 G2 X-0.3826 Z-0.0768 I0 K-0.0063
G3 X-0.385 Z-0.0775 I-0.0028 K0.0056
G1 X-0.3928 Z-0.0779
X-0.4758 Z-0.0864
X-0.5579 Z-0.0963
X-0.6323 Z-0.1066
X-0.714 Z-0.1195
X-0.7954 Z-0.134
X-0.8799 Z-0.1507
X-0.9599 Z-0.1682
X-1.0396 Z-0.1872
X-1.119 Z-0.2077
X-1.1946 Z-0.2288
X-1.2772 Z-0.2535
X-1.3552 Z-0.2785
X-1.4327 Z-0.305
X-1.5097 Z-0.3329
X-1.5862 Z-0.3623
X-1.6621 Z-0.3932
X-1.7374 Z-0.4255
X-1.8121 Z-0.4592
X-1.8861 Z-0.4944
X-1.9595 Z-0.5309
X-2 Z-0.552
G3 X-2.0091 Z-0.5465 I-0.0029 K0.0055 F15
G19 G2 Y-0.2437 Z-0.5402 J0.0063 K0
G1 Y-0.1937 F20
G2 Y-0.1875 Z-0.5465 J0 K-0.0063 F15
G18 G2 X-2 Z-0.552 I0.0062 K0
G1 X-1.9595 Z-0.5309 F20
X-1.8861 Z-0.4944
X-1.8121 Z-0.4592
X-1.7374 Z-0.4255
X-1.6621 Z-0.3932
X-1.5862 Z-0.3623
X-1.5097 Z-0.3329
X-1.4327 Z-0.305
X-1.3552 Z-0.2785
X-1.2772 Z-0.2535
X-1.1946 Z-0.2288
X-1.119 Z-0.2077
X-1.0396 Z-0.1872
X-0.9599 Z-0.1682
X-0.8799 Z-0.1507
X-0.7954 Z-0.134
X-0.714 Z-0.1195
X-0.6323 Z-0.1066
X-0.5579 Z-0.0963
X-0.4758 Z-0.0864
X-0.3928 Z-0.0779
X-0.385 Z-0.0775
G2 X-0.3826 Z-0.0768 I-0.0004 K0.0062
G3 X-0.3799 Z-0.0762 I0.0028 K-0.0056
G17 G3 X-0.3611 Y-0.1687 I0 J0.0187
G1 Y-0.1437
G3 X-0.3799 Y-0.125 I-0.0187 J0
G18 G2 X-0.3826 Z-0.0768 I0 K-0.0063
G3 X-0.385 Z-0.0775 I-0.0028 K0.0056
G1 X-0.3928 Z-0.0779
X-0.4758 Z-0.0864
X-0.5579 Z-0.0963
X-0.6323 Z-0.1066
X-0.714 Z-0.1195
X-0.7954 Z-0.134
X-0.8799 Z-0.1507
X-0.9599 Z-0.1682
X-1.0396 Z-0.1872
X-1.119 Z-0.2077
X-1.1946 Z-0.2288
X-1.2772 Z-0.2535
X-1.3552 Z-0.2785
X-1.4327 Z-0.305
X-1.5097 Z-0.3329
X-1.5862 Z-0.3623
X-1.6621 Z-0.3932
X-1.7374 Z-0.4255
X-1.8121 Z-0.4592
X-1.8861 Z-0.4944
X-1.9595 Z-0.5309
X-2 Z-0.552
G3 X-2.0091 Z-0.5465 I-0.0029 K0.0055 F15
G19 G2 Y-0.1187 Z-0.5402 J0.0063 K0
G1 Y-0.0687 F20
G2 Y-0.0625 Z-0.5465 J0 K-0.0063 F15
G18 G2 X-2 Z-0.552 I0.0062 K0
G1 X-1.9595 Z-0.5309 F20
X-1.8861 Z-0.4944
X-1.8121 Z-0.4592
X-1.7374 Z-0.4255
X-1.6621 Z-0.3932
X-1.5862 Z-0.3623
X-1.5097 Z-0.3329
X-1.4327 Z-0.305
X-1.3552 Z-0.2785
X-1.2772 Z-0.2535
X-1.1946 Z-0.2288
X-1.119 Z-0.2077
X-1.0396 Z-0.1872
X-0.9599 Z-0.1682
X-0.8799 Z-0.1507
X-0.7954 Z-0.134
X-0.714 Z-0.1195
X-0.6323 Z-0.1066
X-0.5579 Z-0.0963
X-0.4758 Z-0.0864
X-0.3928 Z-0.0779
X-0.385 Z-0.0775
G2 X-0.3826 Z-0.0768 I-0.0004 K0.0062
G3 X-0.3799 Z-0.0762 I0.0028 K-0.0056
G17 G3 X-0.3611 Y-0.0437 I0 J0.0188
G1 Y-0.0188
G3 X-0.3799 Y0 I-0.0187 J0
G18 G2 X-0.3826 Z-0.0768 I0 K-0.0063
G3 X-0.385 Z-0.0775 I-0.0028 K0.0056
G1 X-0.3928 Z-0.0779
X-0.4758 Z-0.0864
X-0.5579 Z-0.0963
X-0.6323 Z-0.1066
X-0.714 Z-0.1195
X-0.7954 Z-0.134
X-0.8799 Z-0.1507
X-0.9599 Z-0.1682
X-1.0396 Z-0.1872
X-1.119 Z-0.2077
X-1.1946 Z-0.2288
X-1.2772 Z-0.2535
X-1.3552 Z-0.2785
X-1.4327 Z-0.305
X-1.5097 Z-0.3329
X-1.5862 Z-0.3623
X-1.6621 Z-0.3932
X-1.7374 Z-0.4255
X-1.8121 Z-0.4592
X-1.8861 Z-0.4944
X-1.9595 Z-0.5309
X-2 Z-0.552
G3 X-2.0091 Z-0.5465 I-0.0029 K0.0055 F15
G19 G2 Y0.0062 Z-0.5402 J0.0063 K0
G1 Y0.0562 F20
G2 Y0.0625 Z-0.5465 J0 K-0.0063 F15
G18 G2 X-2 Z-0.552 I0.0062 K0
G1 X-1.9595 Z-0.5309 F20
X-1.8861 Z-0.4944
X-1.8121 Z-0.4592
X-1.7374 Z-0.4255
X-1.6621 Z-0.3932
X-1.5862 Z-0.3623
X-1.5097 Z-0.3329
X-1.4327 Z-0.305
X-1.3552 Z-0.2785
X-1.2772 Z-0.2535
X-1.1946 Z-0.2288
X-1.119 Z-0.2077
X-1.0396 Z-0.1872
X-0.9599 Z-0.1682
X-0.8799 Z-0.1507
X-0.7954 Z-0.134
X-0.714 Z-0.1195
X-0.6323 Z-0.1066
X-0.5579 Z-0.0963
X-0.4758 Z-0.0864
X-0.3928 Z-0.0779
X-0.385 Z-0.0775
G2 X-0.3826 Z-0.0768 I-0.0004 K0.0062
G3 X-0.3799 Z-0.0762 I0.0028 K-0.0056
G17 G3 X-0.3611 Y0.0812 I0 J0.0188
G1 Y0.1062
G3 X-0.3799 Y0.125 I-0.0187 J0
G18 G2 X-0.3826 Z-0.0768 I0 K-0.0063
G3 X-0.385 Z-0.0775 I-0.0028 K0.0056
G1 X-0.3928 Z-0.0779
X-0.4758 Z-0.0864
X-0.5579 Z-0.0963
X-0.6323 Z-0.1066
X-0.714 Z-0.1195
X-0.7954 Z-0.134
X-0.8799 Z-0.1507
X-0.9599 Z-0.1682
X-1.0396 Z-0.1872
X-1.119 Z-0.2077
X-1.1946 Z-0.2288
X-1.2772 Z-0.2535
X-1.3552 Z-0.2785
X-1.4327 Z-0.305
X-1.5097 Z-0.3329
X-1.5862 Z-0.3623
X-1.6621 Z-0.3932
X-1.7374 Z-0.4255
X-1.8121 Z-0.4592
X-1.8861 Z-0.4944
X-1.9595 Z-0.5309
X-2 Z-0.552
G3 X-2.0091 Z-0.5465 I-0.0029 K0.0055 F15
G19 G2 Y0.1312 Z-0.5402 J0.0063 K0
G1 Y0.1812 F20
G2 Y0.1875 Z-0.5465 J0 K-0.0063 F15
G18 G2 X-2 Z-0.552 I0.0062 K0
G1 X-1.9595 Z-0.5309 F20
X-1.8861 Z-0.4944
X-1.8121 Z-0.4592
X-1.7374 Z-0.4255
X-1.6621 Z-0.3932
X-1.5862 Z-0.3623
X-1.5097 Z-0.3329
X-1.4327 Z-0.305
X-1.3552 Z-0.2785
X-1.2772 Z-0.2535
X-1.1946 Z-0.2288
X-1.119 Z-0.2077
X-1.0396 Z-0.1872
X-0.9599 Z-0.1682
X-0.8799 Z-0.1507
X-0.7954 Z-0.134
X-0.714 Z-0.1195
X-0.6323 Z-0.1066
X-0.5579 Z-0.0963
X-0.4758 Z-0.0864
X-0.3928 Z-0.0779
X-0.385 Z-0.0775
G2 X-0.3826 Z-0.0768 I-0.0004 K0.0062
G3 X-0.3799 Z-0.0762 I0.0028 K-0.0056
G17 G3 X-0.3611 Y0.2062 I0 J0.0188
G1 Y0.2312
G3 X-0.3799 Y0.2499 I-0.0187 J0
G18 G2 X-0.3826 Z-0.0768 I0 K-0.0063
G3 X-0.385 Z-0.0775 I-0.0028 K0.0056
G1 X-0.3928 Z-0.0779
X-0.4758 Z-0.0864
X-0.5579 Z-0.0963
X-0.6323 Z-0.1066
X-0.714 Z-0.1195
X-0.7954 Z-0.134
X-0.8799 Z-0.1507
X-0.9599 Z-0.1682
X-1.0396 Z-0.1872
X-1.119 Z-0.2077
X-1.1946 Z-0.2288
X-1.2772 Z-0.2535
X-1.3552 Z-0.2785
X-1.4327 Z-0.305
X-1.5097 Z-0.3329
X-1.5862 Z-0.3623
X-1.6621 Z-0.3932
X-1.7374 Z-0.4255
X-1.8121 Z-0.4592
X-1.8861 Z-0.4944
X-1.9595 Z-0.5309
X-2 Z-0.552
G3 X-2.0091 Z-0.5465 I-0.0029 K0.0055 F15
G19 G2 Y0.2562 Z-0.5402 J0.0063 K0
G1 Y0.3062 F20
G2 Y0.3124 Z-0.5465 J0 K-0.0063 F15
G18 G2 X-2 Z-0.552 I0.0062 K0
G1 X-1.9595 Z-0.5309 F20
X-1.8861 Z-0.4944
X-1.8121 Z-0.4592
X-1.7374 Z-0.4255
X-1.6621 Z-0.3932
X-1.5862 Z-0.3623
X-1.5097 Z-0.3329
X-1.4327 Z-0.305
X-1.3552 Z-0.2785
X-1.2772 Z-0.2535
X-1.1946 Z-0.2288
X-1.119 Z-0.2077
X-1.0396 Z-0.1872
X-0.9599 Z-0.1682
X-0.8799 Z-0.1507
X-0.7954 Z-0.134
X-0.714 Z-0.1195
X-0.6323 Z-0.1066
X-0.5579 Z-0.0963
X-0.4758 Z-0.0864
X-0.3928 Z-0.0779
X-0.385 Z-0.0775
G2 X-0.3826 Z-0.0768 I-0.0004 K0.0062
G3 X-0.3799 Z-0.0762 I0.0028 K-0.0056
G17 G3 X-0.3611 Y0.3312 I0 J0.0187
G1 Y0.3562
G3 X-0.3799 Y0.3749 I-0.0187 J0
G18 G2 X-0.3826 Z-0.0768 I0 K-0.0063
G3 X-0.385 Z-0.0775 I-0.0028 K0.0056
G1 X-0.3928 Z-0.0779
X-0.4758 Z-0.0864
X-0.5579 Z-0.0963
X-0.6323 Z-0.1066
X-0.714 Z-0.1195
X-0.7954 Z-0.134
X-0.8799 Z-0.1507
X-0.9599 Z-0.1682
X-1.0396 Z-0.1872
X-1.119 Z-0.2077
X-1.1946 Z-0.2288
X-1.2772 Z-0.2535
X-1.3552 Z-0.2785
X-1.4327 Z-0.305
X-1.5097 Z-0.3329
X-1.5862 Z-0.3623
X-1.6621 Z-0.3932
X-1.7374 Z-0.4255
X-1.8121 Z-0.4592
X-1.8861 Z-0.4944
X-1.9595 Z-0.5309
X-2 Z-0.552
G3 X-2.0091 Z-0.5465 I-0.0029 K0.0055 F15
G1 Z-0.5458
Y0.3752 Z-0.5438
Y0.3761 Z-0.5421
X-2.009 Y0.3775 Z-0.5407
X-2.0089 Y0.3792 Z-0.5398
X-2.0088 Y0.3811 Z-0.5395
X-2.0065 Y0.4311 F20
X-2.0064 Y0.4331 Z-0.5398 F15
Y0.4348 Z-0.5407
X-2.0063 Y0.4362 Z-0.5421
Y0.4371 Z-0.5438
Y0.4374 Z-0.5458
G2 X-2 Z-0.552 I0.0063 K0
G1 X-1.9595 Z-0.5309 F20
X-1.8861 Z-0.4944
X-1.8121 Z-0.4592
X-1.7374 Z-0.4255
X-1.6621 Z-0.3932
X-1.5862 Z-0.3623
X-1.5097 Z-0.3329
X-1.4327 Z-0.305
X-1.3552 Z-0.2785
X-1.2772 Z-0.2535
X-1.1946 Z-0.2288
X-1.119 Z-0.2077
X-1.0396 Z-0.1872
X-0.9599 Z-0.1682
X-0.8799 Z-0.1507
X-0.7954 Z-0.134
X-0.714 Z-0.1195
X-0.6323 Z-0.1066
X-0.5579 Z-0.0963
X-0.4758 Z-0.0864
X-0.3928 Z-0.0779
X-0.385 Z-0.0775
G2 X-0.3826 Z-0.0768 I-0.0004 K0.0062
G3 X-0.3799 Z-0.0762 I0.0028 K-0.0056
G17 G3 X-0.3611 Y0.4561 I0 J0.0188
G1 Y0.4811
G3 X-0.3799 Y0.4999 I-0.0187 J0
G18 G2 X-0.3826 Z-0.0768 I0 K-0.0063
G3 X-0.385 Z-0.0775 I-0.0028 K0.0056
G1 X-0.3928 Z-0.0779
X-0.4758 Z-0.0864
X-0.5579 Z-0.0963
X-0.6323 Z-0.1066
X-0.714 Z-0.1195
X-0.7954 Z-0.134
X-0.8799 Z-0.1507
X-0.9599 Z-0.1682
X-1.0396 Z-0.1872
X-1.119 Z-0.2077
X-1.1946 Z-0.2288
X-1.2772 Z-0.2535
X-1.3552 Z-0.2785
X-1.4327 Z-0.305
X-1.5097 Z-0.3329
X-1.5862 Z-0.3623
X-1.6621 Z-0.3932
X-1.7374 Z-0.4255
X-1.8121 Z-0.4592
X-1.8861 Z-0.4944
X-1.9595 Z-0.5309
X-2 Z-0.552
G3 X-2.0091 Z-0.5465 I-0.0029 K0.0055 F15
G19 G2 Y0.5061 Z-0.5402 J0.0062 K0
G1 Y0.5561 F20
G2 Y0.5624 Z-0.5465 J0 K-0.0063 F15
G18 G2 X-2 Z-0.552 I0.0062 K0
G1 X-1.9595 Z-0.5309 F20
X-1.8861 Z-0.4944
X-1.8121 Z-0.4592
X-1.7374 Z-0.4255
X-1.6621 Z-0.3932
X-1.5862 Z-0.3623
X-1.5097 Z-0.3329
X-1.4327 Z-0.305
X-1.3552 Z-0.2785
X-1.2772 Z-0.2535
X-1.1946 Z-0.2288
X-1.119 Z-0.2077
X-1.0396 Z-0.1872
X-0.9599 Z-0.1682
X-0.8799 Z-0.1507
X-0.7954 Z-0.134
X-0.714 Z-0.1195
X-0.6323 Z-0.1066
X-0.5579 Z-0.0963
X-0.4758 Z-0.0864
X-0.3928 Z-0.0779
X-0.385 Z-0.0775
G2 X-0.3826 Z-0.0768 I-0.0004 K0.0062
G3 X-0.3799 Z-0.0762 I0.0028 K-0.0056
G17 G3 X-0.3611 Y0.5811 I0 J0.0187
G1 Y0.6061
G3 X-0.3799 Y0.6248 I-0.0187 J0
G18 G2 X-0.3826 Z-0.0768 I0 K-0.0063
G3 X-0.385 Z-0.0775 I-0.0028 K0.0056
G1 X-0.3928 Z-0.0779
X-0.4758 Z-0.0864
X-0.5579 Z-0.0963
X-0.6323 Z-0.1066
X-0.714 Z-0.1195
X-0.7954 Z-0.134
X-0.8799 Z-0.1507
X-0.9599 Z-0.1682
X-1.0396 Z-0.1872
X-1.119 Z-0.2077
X-1.1946 Z-0.2288
X-1.2772 Z-0.2535
X-1.3552 Z-0.2785
X-1.4327 Z-0.305
X-1.5097 Z-0.3329
X-1.5862 Z-0.3623
X-1.6621 Z-0.3932
X-1.7374 Z-0.4255
X-1.8121 Z-0.4592
X-1.8861 Z-0.4944
X-1.9595 Z-0.5309
X-2 Z-0.552
G3 X-2.0063 Z-0.5458 I0 K0.0063 F15
G1 Y0.6251 Z-0.5438
Y0.626 Z-0.5421
X-2.0064 Y0.6274 Z-0.5407
Y0.6292 Z-0.5398
X-2.0065 Y0.6311 Z-0.5395
X-2.0088 Y0.6811 F20
X-2.0089 Y0.683 Z-0.5398 F15
X-2.009 Y0.6848 Z-0.5407
X-2.0091 Y0.6861 Z-0.5421
Y0.687 Z-0.5438
Y0.6873 Z-0.5458
Z-0.5465
G2 X-2 Z-0.552 I0.0062 K0
G1 X-1.9595 Z-0.5309 F20
X-1.8861 Z-0.4944
X-1.8121 Z-0.4592
X-1.7374 Z-0.4255
X-1.6621 Z-0.3932
X-1.5862 Z-0.3623
X-1.5097 Z-0.3329
X-1.4327 Z-0.305
X-1.3552 Z-0.2785
X-1.2772 Z-0.2535
X-1.1946 Z-0.2288
X-1.119 Z-0.2077
X-1.0396 Z-0.1872
X-0.9599 Z-0.1682
X-0.8799 Z-0.1507
X-0.7954 Z-0.134
X-0.714 Z-0.1195
X-0.6323 Z-0.1066
X-0.5579 Z-0.0963
X-0.4758 Z-0.0864
X-0.3928 Z-0.0779
X-0.385 Z-0.0775
G2 X-0.3826 Z-0.0768 I-0.0004 K0.0062
G3 X-0.3799 Z-0.0762 I0.0028 K-0.0056
G17 G3 X-0.3611 Y0.7061 I0 J0.0187
G1 Y0.7311
G3 X-0.3799 Y0.7498 I-0.0187 J0
G18 G2 X-0.3826 Z-0.0768 I0 K-0.0063
G3 X-0.385 Z-0.0775 I-0.0028 K0.0056
G1 X-0.3928 Z-0.0779
X-0.4758 Z-0.0864
X-0.5579 Z-0.0963
X-0.6323 Z-0.1066
X-0.714 Z-0.1195
X-0.7954 Z-0.134
X-0.8799 Z-0.1507
X-0.9599 Z-0.1682
X-1.0396 Z-0.1872
X-1.119 Z-0.2077
X-1.1946 Z-0.2288
X-1.2772 Z-0.2535
X-1.3552 Z-0.2785
X-1.4327 Z-0.305
X-1.5097 Z-0.3329
X-1.5862 Z-0.3623
X-1.6621 Z-0.3932
X-1.7374 Z-0.4255
X-1.8121 Z-0.4592
X-1.8861 Z-0.4944
X-1.9595 Z-0.5309
X-2 Z-0.552
G3 X-2.0091 Z-0.5465 I-0.0029 K0.0055 F15
G19 G2 Y0.7561 Z-0.5402 J0.0062 K0
G1 Y0.806 F20
G2 Y0.8123 Z-0.5465 J0 K-0.0063 F15
G18 G2 X-2 Z-0.552 I0.0062 K0
G1 X-1.9595 Z-0.5309 F20
X-1.8861 Z-0.4944
X-1.8121 Z-0.4592
X-1.7374 Z-0.4255
X-1.6621 Z-0.3932
X-1.5862 Z-0.3623
X-1.5097 Z-0.3329
X-1.4327 Z-0.305
X-1.3552 Z-0.2785
X-1.2772 Z-0.2535
X-1.1946 Z-0.2288
X-1.119 Z-0.2077
X-1.0396 Z-0.1872
X-0.9599 Z-0.1682
X-0.8799 Z-0.1507
X-0.7954 Z-0.134
X-0.714 Z-0.1195
X-0.6323 Z-0.1066
X-0.5579 Z-0.0963
X-0.4758 Z-0.0864
X-0.3928 Z-0.0779
X-0.385 Z-0.0775
G2 X-0.3826 Z-0.0768 I-0.0004 K0.0062
G3 X-0.3799 Z-0.0762 I0.0028 K-0.0056
G17 G3 X-0.3611 Y0.831 I0 J0.0187
G1 Y0.856
G3 X-0.3799 Y0.8748 I-0.0187 J0
G18 G2 X-0.3826 Z-0.0768 I0 K-0.0063
G3 X-0.385 Z-0.0775 I-0.0028 K0.0056
G1 X-0.3928 Z-0.0779
X-0.4758 Z-0.0864
X-0.5579 Z-0.0963
X-0.6323 Z-0.1066
X-0.714 Z-0.1195
X-0.7954 Z-0.134
X-0.8799 Z-0.1507
X-0.9599 Z-0.1682
X-1.0396 Z-0.1872
X-1.119 Z-0.2077
X-1.1946 Z-0.2288
X-1.2772 Z-0.2535
X-1.3552 Z-0.2785
X-1.4327 Z-0.305
X-1.5097 Z-0.3329
X-1.5862 Z-0.3623
X-1.6621 Z-0.3932
X-1.7374 Z-0.4255
X-1.8121 Z-0.4592
X-1.8861 Z-0.4944
X-1.9595 Z-0.5309
X-2 Z-0.552
G3 X-2.0091 Z-0.5465 I-0.0029 K0.0055 F15
G19 G2 Y0.881 Z-0.5402 J0.0063 K0
G1 Y0.931 F20
G2 Y0.9373 Z-0.5465 J0 K-0.0063 F15
G18 G2 X-2 Z-0.552 I0.0062 K0
G1 X-1.9595 Z-0.5309 F20
X-1.8861 Z-0.4944
X-1.8121 Z-0.4592
X-1.7374 Z-0.4255
X-1.6621 Z-0.3932
X-1.5862 Z-0.3623
X-1.5097 Z-0.3329
X-1.4327 Z-0.305
X-1.3552 Z-0.2785
X-1.2772 Z-0.2535
X-1.1946 Z-0.2288
X-1.119 Z-0.2077
X-1.0396 Z-0.1872
X-0.9599 Z-0.1682
X-0.8799 Z-0.1507
X-0.7954 Z-0.134
X-0.714 Z-0.1195
X-0.6323 Z-0.1066
X-0.5579 Z-0.0963
X-0.4758 Z-0.0864
X-0.3928 Z-0.0779
X-0.385 Z-0.0775
G2 X-0.3826 Z-0.0768 I-0.0004 K0.0062
G3 X-0.3799 Z-0.0762 I0.0028 K-0.0056
G17 G3 X-0.3611 Y0.956 I0 J0.0187
G1 Y0.981
G3 X-0.3799 Y0.9997 I-0.0187 J0
G18 G2 X-0.3826 Z-0.0768 I0 K-0.0063
G3 X-0.385 Z-0.0775 I-0.0028 K0.0056
G1 X-0.3928 Z-0.0779
X-0.4758 Z-0.0864
X-0.5579 Z-0.0963
X-0.6323 Z-0.1066
X-0.714 Z-0.1195
X-0.7954 Z-0.134
X-0.8799 Z-0.1507
X-0.9599 Z-0.1682
X-1.0396 Z-0.1872
X-1.119 Z-0.2077
X-1.1946 Z-0.2288
X-1.2772 Z-0.2535
X-1.3552 Z-0.2785
X-1.4327 Z-0.305
X-1.5097 Z-0.3329
X-1.5862 Z-0.3623
X-1.6621 Z-0.3932
X-1.7374 Z-0.4255
X-1.8121 Z-0.4592
X-1.8861 Z-0.4944
X-1.9595 Z-0.5309
X-2 Z-0.552
G3 X-2.0091 Z-0.5465 I-0.0029 K0.0055 F15
G19 G2 Y1.006 Z-0.5402 J0.0063 K0
G1 Y1.056 F20
G2 Y1.0622 Z-0.5465 J0 K-0.0063 F15
G18 G2 X-2 Z-0.552 I0.0062 K0
G1 X-1.9595 Z-0.5309 F20
X-1.8861 Z-0.4944
X-1.8121 Z-0.4592
X-1.7374 Z-0.4255
X-1.6621 Z-0.3932
X-1.5862 Z-0.3623
X-1.5097 Z-0.3329
X-1.4327 Z-0.305
X-1.3552 Z-0.2785
X-1.2772 Z-0.2535
X-1.1946 Z-0.2288
X-1.119 Z-0.2077
X-1.0396 Z-0.1872
X-0.9599 Z-0.1682
X-0.8799 Z-0.1507
X-0.7954 Z-0.134
X-0.714 Z-0.1195
X-0.6323 Z-0.1066
X-0.5579 Z-0.0963
X-0.4758 Z-0.0864
X-0.3928 Z-0.0779
X-0.385 Z-0.0775
G2 X-0.3826 Z-0.0768 I-0.0004 K0.0062
G3 X-0.3799 Z-0.0762 I0.0028 K-0.0056
G17 G3 X-0.3611 Y1.081 I0 J0.0187
G1 Y1.106
G3 X-0.3799 Y1.1247 I-0.0187 J0
G18 G2 X-0.3826 Z-0.0768 I0 K-0.0063
G3 X-0.385 Z-0.0775 I-0.0028 K0.0056
G1 X-0.3928 Z-0.0779
X-0.4758 Z-0.0864
X-0.5579 Z-0.0963
X-0.6323 Z-0.1066
X-0.714 Z-0.1195
X-0.7954 Z-0.134
X-0.8799 Z-0.1507
X-0.9599 Z-0.1682
X-1.0396 Z-0.1872
X-1.119 Z-0.2077
X-1.1946 Z-0.2288
X-1.2772 Z-0.2535
X-1.3552 Z-0.2785
X-1.4327 Z-0.305
X-1.5097 Z-0.3329
X-1.5862 Z-0.3623
X-1.6621 Z-0.3932
X-1.7374 Z-0.4255
X-1.8121 Z-0.4592
X-1.8861 Z-0.4944
X-1.9595 Z-0.5309
X-2 Z-0.552
G3 X-2.0091 Z-0.5465 I-0.0029 K0.0055 F15
G19 G2 Y1.131 Z-0.5402 J0.0063 K0
G1 Y1.181 F20
G2 Y1.1872 Z-0.5465 J0 K-0.0063 F15
G18 G2 X-2 Z-0.552 I0.0062 K0
G1 X-1.9595 Z-0.5309 F20
X-1.8861 Z-0.4944
X-1.8121 Z-0.4592
X-1.7374 Z-0.4255
X-1.6621 Z-0.3932
X-1.5862 Z-0.3623
X-1.5097 Z-0.3329
X-1.4327 Z-0.305
X-1.3552 Z-0.2785
X-1.2772 Z-0.2535
X-1.1946 Z-0.2288
X-1.119 Z-0.2077
X-1.0396 Z-0.1872
X-0.9599 Z-0.1682
X-0.8799 Z-0.1507
X-0.7954 Z-0.134
X-0.714 Z-0.1195
X-0.6323 Z-0.1066
X-0.5579 Z-0.0963
X-0.4758 Z-0.0864
X-0.3928 Z-0.0779
X-0.385 Z-0.0775
G2 X-0.3826 Z-0.0768 I-0.0004 K0.0062
G3 X-0.3799 Z-0.0762 I0.0028 K-0.0056
G17 G3 X-0.3611 Y1.206 I0 J0.0187
G1 Y1.2309
G3 X-0.3799 Y1.2497 I-0.0187 J0
G18 G2 X-0.3826 Z-0.0768 I0 K-0.0063
G3 X-0.385 Z-0.0775 I-0.0028 K0.0056
G1 X-0.3928 Z-0.0779
X-0.4758 Z-0.0864
X-0.5579 Z-0.0963
X-0.6323 Z-0.1066
X-0.714 Z-0.1195
X-0.7954 Z-0.134
X-0.8799 Z-0.1507
X-0.9599 Z-0.1682
X-1.0396 Z-0.1872
X-1.119 Z-0.2077
X-1.1946 Z-0.2288
X-1.2772 Z-0.2535
X-1.3552 Z-0.2785
X-1.4327 Z-0.305
X-1.5097 Z-0.3329
X-1.5862 Z-0.3623
X-1.6621 Z-0.3932
X-1.7374 Z-0.4255
X-1.8121 Z-0.4592
X-1.8861 Z-0.4944
X-1.9595 Z-0.5309
X-2 Z-0.552
G3 X-2.0183 Z-0.5409 I-0.0058 K0.0111 F15
G0 Z0.6
G17
M9
G28 G91 Z0
G28 X0 Y0
M30
%
