%
(CurvedTopSP)
(T1  D=0.25 CR=0 - ZMIN=-0.81 - flat end mill)
G90
G17
G20
G28 G91 Z0
G90

(Adaptive1)
M9
T1 M6
S1800 M3
G54
M9
G0 X0.4923 Y0.6213
Z0.6
Z0.2
Z0.125
G1 Z0.1 F30
G3 X0.7289 Y0.6005 Z0.087 I0.1183 J-0.0104 F13.12
X0.4923 Y0.6213 Z0.0739 I-0.1183 J0.0104
X0.7289 Y0.6005 Z0.0609 I0.1183 J-0.0104
X0.4923 Y0.6213 Z0.0479 I-0.1183 J0.0104
X0.7289 Y0.6005 Z0.0349 I0.1183 J-0.0104
X0.4923 Y0.6213 Z0.0218 I-0.1183 J0.0104
X0.7289 Y0.6005 Z0.0088 I0.1183 J-0.0104
X0.4923 Y0.6213 Z-0.0042 I-0.1183 J0.0104
X0.7289 Y0.6005 Z-0.0172 I0.1183 J-0.0104
X0.4923 Y0.6213 Z-0.0303 I-0.1183 J0.0104
X0.7289 Y0.6005 Z-0.0433 I0.1183 J-0.0104
X0.4923 Y0.6213 Z-0.0563 I-0.1183 J0.0104
X0.7289 Y0.6005 Z-0.0694 I0.1183 J-0.0104
X0.4923 Y0.6213 Z-0.0824 I-0.1183 J0.0104
X0.7289 Y0.6005 Z-0.0954 I0.1183 J-0.0104
X0.4923 Y0.6213 Z-0.1084 I-0.1183 J0.0104
X0.7289 Y0.6005 Z-0.1215 I0.1183 J-0.0104
X0.4923 Y0.6213 Z-0.1345 I-0.1183 J0.0104
X0.7289 Y0.6005 Z-0.1475 I0.1183 J-0.0104
X0.4923 Y0.6213 Z-0.1606 I-0.1183 J0.0104
X0.7289 Y0.6005 Z-0.1736 I0.1183 J-0.0104
X0.4923 Y0.6213 Z-0.1866 I-0.1183 J0.0104
X0.6054 Y0.4923 Z-0.1933 I0.1183 J-0.0104
X0.7294 Y0.6109 Z-0.2 I0.0052 J0.1186
X0.4919 I-0.1188 J0
X0.7294 I0.1188 J0
G1 X0.7295 Y0.6206 F39.37
X0.7367 Y0.659
X0.7384 Y0.6647
X0.7395 Y0.6706
X0.7401 Y0.6766
Y0.6826
X0.7396 Y0.6891
X0.7386 Y0.696
X0.7368 Y0.7033
X0.7344 Y0.7108
X0.7311 Y0.7185
X0.7271 Y0.7263
X0.7222 Y0.7341
X0.7165 Y0.7419
X0.7098 Y0.7495
X0.7023 Y0.7569
X0.6939 Y0.7638
X0.6847 Y0.7703
X0.6747 Y0.7762
X0.6639 Y0.7814
X0.6525 Y0.7858
X0.6405 Y0.7894
X0.6279 Y0.7921
X0.6149 Y0.7938
X0.6016 Y0.7945
X0.5881 Y0.794
X0.5745 Y0.7925
X0.5608 Y0.7899
X0.5473 Y0.7861
X0.534 Y0.7812
X0.521 Y0.7752
X0.5084 Y0.7681
X0.4963 Y0.76
X0.4849 Y0.7509
X0.4742 Y0.7408
X0.4643 Y0.7299
X0.4552 Y0.7181
X0.4471 Y0.7056
X0.44 Y0.6925
X0.434 Y0.6788
X0.429 Y0.6646
X0.4253 Y0.6501
X0.4226 Y0.6352
X0.4212 Y0.6202
X0.421 Y0.6051
X0.422 Y0.59
X0.4243 Y0.575
X0.4277 Y0.5602
X0.4323 Y0.5457
X0.438 Y0.5316
X0.4449 Y0.5181
X0.4528 Y0.5051
X0.4618 Y0.4928
X0.4717 Y0.4812
X0.4825 Y0.4705
X0.4942 Y0.4607
X0.5066 Y0.4518
X0.5197 Y0.444
X0.5333 Y0.4372
X0.5475 Y0.4316
X0.5621 Y0.4271
X0.577 Y0.4238
X0.5921 Y0.4217
X0.6073 Y0.4208
X0.6226 Y0.4211
X0.6378 Y0.4227
X0.6528 Y0.4255
X0.6675 Y0.4295
X0.6819 Y0.4346
X0.6958 Y0.4409
X0.7092 Y0.4483
X0.7219 Y0.4567
X0.7339 Y0.4661
X0.7452 Y0.4765
X0.7555 Y0.4877
X0.7649 Y0.4998
X0.7733 Y0.5125
X0.7879 Y0.5389
X0.8003 Y0.5664
X0.8082 Y0.5885
X0.8135 Y0.6083
X0.817 Y0.6269
X0.8188 Y0.6448
X0.8192 Y0.6622
X0.8182 Y0.6791
X0.8159 Y0.6956
X0.8123 Y0.7117
X0.8074 Y0.7274
X0.8013 Y0.7427
X0.794 Y0.7575
X0.7854 Y0.7718
X0.7756 Y0.7855
X0.7647 Y0.7984
X0.7526 Y0.8106
X0.7394 Y0.8219
X0.7251 Y0.8323
X0.7099 Y0.8416
X0.6937 Y0.8497
X0.6767 Y0.8567
X0.659 Y0.8623
X0.6406 Y0.8665
X0.6218 Y0.8693
X0.6025 Y0.8706
X0.583 Y0.8703
X0.5634 Y0.8684
X0.5439 Y0.865
X0.5245 Y0.8599
X0.5055 Y0.8533
X0.4869 Y0.8451
X0.4689 Y0.8354
X0.4517 Y0.8241
X0.4353 Y0.8115
X0.4199 Y0.7975
X0.4057 Y0.7823
X0.3926 Y0.7659
X0.3808 Y0.7485
X0.3705 Y0.7301
X0.3616 Y0.7108
X0.3543 Y0.6909
X0.3486 Y0.6704
X0.3446 Y0.6494
X0.3422 Y0.6282
X0.3416 Y0.6068
X0.3427 Y0.5854
X0.3455 Y0.5641
X0.35 Y0.543
X0.3562 Y0.5224
X0.364 Y0.5024
X0.3734 Y0.483
X0.3844 Y0.4644
X0.3968 Y0.4467
X0.4106 Y0.4301
X0.4257 Y0.4147
X0.442 Y0.4005
X0.4593 Y0.3876
X0.4777 Y0.3762
X0.4969 Y0.3663
X0.5169 Y0.3579
X0.5375 Y0.3512
X0.5586 Y0.3462
X0.5799 Y0.3428
X0.6015 Y0.3412
X0.6232 Y0.3414
X0.6448 Y0.3432
X0.6661 Y0.3468
X0.6872 Y0.3521
X0.7077 Y0.3591
X0.7276 Y0.3677
X0.7467 Y0.3779
X0.765 Y0.3895
X0.7822 Y0.4026
X0.8006 Y0.419
X0.8189 Y0.4382
X0.836 Y0.4594
X0.8517 Y0.4823
X0.8655 Y0.5064
X0.877 Y0.5308
X0.8863 Y0.5555
X0.8934 Y0.5803
X0.8984 Y0.605
X0.9013 Y0.6296
X0.9022 Y0.654
X0.9012 Y0.6781
X0.8983 Y0.7019
X0.8935 Y0.7252
X0.8869 Y0.748
X0.8784 Y0.7701
X0.8683 Y0.7915
X0.8564 Y0.8121
X0.8429 Y0.8317
X0.8277 Y0.8502
X0.811 Y0.8676
X0.7929 Y0.8836
X0.7734 Y0.8983
X0.7526 Y0.9115
X0.7306 Y0.9231
X0.7075 Y0.9329
X0.6836 Y0.941
X0.6588 Y0.9471
X0.6335 Y0.9512
X0.6077 Y0.9534
X0.5817
X0.5556 Y0.9514
X0.5295 Y0.9472
X0.5037 Y0.9409
X0.4783 Y0.9325
X0.4535 Y0.9221
X0.4296 Y0.9096
X0.4066 Y0.8952
X0.3847 Y0.8789
X0.3641 Y0.8608
X0.3449 Y0.841
X0.3274 Y0.8197
X0.3115 Y0.7969
X0.2975 Y0.7729
X0.2854 Y0.7478
X0.2754 Y0.7217
X0.2674 Y0.6948
X0.2617 Y0.6674
X0.2581 Y0.6395
X0.2568 Y0.6113
X0.2578 Y0.5831
X0.261 Y0.5551
X0.2664 Y0.5273
X0.2741 Y0.5001
X0.284 Y0.4735
X0.2959 Y0.4478
X0.3099 Y0.4232
X0.3259 Y0.3997
X0.3437 Y0.3775
X0.3632 Y0.3569
X0.3843 Y0.3378
X0.4069 Y0.3206
X0.4308 Y0.3051
X0.4559 Y0.2917
X0.4819 Y0.2803
X0.5089 Y0.271
X0.5364 Y0.2639
X0.5645 Y0.2591
X0.5929 Y0.2565
X0.6213 Y0.2562
X0.6497 Y0.2582
X0.6779 Y0.2625
X0.7057 Y0.269
X0.7328 Y0.2777
X0.7591 Y0.2886
X0.7851 Y0.3019
X0.8109 Y0.3177
X0.836 Y0.3361
X0.8602 Y0.3571
X0.8832 Y0.3804
X0.9044 Y0.4057
X0.9235 Y0.4327
X0.9404 Y0.4611
X0.9549 Y0.4905
X0.9668 Y0.5208
X0.9687 Y0.527
X0.9701 Y0.5326
X0.971 Y0.5383
X0.9713 Y0.544
Y0.6905
X0.9695 Y0.7261
X0.9666 Y0.7483
X0.9616 Y0.7714
X0.9545 Y0.7953
X0.9449 Y0.8197
X0.9331 Y0.8442
X0.9189 Y0.8682
X0.9025 Y0.8916
X0.884 Y0.9139
X0.8634 Y0.935
X0.8409 Y0.9546
X0.8164 Y0.9728
X0.7902 Y0.9891
X0.7624 Y1.0034
X0.7332 Y1.0156
X0.7028 Y1.0256
X0.6715 Y1.0331
X0.6394 Y1.0381
X0.6067 Y1.0405
X0.5738 Y1.0403
X0.5408 Y1.0375
X0.5079 Y1.032
X0.4753 Y1.0238
X0.4434 Y1.0129
X0.4123 Y0.9995
X0.3823 Y0.9836
X0.3535 Y0.9652
X0.3261 Y0.9445
X0.3005 Y0.9215
X0.2766 Y0.8965
X0.263 Y0.8798
X0.2575 Y0.8716
X0.2534 Y0.8625
X0.2508 Y0.8529
X0.25 Y0.843
Y0.4428
X0.2507 Y0.4294
X0.2525 Y0.4158
X0.2555 Y0.4015
X0.2603 Y0.3854
X0.2669 Y0.3686
X0.2755 Y0.3509
X0.2868 Y0.3317
X0.2999 Y0.313
X0.3158 Y0.2938
X0.3348 Y0.2744
X0.3463 Y0.2644
X0.3547 Y0.2582
X0.3641 Y0.2537
X0.3742 Y0.2509
X0.3846 Y0.25
G3 X0.3941 Y0.2522 I-0.0009 J0.025 F30
X0.4047 Y0.2886 I-0.0104 J0.0227 F39.37
G1 X0.2959 Y0.4556
G3 X0.2522 Y0.4523 I-0.0209 J-0.0136
X0.25 Y0.4428 I0.0227 J-0.0104 F30
G1 Y0.3278 F39.37
X0.2506 Y0.3154
X0.252 Y0.3047
X0.2545 Y0.2933
X0.255 Y0.2916
X0.2598 Y0.2801
X0.2669 Y0.27
X0.276 Y0.2615
X0.2867 Y0.2552
X0.2985 Y0.2513
X0.3109 Y0.25
G3 X0.3204 Y0.2522 I-0.0009 J0.025 F30
X0.3307 Y0.289 I-0.0104 J0.0227 F39.37
G1 X0.2957 Y0.3409
G3 X0.2522 Y0.3373 I-0.0207 J-0.014
X0.25 Y0.3278 I0.0227 J-0.0104 F30
G1 Y0.2747 F39.37
X0.2502 Y0.2725
X0.2505 Y0.2703
X0.2511 Y0.2681
X0.2519 Y0.2659
X0.2529 Y0.2637
X0.2542 Y0.2616
X0.2558 Y0.2595
X0.2578 Y0.2573
X0.2581 Y0.257
X0.2602 Y0.2553
X0.2624 Y0.2539
X0.2666 Y0.2517
X0.2688 Y0.251
X0.271 Y0.2504
X0.2733 Y0.2501
X0.2755 Y0.25
X0.7802
X0.7933 Y0.2507
X0.8067 Y0.2524
X0.8224 Y0.2558
X0.8382 Y0.2605
X0.8567 Y0.2677
X0.8751 Y0.2767
X0.8954 Y0.2886
X0.9169 Y0.3037
X0.9376 Y0.3209
X0.9537 Y0.3366
X0.9611 Y0.3455
X0.9667 Y0.3557
X0.9701 Y0.3668
X0.9713 Y0.3783
G3 X0.969 Y0.3878 I-0.025 J-0.0009 F30
X0.9331 Y0.3987 I-0.0227 J-0.0104 F39.37
G1 X0.7679 Y0.2962
G3 X0.7707 Y0.2522 I0.0132 J-0.0212
X0.7802 Y0.25 I0.0104 J0.0227 F30
G1 X0.9041 F39.37
X0.9105 Y0.2503
X0.9216 Y0.2518
X0.9251 Y0.2525
X0.9376 Y0.2567
X0.9489 Y0.2636
X0.9583 Y0.2729
X0.9654 Y0.284
X0.9698 Y0.2965
X0.9713 Y0.3096
G3 X0.969 Y0.3191 I-0.025 J-0.0009 F30
X0.9305 Y0.3281 I-0.0227 J-0.0104 F39.37
G1 X0.8892 Y0.2943
G3 X0.8946 Y0.2522 I0.0158 J-0.0194
X0.9041 Y0.25 I0.0104 J0.0227 F30
G1 X0.9396 F39.37
X0.9484 Y0.2502
X0.9506 Y0.2505
X0.9528 Y0.2511
X0.955 Y0.2518
X0.9573 Y0.2529
X0.9602 Y0.2547
X0.9632 Y0.257
X0.9648 Y0.2586
X0.9661 Y0.2602
X0.968 Y0.2631
X0.9694 Y0.2659
X0.9702 Y0.2681
X0.9707 Y0.2703
X0.9711 Y0.2725
X0.9713 Y0.2747
Y0.544
G3 X0.9705 Y0.5492 I-0.025 J-0.0009 F30
G1 X0.9694 Y0.5536
X0.945 Y0.6525 F39.37
G2 X0.9648 Y0.6831 I0.0243 J0.006
G3 X0.9656 Y0.6833 I-0.0014 J0.0077
X0.9713 Y0.6905 I-0.0022 J0.0075 F30
G1 Y0.8586 F39.37
X0.9707 Y0.8698
X0.9691 Y0.8818
X0.9662 Y0.8956
X0.9618 Y0.9103
X0.9555 Y0.9265
X0.9474 Y0.9431
X0.9365 Y0.9616
X0.9239 Y0.9796
X0.908 Y0.9987
X0.8888 Y1.0184
X0.8676 Y1.0369
X0.8433 Y1.0549
X0.8158 Y1.072
X0.7855 Y1.0876
X0.7528 Y1.1013
X0.718 Y1.1126
X0.6816 Y1.1214
X0.644 Y1.1273
X0.6055 Y1.1301
X0.5665 Y1.1299
X0.5276 Y1.1266
X0.4892 Y1.1202
X0.4513 Y1.1108
X0.4143 Y1.0985
X0.3784 Y1.0834
X0.3437 Y1.0656
X0.3105 Y1.0452
X0.2789 Y1.0223
X0.2707 Y1.0155
X0.262 Y1.0063
X0.2554 Y0.9955
X0.2514 Y0.9835
X0.25 Y0.9709
Y0.843
G3 X0.2522 Y0.8335 I0.025 J0.0009 F30
X0.2756 Y0.8189 I0.0227 J0.0104 F39.37
G1 X0.9469 Y0.8345
G3 X0.969 Y0.8491 I-0.0006 J0.025
X0.9713 Y0.8586 I-0.0227 J0.0104 F30
G1 Y0.9696 F39.37
X0.9708 Y0.9796
X0.9694 Y0.99
X0.967 Y1.0014
X0.9631 Y1.0142
X0.958 Y1.0273
X0.9508 Y1.0423
X0.942 Y1.0572
X0.9303 Y1.0738
X0.9164 Y1.0905
X0.8996 Y1.1078
X0.8788 Y1.1259
X0.856 Y1.1428
X0.8291 Y1.1595
X0.7981 Y1.1755
X0.7635 Y1.19
X0.7267 Y1.202
X0.6888 Y1.2111
X0.6502 Y1.2172
X0.6114 Y1.2204
X0.5724 Y1.2209
X0.5335 Y1.2187
X0.4948 Y1.2139
X0.4565 Y1.2065
X0.4188 Y1.1965
X0.3819 Y1.184
X0.3458 Y1.1691
X0.3108 Y1.1519
X0.2811 Y1.1349
X0.2754 Y1.131
X0.2667 Y1.1237
X0.2596 Y1.1149
X0.2543 Y1.1049
X0.2511 Y1.0941
X0.25 Y1.0828
Y0.9709
G3 X0.2522 Y0.9614 I0.025 J0.0009 F30
X0.2749 Y0.9468 I0.0227 J0.0104 F39.37
G1 X0.9462 Y0.9455
G3 X0.969 Y0.9601 I0 J0.025
X0.9713 Y0.9696 I-0.0227 J0.0104 F30
G1 Y1.0709 F39.37
X0.9709 Y1.0791
X0.9696 Y1.0886
X0.9672 Y1.0997
X0.9639 Y1.1109
X0.9588 Y1.124
X0.9525 Y1.137
X0.9437 Y1.1519
X0.9334 Y1.1666
X0.9196 Y1.1832
X0.9042 Y1.199
X0.8842 Y1.2164
X0.8616 Y1.2332
X0.8354 Y1.2495
X0.8045 Y1.2654
X0.7697 Y1.28
X0.7326 Y1.2921
X0.6947 Y1.3012
X0.6563 Y1.3076
X0.6175 Y1.3113
X0.5785 Y1.3125
X0.5395 Y1.3112
X0.5007 Y1.3076
X0.4621 Y1.3018
X0.424 Y1.2937
X0.3864 Y1.2833
X0.3495 Y1.2707
X0.3134 Y1.256
X0.2875 Y1.2433
X0.2785 Y1.238
X0.2689 Y1.2308
X0.2609 Y1.2218
X0.2549 Y1.2113
X0.2512 Y1.1998
X0.25 Y1.1878
Y1.0828
G3 X0.2522 Y1.0733 I0.025 J0.0009 F30
X0.2745 Y1.0587 I0.0227 J0.0104 F39.37
G1 X0.9458 Y1.0468
G3 X0.969 Y1.0614 I0.0004 J0.025
X0.9713 Y1.0709 I-0.0227 J0.0104 F30
G1 Y1.1682 F39.37
X0.971 Y1.1742
X0.9697 Y1.1838
X0.9675 Y1.1941
X0.9642 Y1.2053
X0.9593 Y1.2178
X0.9531 Y1.2305
X0.9446 Y1.245
X0.9346 Y1.2592
X0.9212 Y1.2753
X0.906 Y1.2908
X0.8868 Y1.3076
X0.8642 Y1.3243
X0.8386 Y1.3403
X0.808 Y1.356
X0.773 Y1.3706
X0.736 Y1.3827
X0.6981 Y1.392
X0.6597 Y1.3986
X0.6209 Y1.4027
X0.582 Y1.4044
X0.543 Y1.4039
X0.5041 Y1.4012
X0.4654 Y1.3964
X0.427 Y1.3896
X0.389 Y1.3808
X0.3515 Y1.3701
X0.3157 Y1.3575
X0.2918 Y1.3469
X0.2805 Y1.3407
X0.2702 Y1.3336
X0.2617 Y1.3245
X0.2553 Y1.3137
X0.2513 Y1.3019
X0.25 Y1.2894
Y1.1878
G3 X0.2522 Y1.1784 I0.025 J0.0009 F30
X0.2743 Y1.1637 I0.0227 J0.0104 F39.37
G1 X0.9455 Y1.1441
G3 X0.969 Y1.1587 I0.0007 J0.025
X0.9713 Y1.1682 I-0.0227 J0.0104 F30
G1 Y1.2567 F39.37
X0.9707 Y1.2679
X0.9695 Y1.2774
X0.9673 Y1.2873
X0.964 Y1.2984
X0.9593 Y1.3105
X0.9531 Y1.3232
X0.9449 Y1.3372
X0.9349 Y1.3514
X0.922 Y1.367
X0.9068 Y1.3825
X0.8881 Y1.3989
X0.8655 Y1.4156
X0.8402 Y1.4314
X0.8096 Y1.4471
X0.7743 Y1.4619
X0.7372 Y1.474
X0.6994 Y1.4834
X0.661 Y1.4902
X0.6223 Y1.4946
X0.5833 Y1.4968
X0.5443
X0.5054 Y1.4948
X0.4666 Y1.4909
X0.4281 Y1.485
X0.3898 Y1.4774
X0.352 Y1.4679
X0.3177 Y1.4569
X0.295 Y1.4475
X0.2819 Y1.4409
X0.2712 Y1.4338
X0.2623 Y1.4246
X0.2556 Y1.4137
X0.2514 Y1.4016
X0.25 Y1.3889
Y1.2894
G3 X0.2522 Y1.28 I0.025 J0.0009 F30
X0.2738 Y1.2654 I0.0227 J0.0104 F39.37
G1 X0.9451 Y1.2326
G3 X0.969 Y1.2472 I0.0012 J0.025
X0.9713 Y1.2567 I-0.0227 J0.0104 F30
G1 Y1.354 F39.37
X0.971 Y1.3601
X0.9697 Y1.3696
X0.9676 Y1.3793
X0.9643 Y1.3905
X0.9596 Y1.4024
X0.9535 Y1.4151
X0.9453 Y1.429
X0.9354 Y1.4431
X0.9226 Y1.4586
X0.9074 Y1.4741
X0.8888 Y1.4904
X0.8661 Y1.5071
X0.8408 Y1.5229
X0.8101 Y1.5387
X0.7743 Y1.5537
X0.7372 Y1.5658
X0.6994 Y1.5752
X0.661 Y1.5822
X0.6223 Y1.5869
X0.5834 Y1.5894
X0.5444 Y1.5899
X0.5054 Y1.5885
X0.4666 Y1.5852
X0.4279 Y1.5802
X0.3895 Y1.5734
X0.3515 Y1.5646
X0.3187 Y1.5547
X0.2968 Y1.5461
X0.2828 Y1.5393
X0.2718 Y1.5323
X0.2626 Y1.5231
X0.2557 Y1.5121
X0.2515 Y1.4998
X0.25 Y1.4869
Y1.3889
G3 X0.2522 Y1.3794 I0.025 J0.0009 F30
X0.2737 Y1.3648 I0.0227 J0.0104 F39.37
G1 X0.945 Y1.3299
G3 X0.969 Y1.3445 I0.0013 J0.025
X0.9713 Y1.354 I-0.0227 J0.0104 F30
G1 Y1.4425 F39.37
X0.9708 Y1.4523
X0.9695 Y1.4617
X0.9675 Y1.4714
X0.9641 Y1.4825
X0.9595 Y1.4944
X0.9534 Y1.5071
X0.9453 Y1.5208
X0.9353 Y1.535
X0.9226 Y1.5503
X0.9074 Y1.5659
X0.8888 Y1.5821
X0.8661 Y1.5989
X0.8407 Y1.6147
X0.8097 Y1.6307
X0.7738 Y1.6457
X0.7367 Y1.6579
X0.6989 Y1.6674
X0.6606 Y1.6745
X0.6219 Y1.6795
X0.583 Y1.6824
X0.544 Y1.6833
X0.505 Y1.6823
X0.4661 Y1.6797
X0.4274 Y1.6752
X0.3889 Y1.669
X0.3508 Y1.6608
X0.3194 Y1.6517
X0.2979 Y1.6435
X0.2834 Y1.6367
X0.2722 Y1.6298
X0.2629 Y1.6205
X0.2558 Y1.6094
X0.2515 Y1.597
X0.25 Y1.584
Y1.4869
G3 X0.2522 Y1.4774 I0.025 J0.0009 F30
X0.2733 Y1.4628 I0.0227 J0.0104 F39.37
G1 X0.9446 Y1.4184
G3 X0.969 Y1.433 I0.0016 J0.0249
X0.9713 Y1.4425 I-0.0227 J0.0104 F30
G1 Y1.5358 F39.37
X0.9709 Y1.544
X0.9696 Y1.5535
X0.9675 Y1.5631
X0.9642 Y1.5743
X0.9596 Y1.5861
X0.9534 Y1.5988
X0.9453 Y1.6126
X0.9354 Y1.6267
X0.9226 Y1.6422
X0.9074 Y1.6577
X0.8887 Y1.6741
X0.866 Y1.6909
X0.8403 Y1.7068
X0.809 Y1.723
X0.773 Y1.738
X0.736 Y1.7502
X0.6982 Y1.7599
X0.6599 Y1.7672
X0.6212 Y1.7724
X0.5824 Y1.7755
X0.5434 Y1.7768
X0.5044 Y1.7763
X0.4655 Y1.7741
X0.4267 Y1.7702
X0.3881 Y1.7644
X0.35 Y1.7565
X0.3195 Y1.7479
X0.2983 Y1.7401
X0.2798 Y1.7315
X0.2796 Y1.7313
X0.2696 Y1.7242
X0.2613 Y1.7151
X0.2551 Y1.7045
X0.2513 Y1.6928
X0.25 Y1.6806
Y1.584
G3 X0.2522 Y1.5745 I0.025 J0.0009 F30
X0.2732 Y1.5599 I0.0227 J0.0104 F39.37
G1 X0.9445 Y1.5118
G3 X0.969 Y1.5263 I0.0018 J0.0249
X0.9713 Y1.5358 I-0.0227 J0.0104 F30
G1 Y1.6283 F39.37
X0.9709 Y1.6358
X0.9696 Y1.6453
X0.9676 Y1.655
X0.9642 Y1.6661
X0.9596 Y1.678
X0.9534 Y1.6907
X0.9453 Y1.7045
X0.9354 Y1.7187
X0.9225 Y1.7342
X0.9073 Y1.7497
X0.8884 Y1.7662
X0.8656 Y1.7831
X0.8396 Y1.7992
X0.808 Y1.8156
X0.772 Y1.8306
X0.735 Y1.8429
X0.6972 Y1.8526
X0.659 Y1.8601
X0.6203 Y1.8655
X0.5815 Y1.869
X0.5425 Y1.8706
X0.5036 Y1.8704
X0.4646 Y1.8686
X0.4258 Y1.865
X0.3872 Y1.8595
X0.3489 Y1.8519
X0.32 Y1.8439
X0.2984 Y1.836
X0.2801 Y1.8276
X0.2799 Y1.8275
X0.2698 Y1.8204
X0.2614 Y1.8113
X0.2552 Y1.8006
X0.2513 Y1.7889
X0.25 Y1.7766
Y1.6806
G3 X0.2522 Y1.6711 I0.025 J0.0009 F30
X0.273 Y1.6565 I0.0227 J0.0104 F39.37
G1 X0.9443 Y1.6042
G3 X0.969 Y1.6188 I0.0019 J0.0249
X0.9713 Y1.6283 I-0.0227 J0.0104 F30
G1 Y1.7167 F39.37
X0.9707 Y1.7279
X0.9695 Y1.7374
X0.9674 Y1.7471
X0.9641 Y1.7582
X0.9594 Y1.7701
X0.9533 Y1.7828
X0.9451 Y1.7967
X0.9351 Y1.8109
X0.9221 Y1.8265
X0.907 Y1.842
X0.888 Y1.8586
X0.865 Y1.8756
X0.8388 Y1.8919
X0.8067 Y1.9085
X0.7708 Y1.9235
X0.7338 Y1.9358
X0.696 Y1.9456
X0.6578 Y1.9532
X0.6192 Y1.9588
X0.5804 Y1.9625
X0.5415 Y1.9644
X0.5025 Y1.9646
X0.4635 Y1.963
X0.4247 Y1.9597
X0.386 Y1.9544
X0.3478 Y1.9469
X0.3195 Y1.9392
X0.2984 Y1.9316
X0.28 Y1.9232
X0.2699 Y1.9161
X0.2615 Y1.907
X0.2552 Y1.8963
X0.2513 Y1.8845
X0.25 Y1.8722
Y1.7766
G3 X0.2522 Y1.7671 I0.025 J0.0009 F30
X0.2728 Y1.7526 I0.0227 J0.0104 F39.37
G1 X0.9441 Y1.6927
G3 X0.969 Y1.7073 I0.0022 J0.0249
X0.9713 Y1.7167 I-0.0227 J0.0104 F30
G1 Y1.8141 F39.37
X0.971 Y1.8201
X0.9697 Y1.8296
X0.9675 Y1.8394
X0.9641 Y1.8506
X0.9594 Y1.8627
X0.9531 Y1.8755
X0.9448 Y1.8895
X0.9347 Y1.9038
X0.9215 Y1.9195
X0.9061 Y1.9352
X0.8868 Y1.9519
X0.8634 Y1.9691
X0.8367 Y1.9856
X0.804 Y2.0023
X0.768 Y2.0172
X0.7309 Y2.0294
X0.6932 Y2.0392
X0.655 Y2.0469
X0.6164 Y2.0526
X0.5776 Y2.0564
X0.5387 Y2.0584
X0.4997 Y2.0588
X0.4607 Y2.0573
X0.4218 Y2.0541
X0.3832 Y2.049
X0.3449 Y2.0415
X0.3177 Y2.034
X0.2973 Y2.0265
X0.284 Y2.0204
X0.2744 Y2.0149
X0.2661 Y2.0076
X0.2592 Y1.9989
X0.2542 Y1.9891
X0.2511 Y1.9784
X0.25 Y1.9674
Y1.8722
G3 X0.2522 Y1.8627 I0.025 J0.0009 F30
X0.2728 Y1.8482 I0.0227 J0.0104 F39.37
G1 X0.9441 Y1.79
G3 X0.969 Y1.8046 I0.0022 J0.0249
X0.9713 Y1.8141 I-0.0227 J0.0104 F30
G1 Y1.9025 F39.37
X0.9708 Y1.9122
X0.9695 Y1.9216
X0.9674 Y1.9315
X0.9641 Y1.9426
X0.9594 Y1.9548
X0.9533 Y1.9674
X0.9449 Y1.9816
X0.935 Y1.9957
X0.9217 Y2.0117
X0.9066 Y2.0271
X0.8871 Y2.0441
X0.8643 Y2.0611
X0.8372 Y2.0779
X0.8043 Y2.0949
X0.7684 Y2.1099
X0.7314 Y2.1223
X0.6937 Y2.1323
X0.6555 Y2.1402
X0.617 Y2.1461
X0.5782 Y2.1502
X0.5393 Y2.1524
X0.5003 Y2.153
X0.4613 Y2.1518
X0.4224 Y2.1488
X0.3838 Y2.1439
X0.3455 Y2.1366
X0.3177 Y2.129
X0.2967 Y2.1213
X0.2841 Y2.1156
X0.2745 Y2.11
X0.2661 Y2.1027
X0.2593 Y2.094
X0.2542 Y2.0842
X0.2511 Y2.0735
X0.25 Y2.0625
Y1.9674
G3 X0.2522 Y1.9579 I0.025 J0.0009 F30
X0.2726 Y1.9434 I0.0227 J0.0104 F39.37
G1 X0.9439 Y1.8785
G3 X0.969 Y1.893 I0.0024 J0.0249
X0.9713 Y1.9025 I-0.0227 J0.0104 F30
G1 Y1.9959 F39.37
X0.9708 Y2.0046
X0.9696 Y2.0141
X0.9675 Y2.024
X0.9641 Y2.0351
X0.9594 Y2.0473
X0.9532 Y2.06
X0.9449 Y2.0742
X0.9349 Y2.0884
X0.9215 Y2.1045
X0.9063 Y2.1201
X0.8868 Y2.1371
X0.8636 Y2.1543
X0.8364 Y2.1712
X0.8032 Y2.1883
X0.7672 Y2.2034
X0.7302 Y2.2158
X0.6926 Y2.2259
X0.6544 Y2.2339
X0.6159 Y2.2399
X0.5771 Y2.2441
X0.5382 Y2.2465
X0.4992 Y2.2472
X0.4602 Y2.2462
X0.4214 Y2.2433
X0.3827 Y2.2384
X0.3447 Y2.2312
X0.3173 Y2.2237
X0.2964 Y2.2161
X0.2841 Y2.2105
X0.2745 Y2.2049
X0.2661 Y2.1977
X0.2593 Y2.1889
X0.2542 Y2.1791
X0.2511 Y2.1685
X0.25 Y2.1574
Y2.0625
G3 X0.2522 Y2.053 I0.025 J0.0009 F30
X0.2725 Y2.0385 I0.0227 J0.0104 F39.37
G1 X0.9438 Y1.9719
G3 X0.969 Y1.9864 I0.0025 J0.0249
X0.9713 Y1.9959 I-0.0227 J0.0104 F30
G1 Y2.0883 F39.37
X0.9708 Y2.0973
X0.9696 Y2.1068
X0.9674 Y2.1167
X0.9641 Y2.1278
X0.9593 Y2.1401
X0.9532 Y2.1528
X0.9447 Y2.1671
X0.9348 Y2.1813
X0.9213 Y2.1976
X0.9061 Y2.2132
X0.8864 Y2.2304
X0.8631 Y2.2476
X0.8356 Y2.2647
X0.8021 Y2.282
X0.7661 Y2.297
X0.7291 Y2.3095
X0.6915 Y2.3196
X0.6533 Y2.3277
X0.6148 Y2.3338
X0.5761 Y2.3381
X0.5372 Y2.3407
X0.4982 Y2.3415
X0.4592 Y2.3405
X0.4203 Y2.3377
X0.3816 Y2.3329
X0.3442 Y2.3258
X0.3171 Y2.3184
X0.2963 Y2.3108
X0.2841 Y2.3053
X0.2745 Y2.2997
X0.2661 Y2.2924
X0.2593 Y2.2837
X0.2542 Y2.2739
X0.2511 Y2.2632
X0.25 Y2.2522
Y2.1574
G3 X0.2522 Y2.1479 I0.025 J0.0009 F30
X0.2724 Y2.1334 I0.0227 J0.0104 F39.37
G1 X0.9437 Y2.0643
G3 X0.969 Y2.0788 I0.0026 J0.0249
X0.9713 Y2.0883 I-0.0227 J0.0104 F30
G1 Y2.1816 F39.37
X0.9708 Y2.1901
X0.9696 Y2.1997
X0.9675 Y2.2096
X0.9641 Y2.2208
X0.9593 Y2.2331
X0.9532 Y2.2458
X0.9447 Y2.2602
X0.9347 Y2.2745
X0.9211 Y2.2908
X0.9058 Y2.3065
X0.886 Y2.3237
X0.8626 Y2.3411
X0.8349 Y2.3583
X0.8011 Y2.3757
X0.7651 Y2.3908
X0.7282 Y2.4032
X0.6906 Y2.4134
X0.6524 Y2.4215
X0.6139 Y2.4277
X0.5752 Y2.4322
X0.5363 Y2.4348
X0.4973 Y2.4357
X0.4583 Y2.4348
X0.4194 Y2.4321
X0.3807 Y2.4273
X0.3438 Y2.4203
X0.3169 Y2.4129
X0.2961 Y2.4054
X0.2841 Y2.3999
X0.2745 Y2.3944
X0.2661 Y2.3871
X0.2593 Y2.3784
X0.2542 Y2.3685
X0.2511 Y2.3579
X0.25 Y2.3469
Y2.2522
G3 X0.2522 Y2.2427 I0.025 J0.0009 F30
X0.2724 Y2.2282 I0.0227 J0.0104 F39.37
G1 X0.9437 Y2.1577
G3 X0.969 Y2.1722 I0.0026 J0.0249
X0.9713 Y2.1816 I-0.0227 J0.0104 F30
G1 Y2.2741 F39.37
X0.9708 Y2.2832
X0.9696 Y2.2928
X0.9674 Y2.3028
X0.9641 Y2.3139
X0.9593 Y2.3263
X0.9531 Y2.339
X0.9445 Y2.3535
X0.9345 Y2.3678
X0.9209 Y2.3842
X0.9056 Y2.3999
X0.8857 Y2.4173
X0.8622 Y2.4346
X0.8343 Y2.452
X0.8003 Y2.4696
X0.7643 Y2.4846
X0.7274 Y2.4971
X0.6897 Y2.5073
X0.6516 Y2.5155
X0.6131 Y2.5218
X0.5744 Y2.5262
X0.5355 Y2.529
X0.4965 Y2.5299
X0.4575 Y2.5291
X0.4186 Y2.5264
X0.3799 Y2.5217
X0.3434 Y2.5147
X0.3167 Y2.5074
X0.296 Y2.4999
X0.2841 Y2.4945
X0.2745 Y2.489
X0.2661 Y2.4817
X0.2593 Y2.473
X0.2542 Y2.4631
X0.2511 Y2.4525
X0.25 Y2.4414
Y2.3469
G3 X0.2522 Y2.3374 I0.025 J0.0009 F30
X0.2723 Y2.3229 I0.0227 J0.0104 F39.37
G1 X0.9436 Y2.2501
G3 X0.969 Y2.2646 I0.0027 J0.0249
X0.9713 Y2.2741 I-0.0227 J0.0104 F30
G1 Y2.3674 F39.37
X0.9708 Y2.3765
X0.9696 Y2.386
X0.9674 Y2.3961
X0.9641 Y2.4072
X0.9592 Y2.4197
X0.9531 Y2.4324
X0.9445 Y2.447
X0.9345 Y2.4612
X0.9207 Y2.4777
X0.9054 Y2.4935
X0.8854 Y2.5109
X0.8619 Y2.5283
X0.8338 Y2.5458
X0.7995 Y2.5635
X0.7635 Y2.5785
X0.7266 Y2.591
X0.689 Y2.6013
X0.6509 Y2.6095
X0.6124 Y2.6158
X0.5737 Y2.6204
X0.5348 Y2.6232
X0.4958 Y2.6242
X0.4568 Y2.6234
X0.4179 Y2.6207
X0.3792 Y2.616
X0.343 Y2.6091
X0.3165 Y2.6019
X0.2958 Y2.5944
X0.2841 Y2.589
X0.2745 Y2.5835
X0.2661 Y2.5762
X0.2593 Y2.5675
X0.2542 Y2.5576
X0.2511 Y2.547
X0.25 Y2.5359
Y2.4414
G3 X0.2522 Y2.4319 I0.025 J0.0009 F30
X0.2722 Y2.4175 I0.0227 J0.0104 F39.37
G1 X0.9435 Y2.3435
G3 X0.969 Y2.3579 I0.0027 J0.0248
X0.9713 Y2.3674 I-0.0227 J0.0104 F30
G1 Y2.4599 F39.37
X0.9708 Y2.4699
X0.9695 Y2.4794
X0.9673 Y2.4896
X0.964 Y2.5007
X0.9591 Y2.5132
X0.953 Y2.5259
X0.9444 Y2.5405
X0.9343 Y2.5548
X0.9206 Y2.5714
X0.9052 Y2.5871
X0.8851 Y2.6047
X0.8615 Y2.6221
X0.8333 Y2.6397
X0.7989 Y2.6575
X0.7629 Y2.6725
X0.726 Y2.685
X0.6883 Y2.6953
X0.6502 Y2.7036
X0.6118 Y2.7099
X0.5731 Y2.7145
X0.5342 Y2.7173
X0.4952 Y2.7184
X0.4562 Y2.7177
X0.4173 Y2.715
X0.3786 Y2.7103
X0.3427 Y2.7035
X0.3163 Y2.6962
X0.2957 Y2.6887
X0.2841 Y2.6834
X0.2745 Y2.6779
X0.2661 Y2.6706
X0.2593 Y2.6619
X0.2542 Y2.6521
X0.2511 Y2.6414
X0.25 Y2.6304
Y2.5359
G3 X0.2522 Y2.5264 I0.025 J0.0009 F30
X0.2722 Y2.512 I0.0227 J0.0104 F39.37
G1 X0.9435 Y2.4359
G3 X0.969 Y2.4504 I0.0028 J0.0248
X0.9713 Y2.4599 I-0.0227 J0.0104 F30
G1 Y2.5572 F39.37
X0.971 Y2.5632
X0.9697 Y2.5728
X0.9675 Y2.583
X0.9642 Y2.5941
X0.9593 Y2.6067
X0.9531 Y2.6194
X0.9445 Y2.6341
X0.9344 Y2.6484
X0.9206 Y2.665
X0.9052 Y2.6809
X0.8849 Y2.6985
X0.8614 Y2.7159
X0.833 Y2.7336
X0.8138 Y2.7435
X0.8053 Y2.7471
X0.7963 Y2.7493
X0.787 Y2.75
G3 X0.7776 Y2.7478 I0.0009 J-0.025 F30
X0.7698 Y2.7078 I0.0104 J-0.0227 F39.37
G1 X0.9281 Y2.5409
G3 X0.969 Y2.5477 I0.0181 J0.0172
X0.9713 Y2.5572 I-0.0227 J0.0104 F30
G1 Y2.6457 F39.37
X0.9707 Y2.6572
X0.9694 Y2.6667
X0.9673 Y2.6769
X0.9639 Y2.688
X0.959 Y2.7006
X0.9529 Y2.7133
X0.9482 Y2.7213
X0.941 Y2.731
X0.9319 Y2.739
X0.9214 Y2.745
X0.9099 Y2.7487
X0.8979 Y2.75
G3 X0.8884 Y2.7478 I0.0009 J-0.025 F30
X0.8774 Y2.7121 I0.0104 J-0.0227 F39.37
G1 X0.9249 Y2.6336
G3 X0.969 Y2.6362 I0.0214 J0.0129
X0.9713 Y2.6457 I-0.0227 J0.0104 F30
G1 Y2.7253 F39.37
X0.9711 Y2.7275
X0.9707 Y2.7297
X0.9702 Y2.7319
X0.9694 Y2.7341
X0.968 Y2.7369
X0.9661 Y2.7398
X0.9648 Y2.7414
X0.9632 Y2.743
X0.9602 Y2.7453
X0.9573 Y2.7471
X0.955 Y2.7482
X0.9528 Y2.7489
X0.9506 Y2.7495
X0.9484 Y2.7498
X0.9396 Y2.75
X0.3109
X0.3018 Y2.7495
X0.3008 Y2.7494
X0.2891 Y2.7466
X0.2782 Y2.7415
X0.2687 Y2.7343
X0.2608 Y2.7253
X0.2549 Y2.7149
X0.2512 Y2.7035
X0.25 Y2.6916
G3 X0.2522 Y2.6821 I0.025 J0.0009 F30
X0.292 Y2.6741 I0.0227 J0.0104 F39.37
G1 X0.327 Y2.7067
G3 X0.3204 Y2.7478 I-0.017 J0.0183
X0.3109 Y2.75 I-0.0104 J-0.0227 F30
G1 X0.2755 F39.37
X0.2733 Y2.7499
X0.271 Y2.7496
X0.2688 Y2.749
X0.2666 Y2.7483
X0.2624 Y2.7461
X0.2602 Y2.7447
X0.2581 Y2.743
X0.2578 Y2.7427
X0.2558 Y2.7405
X0.2542 Y2.7384
X0.2529 Y2.7363
X0.2519 Y2.7341
X0.2511 Y2.7319
X0.2505 Y2.7297
X0.2502 Y2.7275
X0.25 Y2.7253
Y2.6304
X0.2505 Y2.6283 Z-0.1997 F30
X0.2509 Y2.6262 Z-0.199
X0.2513 Y2.6244 Z-0.1979
X0.2516 Y2.6229 Z-0.1963
X0.2518 Y2.6218 Z-0.1945
X0.2521 Y2.6211 Z-0.1924
X0.2522 Y2.6209 Z-0.1902
G0 Z0.2
X2.1267 Y2.5234
Z0.125
G1 Z0.1 F30
G3 X2.3633 Y2.5026 Z0.087 I0.1183 J-0.0104 F13.12
X2.1267 Y2.5234 Z0.0739 I-0.1183 J0.0104
X2.3633 Y2.5026 Z0.0609 I0.1183 J-0.0104
X2.1267 Y2.5234 Z0.0479 I-0.1183 J0.0104
X2.3633 Y2.5026 Z0.0349 I0.1183 J-0.0104
X2.1267 Y2.5234 Z0.0218 I-0.1183 J0.0104
X2.3633 Y2.5026 Z0.0088 I0.1183 J-0.0104
X2.1267 Y2.5234 Z-0.0042 I-0.1183 J0.0104
X2.3633 Y2.5026 Z-0.0172 I0.1183 J-0.0104
X2.1267 Y2.5234 Z-0.0303 I-0.1183 J0.0104
X2.3633 Y2.5026 Z-0.0433 I0.1183 J-0.0104
X2.1267 Y2.5234 Z-0.0563 I-0.1183 J0.0104
X2.3633 Y2.5026 Z-0.0694 I0.1183 J-0.0104
X2.1267 Y2.5234 Z-0.0824 I-0.1183 J0.0104
X2.3633 Y2.5026 Z-0.0954 I0.1183 J-0.0104
X2.1267 Y2.5234 Z-0.1084 I-0.1183 J0.0104
X2.3633 Y2.5026 Z-0.1215 I0.1183 J-0.0104
X2.1267 Y2.5234 Z-0.1345 I-0.1183 J0.0104
X2.3633 Y2.5026 Z-0.1475 I0.1183 J-0.0104
X2.1267 Y2.5234 Z-0.1606 I-0.1183 J0.0104
X2.3633 Y2.5026 Z-0.1736 I0.1183 J-0.0104
X2.1267 Y2.5234 Z-0.1866 I-0.1183 J0.0104
X2.2398 Y2.3943 Z-0.1933 I0.1183 J-0.0104
X2.3637 Y2.513 Z-0.2 I0.0052 J0.1186
X2.1262 I-0.1188 J0
X2.3637 I0.1188 J0
G1 X2.3639 Y2.5227 F39.37
X2.371 Y2.561
X2.3728 Y2.5668
X2.3739 Y2.5727
X2.3745 Y2.5787
Y2.5847
X2.374 Y2.5912
X2.3729 Y2.5981
X2.3712 Y2.6053
X2.3687 Y2.6129
X2.3655 Y2.6206
X2.3615 Y2.6284
X2.3566 Y2.6362
X2.3508 Y2.644
X2.3442 Y2.6516
X2.3367 Y2.6589
X2.3283 Y2.6659
X2.3191 Y2.6723
X2.309 Y2.6782
X2.2983 Y2.6835
X2.2869 Y2.6879
X2.2748 Y2.6915
X2.2623 Y2.6942
X2.2493 Y2.6959
X2.236 Y2.6965
X2.2225 Y2.6961
X2.2088 Y2.6946
X2.1952 Y2.692
X2.1817 Y2.6882
X2.1683 Y2.6833
X2.1553 Y2.6773
X2.1428 Y2.6702
X2.1307 Y2.6621
X2.1193 Y2.653
X2.1086 Y2.6429
X2.0986 Y2.632
X2.0896 Y2.6202
X2.0815 Y2.6077
X2.0744 Y2.5946
X2.0683 Y2.5809
X2.0634 Y2.5667
X2.0596 Y2.5521
X2.057 Y2.5373
X2.0556 Y2.5223
X2.0554 Y2.5071
X2.0564 Y2.492
X2.0586 Y2.477
X2.062 Y2.4623
X2.0666 Y2.4478
X2.0724 Y2.4337
X2.0793 Y2.4201
X2.0872 Y2.4072
X2.0962 Y2.3949
X2.1061 Y2.3833
X2.1169 Y2.3726
X2.1286 Y2.3628
X2.141 Y2.3539
X2.154 Y2.3461
X2.1677 Y2.3393
X2.1819 Y2.3337
X2.1965 Y2.3292
X2.2114 Y2.3259
X2.2265 Y2.3238
X2.2417 Y2.3229
X2.257 Y2.3232
X2.2722 Y2.3248
X2.2872 Y2.3276
X2.3019 Y2.3315
X2.3163 Y2.3367
X2.3302 Y2.343
X2.3436 Y2.3504
X2.3563 Y2.3588
X2.3683 Y2.3682
X2.3795 Y2.3786
X2.3899 Y2.3898
X2.3993 Y2.4018
X2.4077 Y2.4146
X2.4223 Y2.441
X2.4347 Y2.4685
X2.4426 Y2.4906
X2.4479 Y2.5104
X2.4513 Y2.529
X2.4532 Y2.5469
X2.4535 Y2.5643
X2.4525 Y2.5812
X2.4502 Y2.5976
X2.4467 Y2.6137
X2.4418 Y2.6295
X2.4357 Y2.6447
X2.4283 Y2.6596
X2.4198 Y2.6739
X2.41 Y2.6875
X2.399 Y2.7005
X2.3869 Y2.7127
X2.3738 Y2.724
X2.3595 Y2.7343
X2.3441 Y2.7437
X2.3357 Y2.7472
X2.3268 Y2.7493
X2.3178 Y2.75
X2.1969
X2.1749 Y2.7489
X2.1606 Y2.747
X2.1461 Y2.7439
X2.1315 Y2.7395
X2.1165 Y2.7337
X2.1013 Y2.7264
X2.0863 Y2.7175
X2.0717 Y2.7072
X2.0577 Y2.6956
X2.0443 Y2.6826
X2.0319 Y2.6683
X2.0204 Y2.6527
X2.0188 Y2.6502
X2.014 Y2.6406
X2.011 Y2.6302
X2.01 Y2.6194
G3 X2.0122 Y2.6099 I0.025 J0.0009 F30
X2.0486 Y2.5993 I0.0227 J0.0104 F39.37
G1 X2.2096 Y2.7041
G3 X2.2064 Y2.7478 I-0.0136 J0.021
X2.1969 Y2.75 I-0.0104 J-0.0227 F30
G1 X2.0818 F39.37
X2.0691 Y2.7494
X2.0597 Y2.7481
X2.0561 Y2.7474
X2.0436 Y2.7432
X2.0324 Y2.7363
X2.023 Y2.727
X2.0159 Y2.7159
X2.0115 Y2.7034
X2.01 Y2.6903
G3 X2.0122 Y2.6808 I0.025 J0.0009 F30
X2.0498 Y2.6711 I0.0227 J0.0104 F39.37
G1 X2.0957 Y2.7049
G3 X2.0913 Y2.7478 I-0.0148 J0.0201
X2.0818 Y2.75 I-0.0104 J-0.0227 F30
G1 X2.0375 F39.37
X2.0331 Y2.7499
X2.0309 Y2.7495
X2.0286 Y2.749
X2.0264 Y2.7482
X2.0242 Y2.7472
X2.022 Y2.7459
X2.0198 Y2.7444
X2.0181 Y2.743
X2.016 Y2.7408
X2.0143 Y2.7386
X2.013 Y2.7363
X2.0119 Y2.7341
X2.0109 Y2.7313
X2.0103 Y2.7283
X2.01 Y2.7253
Y2.451
X2.0107 Y2.4376
X2.0124 Y2.4242
X2.0153 Y2.4107
X2.0196 Y2.3965
X2.0252 Y2.3819
X2.0324 Y2.3672
X2.0409 Y2.3528
X2.0508 Y2.3387
X2.0622 Y2.325
X2.0751 Y2.3117
X2.0894 Y2.2993
X2.1049 Y2.2878
X2.1217 Y2.2773
X2.1394 Y2.2682
X2.1581 Y2.2604
X2.1775 Y2.254
X2.1975 Y2.2492
X2.2181 Y2.246
X2.2389 Y2.2445
X2.26 Y2.2446
X2.281 Y2.2464
X2.302 Y2.2499
X2.3226 Y2.2551
X2.3429 Y2.262
X2.3625 Y2.2705
X2.3815 Y2.2805
X2.3996 Y2.2921
X2.4168 Y2.3051
X2.4351 Y2.3214
X2.4533 Y2.3406
X2.467 Y2.3574
X2.4725 Y2.3656
X2.4766 Y2.3747
X2.4792 Y2.3843
X2.48 Y2.3942
Y2.6545
X2.4796 Y2.6632
X2.4781 Y2.6745
X2.4755 Y2.6865
X2.4716 Y2.6995
X2.4666 Y2.7125
X2.4643 Y2.7171
X2.4573 Y2.7281
X2.4481 Y2.7373
X2.4371 Y2.7443
X2.4248 Y2.7485
X2.4118 Y2.75
G3 X2.4023 Y2.7478 I0.0009 J-0.025 F30
X2.3913 Y2.712 I0.0104 J-0.0227 F39.37
G1 X2.4337 Y2.6424
G3 X2.4778 Y2.645 I0.0214 J0.013
X2.48 Y2.6545 I-0.0227 J0.0104 F30
G1 Y2.7253 F39.37
X2.4798 Y2.7275
X2.4795 Y2.7297
X2.4789 Y2.7319
X2.4781 Y2.7341
X2.477 Y2.7363
X2.4757 Y2.7386
X2.474 Y2.7408
X2.472 Y2.743
X2.4714 Y2.7435
X2.4691 Y2.7453
X2.4669 Y2.7467
X2.4647 Y2.7479
X2.4625 Y2.7487
X2.4603 Y2.7493
X2.4581 Y2.7498
X2.4537 Y2.75
X2.3178
G3 X2.3083 Y2.7478 I0.0009 J-0.025 F30
X2.3013 Y2.743 I0.0104 J-0.0227 F39.37
G1 X2.0176 Y2.4681
G3 X2.0122 Y2.4605 I0.0174 J-0.018
X2.01 Y2.451 I0.0227 J-0.0104 F30
G1 Y2.3449 F39.37
X2.0105 Y2.3346
X2.0117 Y2.3254
X2.0137 Y2.316
X2.0169 Y2.3053
X2.0211 Y2.2945
X2.0267 Y2.2829
X2.0339 Y2.2708
X2.0423 Y2.2589
X2.0527 Y2.2463
X2.0648 Y2.234
X2.0782 Y2.2222
X2.0938 Y2.2107
X2.1114 Y2.1998
X2.1305 Y2.1899
X2.1509 Y2.1814
X2.1727 Y2.1742
X2.196 Y2.1687
X2.2204 Y2.1648
X2.2457 Y2.1629
X2.2717 Y2.1631
X2.2979 Y2.1654
X2.3243 Y2.1698
X2.3506 Y2.1764
X2.3764 Y2.1852
X2.402 Y2.1962
X2.4272 Y2.2096
X2.4519 Y2.2254
X2.4569 Y2.2291
X2.4648 Y2.2364
X2.4713 Y2.245
X2.4761 Y2.2546
X2.479 Y2.2649
X2.48 Y2.2756
Y2.3942
G3 X2.4778 Y2.4037 I-0.025 J-0.0009 F30
X2.4521 Y2.4181 I-0.0227 J-0.0104 F39.37
G1 X2.0321 Y2.3688
G3 X2.0122 Y2.3544 I0.0029 J-0.0248
X2.01 Y2.3449 I0.0227 J-0.0104 F30
G1 Y2.2564 F39.37
X2.0104 Y2.2482
X2.0115 Y2.2403
X2.0134 Y2.2311
X2.0162 Y2.2218
X2.0203 Y2.2113
X2.0254 Y2.2007
X2.0322 Y2.1892
X2.0403 Y2.1777
X2.0501 Y2.1658
X2.0621 Y2.1535
X2.0754 Y2.1419
X2.0912 Y2.1303
X2.1093 Y2.119
X2.1288 Y2.1089
X2.1506 Y2.0998
X2.1748 Y2.0919
X2.201 Y2.0856
X2.2287 Y2.0813
X2.2572 Y2.0792
X2.287 Y2.0793
X2.3177 Y2.082
X2.3492 Y2.0873
X2.381 Y2.0953
X2.4128 Y2.1061
X2.437 Y2.1165
X2.449 Y2.1229
X2.4594 Y2.13
X2.4681 Y2.1391
X2.4746 Y2.1499
X2.4786 Y2.1619
X2.48 Y2.1744
Y2.2756
G3 X2.4778 Y2.2851 I-0.025 J-0.0009 F30
X2.4539 Y2.2997 I-0.0227 J-0.0104 F39.37
G1 X2.0338 Y2.2805
G3 X2.0122 Y2.2659 I0.0011 J-0.025
X2.01 Y2.2564 I0.0227 J-0.0104 F30
G1 Y2.1768 F39.37
X2.0106 Y2.1657
X2.0116 Y2.1578
X2.0135 Y2.1489
X2.0162 Y2.1397
X2.0203 Y2.1294
X2.0253 Y2.1189
X2.032 Y2.1076
X2.0401 Y2.0961
X2.05 Y2.0842
X2.062 Y2.0718
X2.0755 Y2.0601
X2.092 Y2.0479
X2.1104 Y2.0364
X2.1309 Y2.0258
X2.1545 Y2.016
X2.1808 Y2.0074
X2.2083 Y2.0008
X2.2382 Y1.9961
X2.2705 Y1.9937
X2.3047 Y1.9939
X2.3405 Y1.997
X2.3753 Y2.0028
X2.4047 Y2.0103
X2.4274 Y2.0179
X2.446 Y2.026
X2.449 Y2.0276
X2.4594 Y2.0347
X2.4681 Y2.0438
X2.4746 Y2.0546
X2.4786 Y2.0666
X2.48 Y2.0791
Y2.1744
G3 X2.4778 Y2.1839 I-0.025 J-0.0009 F30
X2.4552 Y2.1986 I-0.0227 J-0.0104 F39.37
G1 X2.0351 Y2.2009
G3 X2.0122 Y2.1863 I-0.0001 J-0.025
X2.01 Y2.1768 I0.0227 J-0.0104 F30
G1 Y2.0923 F39.37
X2.0104 Y2.084
X2.0114 Y2.0761
X2.0134 Y2.0671
X2.0161 Y2.0579
X2.0202 Y2.0474
X2.0253 Y2.037
X2.0321 Y2.0254
X2.0402 Y2.0138
X2.0505 Y2.0015
X2.0626 Y1.9891
X2.0768 Y1.9767
X2.094 Y1.964
X2.1126 Y1.9524
X2.1344 Y1.9411
X2.1598 Y1.9305
X2.1866 Y1.9217
X2.2166 Y1.9146
X2.2501 Y1.9093
X2.286 Y1.9066
X2.3224 Y1.9069
X2.3574 Y1.9099
X2.3893 Y1.9152
X2.4134 Y1.9213
X2.4321 Y1.9277
X2.4448 Y1.9331
X2.4547 Y1.9386
X2.4633 Y1.9458
X2.4704 Y1.9546
X2.4757 Y1.9646
X2.4789 Y1.9754
X2.48 Y1.9867
Y2.0791
G3 X2.4778 Y2.0886 I-0.025 J-0.0009 F30
X2.4558 Y2.1032 I-0.0227 J-0.0104 F39.37
G1 X2.0358 Y2.1164
G3 X2.0122 Y2.1018 I-0.0008 J-0.025
X2.01 Y2.0923 I0.0227 J-0.0104 F30
G1 Y2.0087 F39.37
X2.0104 Y2.0016
X2.0114 Y1.9937
X2.0134 Y1.9845
X2.0161 Y1.9752
X2.0203 Y1.9646
X2.0254 Y1.954
X2.0324 Y1.942
X2.0406 Y1.9304
X2.0514 Y1.9175
X2.0635 Y1.905
X2.0784 Y1.8921
X2.0958 Y1.8792
X2.1153 Y1.867
X2.1389 Y1.8549
X2.1648 Y1.844
X2.1936 Y1.8346
X2.2262 Y1.8268
X2.2615 Y1.8213
X2.2981 Y1.8185
X2.3337 Y1.8188
X2.3668 Y1.8216
X2.3952 Y1.8264
X2.4165 Y1.8317
X2.4352 Y1.8381
X2.4448 Y1.8422
X2.4547 Y1.8477
X2.4633 Y1.8549
X2.4704 Y1.8637
X2.4757 Y1.8737
X2.4789 Y1.8845
X2.48 Y1.8958
Y1.9867
G3 X2.4778 Y1.9962 I-0.025 J-0.0009 F30
X2.4563 Y2.0108 I-0.0227 J-0.0104 F39.37
G1 X2.0363 Y2.0328
G3 X2.0122 Y2.0182 I-0.0013 J-0.025
X2.01 Y2.0087 I0.0227 J-0.0104 F30
G1 Y1.9291 F39.37
X2.0106 Y1.918
X2.0116 Y1.9101
X2.0136 Y1.9008
X2.0164 Y1.8914
X2.0206 Y1.8806
X2.0258 Y1.8698
X2.033 Y1.8577
X2.0414 Y1.8457
X2.0524 Y1.8324
X2.0647 Y1.8198
X2.0804 Y1.8061
X2.0979 Y1.7932
X2.1187 Y1.7802
X2.1435 Y1.7675
X2.1698 Y1.7565
X2.2003 Y1.7465
X2.234 Y1.7384
X2.2698 Y1.7328
X2.3058 Y1.7301
X2.3401 Y1.7303
X2.3722 Y1.7331
X2.3984 Y1.7375
X2.4185 Y1.7426
X2.4364 Y1.7486
X2.4448 Y1.7523
X2.4547 Y1.7577
X2.4633 Y1.765
X2.4704 Y1.7738
X2.4757 Y1.7838
X2.4789 Y1.7946
X2.48 Y1.8058
Y1.8958
G3 X2.4778 Y1.9053 I-0.025 J-0.0009 F30
X2.457 Y1.9198 I-0.0227 J-0.0104 F39.37
G1 X2.037 Y1.9531
G3 X2.0122 Y1.9386 I-0.002 J-0.0249
X2.01 Y1.9291 I0.0227 J-0.0104 F30
G1 Y1.8406 F39.37
X2.0103 Y1.8339
X2.0114 Y1.8258
X2.0134 Y1.8164
X2.0163 Y1.8068
X2.0205 Y1.7959
X2.026 Y1.7847
X2.0331 Y1.7726
X2.042 Y1.76
X2.053 Y1.7466
X2.0659 Y1.7335
X2.0821 Y1.7193
X2.0998 Y1.7062
X2.1217 Y1.6926
X2.1467 Y1.6797
X2.174 Y1.6683
X2.2053 Y1.6581
X2.2394 Y1.6499
X2.2752 Y1.6443
X2.3106 Y1.6417
X2.3442 Y1.6418
X2.3752 Y1.6445
X2.4002 Y1.6487
X2.4198 Y1.6537
X2.4371 Y1.6596
X2.4448 Y1.6628
X2.4547 Y1.6683
X2.4633 Y1.6756
X2.4704 Y1.6844
X2.4757 Y1.6943
X2.4789 Y1.7052
X2.48 Y1.7164
Y1.8058
G3 X2.4778 Y1.8153 I-0.025 J-0.0009 F30
X2.4571 Y1.8299 I-0.0227 J-0.0104 F39.37
G1 X2.037 Y1.8646
G3 X2.0122 Y1.8501 I-0.0021 J-0.0249
X2.01 Y1.8406 I0.0227 J-0.0104 F30
G1 Y1.7561 F39.37
X2.0104 Y1.7484
X2.0115 Y1.7402
X2.0135 Y1.7308
X2.0164 Y1.7209
X2.0207 Y1.7101
X2.0263 Y1.6984
X2.0335 Y1.6863
X2.0426 Y1.6733
X2.0537 Y1.66
X2.067 Y1.6463
X2.0833 Y1.6321
X2.1015 Y1.6186
X2.1241 Y1.6046
X2.1491 Y1.5916
X2.1771 Y1.5799
X2.2088 Y1.5696
X2.2431 Y1.5614
X2.2786 Y1.5558
X2.3136 Y1.5532
X2.3467 Y1.5534
X2.3769 Y1.556
X2.4013 Y1.5601
X2.4206 Y1.565
X2.4376 Y1.5707
X2.4448 Y1.5738
X2.4547 Y1.5793
X2.4633 Y1.5865
X2.4704 Y1.5953
X2.4757 Y1.6053
X2.4789 Y1.6161
X2.48 Y1.6274
Y1.7164
G3 X2.4778 Y1.7259 I-0.025 J-0.0009 F30
X2.4574 Y1.7404 I-0.0227 J-0.0104 F39.37
G1 X2.0373 Y1.7801
G3 X2.0122 Y1.7656 I-0.0024 J-0.0249
X2.01 Y1.7561 I0.0227 J-0.0104 F30
G1 Y1.6725 F39.37
X2.0105 Y1.6621
X2.0116 Y1.6537
X2.0136 Y1.6443
X2.0167 Y1.6342
X2.0209 Y1.6234
X2.0267 Y1.6114
X2.0338 Y1.5993
X2.0432 Y1.586
X2.0542 Y1.5727
X2.0678 Y1.5587
X2.0842 Y1.5444
X2.1029 Y1.5306
X2.1258 Y1.5163
X2.1508 Y1.5034
X2.1792 Y1.4916
X2.2112 Y1.4811
X2.2455 Y1.4729
X2.2809 Y1.4674
X2.3156 Y1.4648
X2.3484 Y1.465
X2.378 Y1.4675
X2.402 Y1.4715
X2.4211 Y1.4764
X2.4379 Y1.4821
X2.4448 Y1.485
X2.4547 Y1.4905
X2.4633 Y1.4977
X2.4704 Y1.5065
X2.4757 Y1.5165
X2.4789 Y1.5273
X2.48 Y1.5386
Y1.6274
G3 X2.4778 Y1.6369 I-0.025 J-0.0009 F30
X2.4577 Y1.6514 I-0.0227 J-0.0104 F39.37
G1 X2.0377 Y1.6965
G3 X2.0122 Y1.682 I-0.0027 J-0.0249
X2.01 Y1.6725 I0.0227 J-0.0104 F30
G1 Y1.584 F39.37
X2.0104 Y1.5753
X2.0116 Y1.5668
X2.0136 Y1.5574
X2.0167 Y1.5471
X2.0209 Y1.5362
X2.0268 Y1.5241
X2.034 Y1.5119
X2.0434 Y1.4984
X2.0545 Y1.4851
X2.0684 Y1.4708
X2.0847 Y1.4566
X2.1037 Y1.4425
X2.1269 Y1.4281
X2.152 Y1.4151
X2.1806 Y1.4032
X2.2127 Y1.3927
X2.2471 Y1.3845
X2.2823 Y1.379
X2.3168 Y1.3764
X2.3495 Y1.3766
X2.3786 Y1.3791
X2.4024 Y1.3831
X2.4215 Y1.3879
X2.4381 Y1.3935
X2.4448 Y1.3964
X2.4547 Y1.4019
X2.4633 Y1.4091
X2.4704 Y1.4179
X2.4757 Y1.4279
X2.4789 Y1.4387
X2.48 Y1.45
Y1.5386
G3 X2.4778 Y1.5481 I-0.025 J-0.0009 F30
X2.4577 Y1.5626 I-0.0227 J-0.0104 F39.37
G1 X2.0377 Y1.608
G3 X2.0122 Y1.5935 I-0.0027 J-0.0249
X2.01 Y1.584 I0.0227 J-0.0104 F30
G1 Y1.4956 F39.37
X2.0104 Y1.488
X2.0115 Y1.4794
X2.0135 Y1.47
X2.0167 Y1.4595
X2.0209 Y1.4487
X2.0268 Y1.4364
X2.034 Y1.4242
X2.0436 Y1.4105
X2.0547 Y1.3972
X2.0687 Y1.3828
X2.0851 Y1.3685
X2.1043 Y1.3543
X2.1276 Y1.3398
X2.1527 Y1.3268
X2.1815 Y1.3148
X2.2137 Y1.3043
X2.2481 Y1.2961
X2.2832 Y1.2906
X2.3176 Y1.288
X2.3501 Y1.2882
X2.3791 Y1.2907
X2.4027 Y1.2946
X2.4217 Y1.2994
X2.4383 Y1.305
X2.4448 Y1.3079
X2.4547 Y1.3133
X2.4633 Y1.3206
X2.4704 Y1.3294
X2.4757 Y1.3394
X2.4789 Y1.3502
X2.48 Y1.3614
Y1.45
G3 X2.4778 Y1.4595 I-0.025 J-0.0009 F30
X2.4577 Y1.4739 I-0.0227 J-0.0104 F39.37
G1 X2.0377 Y1.5196
G3 X2.0122 Y1.5051 I-0.0027 J-0.0249
X2.01 Y1.4956 I0.0227 J-0.0104 F30
G1 Y1.4071 F39.37
X2.0103 Y1.4003
X2.0115 Y1.3916
X2.0135 Y1.3822
X2.0166 Y1.3717
X2.0209 Y1.3608
X2.0269 Y1.3485
X2.0341 Y1.3362
X2.0437 Y1.3225
X2.0548 Y1.3091
X2.0689 Y1.2947
X2.0853 Y1.2804
X2.1046 Y1.2661
X2.1281 Y1.2515
X2.1532 Y1.2385
X2.1821 Y1.2264
X2.2143 Y1.2159
X2.2487 Y1.2077
X2.2838 Y1.2022
X2.3181 Y1.1996
X2.3506 Y1.1998
X2.3793 Y1.2023
X2.4029 Y1.2062
X2.4218 Y1.211
X2.4383 Y1.2166
X2.4448 Y1.2194
X2.4547 Y1.2249
X2.4633 Y1.2321
X2.4704 Y1.2409
X2.4757 Y1.2509
X2.4789 Y1.2617
X2.48 Y1.273
Y1.3614
G3 X2.4778 Y1.3709 I-0.025 J-0.0009 F30
X2.4577 Y1.3854 I-0.0227 J-0.0104 F39.37
G1 X2.0377 Y1.4311
G3 X2.0122 Y1.4166 I-0.0027 J-0.0249
X2.01 Y1.4071 I0.0227 J-0.0104 F30
G1 Y1.3186 F39.37
X2.0103 Y1.3123
X2.0115 Y1.3037
X2.0135 Y1.2942
X2.0166 Y1.2836
X2.0209 Y1.2728
X2.0269 Y1.2604
X2.0341 Y1.2481
X2.0438 Y1.2344
X2.0549 Y1.221
X2.0691 Y1.2064
X2.0854 Y1.1922
X2.1049 Y1.1778
X2.1283 Y1.1632
X2.1535 Y1.1502
X2.1825 Y1.1381
X2.2148 Y1.1275
X2.2491 Y1.1193
X2.2842 Y1.1138
X2.3185 Y1.1113
X2.3509 Y1.1114
X2.3795 Y1.1139
X2.403 Y1.1179
X2.4219 Y1.1226
X2.4384 Y1.1282
X2.4448 Y1.131
X2.4547 Y1.1364
X2.4633 Y1.1437
X2.4704 Y1.1525
X2.4757 Y1.1625
X2.4789 Y1.1733
X2.48 Y1.1845
Y1.273
G3 X2.4778 Y1.2825 I-0.025 J-0.0009 F30
X2.4577 Y1.2969 I-0.0227 J-0.0104 F39.37
G1 X2.0377 Y1.3426
G3 X2.0122 Y1.3281 I-0.0027 J-0.0249
X2.01 Y1.3186 I0.0227 J-0.0104 F30
G1 Y1.2302 F39.37
X2.0103 Y1.2242
X2.0114 Y1.2155
X2.0135 Y1.2061
X2.0167 Y1.1954
X2.0209 Y1.1846
X2.027 Y1.1721
X2.0342 Y1.1598
X2.0439 Y1.146
X2.055 Y1.1326
X2.0693 Y1.118
X2.0857 Y1.1038
X2.1052 Y1.0894
X2.1287 Y1.0747
X2.154 Y1.0617
X2.183 Y1.0496
X2.2153 Y1.0391
X2.2497 Y1.0309
X2.2848 Y1.0254
X2.319 Y1.0229
X2.3513 Y1.0231
X2.3798 Y1.0256
X2.4033 Y1.0295
X2.4221 Y1.0343
X2.4386 Y1.0399
X2.4448 Y1.0426
X2.4547 Y1.0481
X2.4633 Y1.0553
X2.4704 Y1.0641
X2.4757 Y1.0741
X2.4789 Y1.0849
X2.48 Y1.0961
Y1.1845
G3 X2.4778 Y1.194 I-0.025 J-0.0009 F30
X2.4577 Y1.2085 I-0.0227 J-0.0104 F39.37
G1 X2.0377 Y1.2542
G3 X2.0122 Y1.2397 I-0.0027 J-0.0249
X2.01 Y1.2302 I0.0227 J-0.0104 F30
G1 Y1.1417 F39.37
X2.0103 Y1.1357
X2.0115 Y1.127
X2.0135 Y1.1175
X2.0168 Y1.1068
X2.0211 Y1.0959
X2.0272 Y1.0834
X2.0345 Y1.0711
X2.0443 Y1.0573
X2.0555 Y1.0439
X2.0699 Y1.0293
X2.0864 Y1.0149
X2.106 Y1.0005
X2.1297 Y0.9859
X2.1551 Y0.9729
X2.1843 Y0.9609
X2.2166 Y0.9504
X2.2511 Y0.9423
X2.2861 Y0.9369
X2.3203 Y0.9345
X2.3526 Y0.9348
X2.3808 Y0.9373
X2.4041 Y0.9413
X2.4229 Y0.9462
X2.4391 Y0.9517
X2.445 Y0.9543
X2.4548 Y0.9598
X2.4634 Y0.967
X2.4705 Y0.9758
X2.4757 Y0.9858
X2.4789 Y0.9966
X2.48 Y1.0078
Y1.0961
G3 X2.4778 Y1.1056 I-0.025 J-0.0009 F30
X2.4577 Y1.1201 I-0.0227 J-0.0104 F39.37
G1 X2.0377 Y1.1657
G3 X2.0122 Y1.1512 I-0.0027 J-0.0249
X2.01 Y1.1417 I0.0227 J-0.0104 F30
G1 Y1.0532 F39.37
X2.0103 Y1.0472
X2.0115 Y1.0384
X2.0136 Y1.029
X2.0169 Y1.0182
X2.0212 Y1.0073
X2.0274 Y0.9948
X2.0347 Y0.9825
X2.0446 Y0.9686
X2.0559 Y0.9551
X2.0704 Y0.9405
X2.087 Y0.9262
X2.1067 Y0.9117
X2.1305 Y0.8971
X2.156 Y0.8842
X2.1853 Y0.8722
X2.2178 Y0.8618
X2.2523 Y0.8537
X2.2873 Y0.8485
X2.3215 Y0.8461
X2.3537 Y0.8465
X2.3816 Y0.8491
X2.4047 Y0.8531
X2.4235 Y0.858
X2.4396 Y0.8636
X2.4451 Y0.866
X2.4549 Y0.8715
X2.4635 Y0.8787
X2.4705 Y0.8875
X2.4757 Y0.8974
X2.4789 Y0.9082
X2.48 Y0.9194
Y1.0078
G3 X2.4778 Y1.0173 I-0.025 J-0.0009 F30
X2.4577 Y1.0317 I-0.0227 J-0.0104 F39.37
G1 X2.0377 Y1.0772
G3 X2.0122 Y1.0627 I-0.0027 J-0.0249
X2.01 Y1.0532 I0.0227 J-0.0104 F30
G1 Y0.9648 F39.37
X2.0103 Y0.9588
X2.0115 Y0.9499
X2.0136 Y0.9404
X2.017 Y0.9296
X2.0213 Y0.9187
X2.0275 Y0.9062
X2.0349 Y0.8938
X2.0449 Y0.8799
X2.0562 Y0.8665
X2.0708 Y0.8517
X2.0874 Y0.8375
X2.1073 Y0.823
X2.1312 Y0.8085
X2.1567 Y0.7955
X2.1861 Y0.7835
X2.2187 Y0.7732
X2.2532 Y0.7652
X2.2882 Y0.76
X2.3223 Y0.7578
X2.3545 Y0.7582
X2.3822 Y0.7608
X2.4052 Y0.7649
X2.4239 Y0.7698
X2.44 Y0.7753
X2.4452 Y0.7777
X2.455 Y0.7832
X2.4635 Y0.7904
X2.4705 Y0.7992
X2.4757 Y0.8091
X2.4789 Y0.8199
X2.48 Y0.831
Y0.9194
G3 X2.4778 Y0.9289 I-0.025 J-0.0009 F30
X2.4577 Y0.9434 I-0.0227 J-0.0104 F39.37
G1 X2.0377 Y0.9887
G3 X2.0122 Y0.9743 I-0.0027 J-0.0249
X2.01 Y0.9648 I0.0227 J-0.0104 F30
G1 Y0.8763 F39.37
X2.0103 Y0.8703
X2.0116 Y0.8614
X2.0137 Y0.8519
X2.017 Y0.8411
X2.0214 Y0.8302
X2.0277 Y0.8176
X2.0351 Y0.8052
X2.0451 Y0.7913
X2.0565 Y0.7779
X2.0712 Y0.7631
X2.0878 Y0.7489
X2.1078 Y0.7344
X2.1317 Y0.7198
X2.1573 Y0.7069
X2.1868 Y0.695
X2.2194 Y0.6847
X2.254 Y0.6767
X2.289 Y0.6716
X2.323 Y0.6694
X2.3551 Y0.6699
X2.3828 Y0.6726
X2.4057 Y0.6766
X2.4243 Y0.6815
X2.4403 Y0.6871
X2.4453 Y0.6893
X2.4551 Y0.6948
X2.4636 Y0.7021
X2.4706 Y0.7109
X2.4757 Y0.7208
X2.4789 Y0.7315
X2.48 Y0.7427
Y0.831
G3 X2.4778 Y0.8405 I-0.025 J-0.0009 F30
X2.4577 Y0.855 I-0.0227 J-0.0104 F39.37
G1 X2.0377 Y0.9003
G3 X2.0122 Y0.8858 I-0.0027 J-0.0249
X2.01 Y0.8763 I0.0227 J-0.0104 F30
G1 Y0.7918 F39.37
X2.0105 Y0.7828
X2.0116 Y0.7739
X2.0136 Y0.7647
X2.0168 Y0.7539
X2.021 Y0.7431
X2.027 Y0.7307
X2.0343 Y0.7184
X2.044 Y0.7046
X2.0551 Y0.6912
X2.0696 Y0.6763
X2.0856 Y0.6624
X2.1055 Y0.6476
X2.1286 Y0.6333
X2.1539 Y0.6202
X2.1833 Y0.6079
X2.2157 Y0.5973
X2.2501 Y0.5891
X2.285 Y0.5836
X2.3189 Y0.5811
X2.3511 Y0.5813
X2.3799 Y0.5838
X2.4032 Y0.5877
X2.422 Y0.5924
X2.4385 Y0.598
X2.4448 Y0.6007
X2.4547 Y0.6062
X2.4633 Y0.6135
X2.4704 Y0.6222
X2.4757 Y0.6322
X2.4789 Y0.6431
X2.48 Y0.6543
Y0.7427
G3 X2.4778 Y0.7522 I-0.025 J-0.0009 F30
X2.4579 Y0.7666 I-0.0227 J-0.0104 F39.37
G1 X2.0379 Y0.8158
G3 X2.0122 Y0.8013 I-0.0029 J-0.0248
X2.01 Y0.7918 I0.0227 J-0.0104 F30
G1 Y0.7033 F39.37
X2.0104 Y0.6945
X2.0116 Y0.6858
X2.0136 Y0.6764
X2.0168 Y0.6657
X2.021 Y0.6548
X2.0271 Y0.6424
X2.0343 Y0.6301
X2.044 Y0.6163
X2.0551 Y0.6029
X2.0694 Y0.5882
X2.0858 Y0.5739
X2.1054 Y0.5594
X2.129 Y0.5447
X2.1542 Y0.5317
X2.1833 Y0.5196
X2.2156 Y0.509
X2.2499 Y0.5008
X2.2849 Y0.4953
X2.3191 Y0.4928
X2.3513 Y0.493
X2.3798 Y0.4954
X2.4032 Y0.4994
X2.4221 Y0.5041
X2.4385 Y0.5097
X2.4448 Y0.5124
X2.4547 Y0.5178
X2.4633 Y0.5251
X2.4704 Y0.5339
X2.4757 Y0.5439
X2.4789 Y0.5547
X2.48 Y0.566
Y0.6543
G3 X2.4778 Y0.6638 I-0.025 J-0.0009 F30
X2.4579 Y0.6783 I-0.0227 J-0.0104 F39.37
G1 X2.0379 Y0.7273
G3 X2.0122 Y0.7128 I-0.0029 J-0.0248
X2.01 Y0.7033 I0.0227 J-0.0104 F30
G1 Y0.6149 F39.37
X2.0104 Y0.6062
X2.0116 Y0.5975
X2.0136 Y0.5881
X2.0168 Y0.5774
X2.021 Y0.5665
X2.0271 Y0.554
X2.0343 Y0.5417
X2.044 Y0.5279
X2.0552 Y0.5145
X2.0695 Y0.4998
X2.0859 Y0.4855
X2.1054 Y0.4711
X2.129 Y0.4564
X2.1542 Y0.4434
X2.1833 Y0.4312
X2.2156 Y0.4207
X2.2499 Y0.4125
X2.2849 Y0.407
X2.3191 Y0.4044
X2.3514 Y0.4046
X2.3798 Y0.4071
X2.4032 Y0.411
X2.4221 Y0.4158
X2.4385 Y0.4213
X2.4448 Y0.424
X2.4547 Y0.4295
X2.4633 Y0.4368
X2.4704 Y0.4456
X2.4757 Y0.4555
X2.4789 Y0.4664
X2.48 Y0.4776
Y0.566
G3 X2.4778 Y0.5754 I-0.025 J-0.0009 F30
X2.4579 Y0.5899 I-0.0227 J-0.0104 F39.37
G1 X2.0379 Y0.6388
G3 X2.0122 Y0.6244 I-0.0029 J-0.0248
X2.01 Y0.6149 I0.0227 J-0.0104 F30
G1 Y0.5264 F39.37
X2.0104 Y0.5179
X2.0116 Y0.5091
X2.0136 Y0.4997
X2.0168 Y0.489
X2.021 Y0.4782
X2.0271 Y0.4657
X2.0343 Y0.4534
X2.044 Y0.4396
X2.0552 Y0.4262
X2.0695 Y0.4115
X2.0858 Y0.3972
X2.1054 Y0.3827
X2.129 Y0.3681
X2.1542 Y0.3551
X2.1833 Y0.3429
X2.2156 Y0.3324
X2.2499 Y0.3241
X2.2849 Y0.3187
X2.3191 Y0.3161
X2.3514 Y0.3163
X2.3798 Y0.3187
X2.4032 Y0.3227
X2.4221 Y0.3274
X2.4385 Y0.333
X2.4448 Y0.3357
X2.4547 Y0.3412
X2.4633 Y0.3484
X2.4704 Y0.3572
X2.4757 Y0.3672
X2.4789 Y0.378
X2.48 Y0.3893
Y0.4776
G3 X2.4778 Y0.4871 I-0.025 J-0.0009 F30
X2.4579 Y0.5016 I-0.0227 J-0.0104 F39.37
G1 X2.0379 Y0.5504
G3 X2.0122 Y0.5359 I-0.0029 J-0.0248
X2.01 Y0.5264 I0.0227 J-0.0104 F30
G1 Y0.4379 F39.37
X2.0104 Y0.4295
X2.0116 Y0.4208
X2.0136 Y0.4114
X2.0168 Y0.4007
X2.021 Y0.3899
X2.0271 Y0.3774
X2.0343 Y0.3651
X2.044 Y0.3512
X2.0552 Y0.3378
X2.0695 Y0.3231
X2.0858 Y0.3089
X2.1054 Y0.2944
X2.129 Y0.2797
X2.1542 Y0.2667
X2.1833 Y0.2546
X2.1884 Y0.2529
X2.1943 Y0.2513
X2.2004 Y0.2503
X2.2065 Y0.25
X2.3828
X2.4065 Y0.2512
X2.4204 Y0.253
X2.4337 Y0.2558
X2.4384 Y0.2573
X2.4499 Y0.2621
X2.46 Y0.2692
X2.4685 Y0.2783
X2.4748 Y0.289
X2.4787 Y0.3008
X2.48 Y0.3131
G3 X2.4778 Y0.3226 I-0.025 J-0.0009 F30
X2.4434 Y0.3344 I-0.0227 J-0.0104 F39.37
G1 X2.3721 Y0.2971
G3 X2.3733 Y0.2522 I0.0116 J-0.0222
X2.3828 Y0.25 I0.0104 J0.0227 F30
G1 X2.4537 F39.37
X2.4581 Y0.2502
X2.4603 Y0.2507
X2.4625 Y0.2513
X2.4647 Y0.2521
X2.4669 Y0.2533
X2.4691 Y0.2547
X2.4714 Y0.2565
X2.472 Y0.257
X2.474 Y0.2592
X2.4757 Y0.2614
X2.477 Y0.2637
X2.4781 Y0.2659
X2.4789 Y0.2681
X2.4795 Y0.2703
X2.4798 Y0.2725
X2.48 Y0.2747
Y0.3893
G3 X2.4778 Y0.3988 I-0.025 J-0.0009 F30
X2.4579 Y0.4132 I-0.0227 J-0.0104 F39.37
G1 X2.0379 Y0.4619
G3 X2.0122 Y0.4474 I-0.0029 J-0.0248
X2.01 Y0.4379 I0.0227 J-0.0104 F30
G1 Y0.3495 F39.37
X2.0104 Y0.3412
X2.0116 Y0.3325
X2.0136 Y0.3231
X2.0168 Y0.3124
X2.021 Y0.3015
X2.0271 Y0.289
X2.0343 Y0.2767
X2.0357 Y0.2748
X2.0429 Y0.2663
X2.0517 Y0.2594
X2.0616 Y0.2542
X2.0723 Y0.2511
X2.0834 Y0.25
G3 X2.0929 Y0.2522 I-0.0009 J0.025 F30
X2.1035 Y0.2885 I-0.0104 J0.0227 F39.37
G1 X2.056 Y0.3622
G3 X2.0122 Y0.359 I-0.021 J-0.0136
X2.01 Y0.3495 I0.0227 J-0.0104 F30
G1 Y0.2747 F39.37
X2.0103 Y0.2717
X2.0109 Y0.2687
X2.0119 Y0.2659
X2.013 Y0.2637
X2.0143 Y0.2614
X2.016 Y0.2592
X2.0181 Y0.257
X2.0198 Y0.2556
X2.022 Y0.2541
X2.0242 Y0.2528
X2.0264 Y0.2518
X2.0286 Y0.251
X2.0309 Y0.2505
X2.0331 Y0.2501
X2.0375 Y0.25
X2.2065
X2.2086 Y0.2505 Z-0.1997 F30
X2.2107 Y0.2509 Z-0.199
X2.2125 Y0.2513 Z-0.1979
X2.214 Y0.2516 Z-0.1963
X2.2151 Y0.2518 Z-0.1945
X2.2158 Y0.2521 Z-0.1924
X2.216 Y0.2522 Z-0.1902
G0 Z0.2
X3.7709 Y2.3995
Z0.125
G1 Z0.1 F30
G3 X4.0075 Y2.3787 Z0.087 I0.1183 J-0.0104 F13.12
X3.7709 Y2.3995 Z0.0739 I-0.1183 J0.0104
X4.0075 Y2.3787 Z0.0609 I0.1183 J-0.0104
X3.7709 Y2.3995 Z0.0479 I-0.1183 J0.0104
X4.0075 Y2.3787 Z0.0349 I0.1183 J-0.0104
X3.7709 Y2.3995 Z0.0218 I-0.1183 J0.0104
X4.0075 Y2.3787 Z0.0088 I0.1183 J-0.0104
X3.7709 Y2.3995 Z-0.0042 I-0.1183 J0.0104
X4.0075 Y2.3787 Z-0.0172 I0.1183 J-0.0104
X3.7709 Y2.3995 Z-0.0303 I-0.1183 J0.0104
X4.0075 Y2.3787 Z-0.0433 I0.1183 J-0.0104
X3.7709 Y2.3995 Z-0.0563 I-0.1183 J0.0104
X4.0075 Y2.3787 Z-0.0694 I0.1183 J-0.0104
X3.7709 Y2.3995 Z-0.0824 I-0.1183 J0.0104
X4.0075 Y2.3787 Z-0.0954 I0.1183 J-0.0104
X3.7709 Y2.3995 Z-0.1084 I-0.1183 J0.0104
X4.0075 Y2.3787 Z-0.1215 I0.1183 J-0.0104
X3.7709 Y2.3995 Z-0.1345 I-0.1183 J0.0104
X4.0075 Y2.3787 Z-0.1475 I0.1183 J-0.0104
X3.7709 Y2.3995 Z-0.1606 I-0.1183 J0.0104
X4.0075 Y2.3787 Z-0.1736 I0.1183 J-0.0104
X3.7709 Y2.3995 Z-0.1866 I-0.1183 J0.0104
X3.884 Y2.2705 Z-0.1933 I0.1183 J-0.0104
X4.0079 Y2.3891 Z-0.2 I0.0052 J0.1186
X3.7704 I-0.1188 J0
X4.0037 Y2.3577 I0.1187 J0
X4.0079 Y2.3891 I-0.1145 J0.0314
G1 X4.0081 Y2.3989 F39.37
X4.0152 Y2.4372
X4.017 Y2.4429
X4.0181 Y2.4488
X4.0187 Y2.4548
Y2.4609
X4.0182 Y2.4674
X4.0171 Y2.4743
X4.0154 Y2.4815
X4.0129 Y2.489
X4.0097 Y2.4967
X4.0057 Y2.5045
X4.0008 Y2.5124
X3.995 Y2.5201
X3.9884 Y2.5277
X3.9809 Y2.5351
X3.9725 Y2.542
X3.9633 Y2.5485
X3.9532 Y2.5544
X3.9425 Y2.5596
X3.931 Y2.564
X3.919 Y2.5676
X3.9065 Y2.5703
X3.8935 Y2.572
X3.8802 Y2.5727
X3.8667 Y2.5723
X3.853 Y2.5707
X3.8394 Y2.5681
X3.8258 Y2.5643
X3.8125 Y2.5594
X3.7995 Y2.5534
X3.7869 Y2.5463
X3.7749 Y2.5382
X3.7635 Y2.5291
X3.7528 Y2.519
X3.7428 Y2.5081
X3.7338 Y2.4963
X3.7257 Y2.4839
X3.7186 Y2.4707
X3.7125 Y2.457
X3.7076 Y2.4428
X3.7038 Y2.4283
X3.7012 Y2.4134
X3.6998 Y2.3984
X3.6996 Y2.3833
X3.7006 Y2.3682
X3.7028 Y2.3532
X3.7062 Y2.3384
X3.7108 Y2.3239
X3.7166 Y2.3099
X3.7235 Y2.2963
X3.7314 Y2.2833
X3.7404 Y2.271
X3.7503 Y2.2595
X3.7611 Y2.2487
X3.7727 Y2.2389
X3.7851 Y2.23
X3.7982 Y2.2222
X3.8119 Y2.2154
X3.8261 Y2.2098
X3.8406 Y2.2053
X3.8555 Y2.202
X3.8707 Y2.1999
X3.8859 Y2.199
X3.9012 Y2.1994
X3.9163 Y2.2009
X3.9314 Y2.2037
X3.9461 Y2.2077
X3.9605 Y2.2128
X3.9744 Y2.2191
X3.9877 Y2.2265
X4.0005 Y2.2349
X4.0125 Y2.2444
X4.0237 Y2.2547
X4.0341 Y2.2659
X4.0435 Y2.278
X4.0519 Y2.2907
X4.0665 Y2.3171
X4.0789 Y2.3446
X4.0867 Y2.3667
X4.0921 Y2.3866
X4.0955 Y2.4051
X4.0973 Y2.4231
X4.0977 Y2.4404
X4.0967 Y2.4573
X4.0944 Y2.4738
X4.0908 Y2.4899
X4.086 Y2.5056
X4.0799 Y2.5209
X4.0725 Y2.5357
X4.0639 Y2.55
X4.0542 Y2.5637
X4.0432 Y2.5766
X4.0311 Y2.5888
X4.0179 Y2.6001
X4.0037 Y2.6105
X3.9884 Y2.6198
X3.9723 Y2.628
X3.9553 Y2.6349
X3.9375 Y2.6405
X3.9192 Y2.6448
X3.9003 Y2.6475
X3.8811 Y2.6488
X3.8616 Y2.6485
X3.842 Y2.6467
X3.8224 Y2.6432
X3.8031 Y2.6382
X3.784 Y2.6315
X3.7654 Y2.6233
X3.7475 Y2.6136
X3.7302 Y2.6024
X3.7139 Y2.5897
X3.6985 Y2.5758
X3.6842 Y2.5605
X3.6712 Y2.5441
X3.6594 Y2.5267
X3.6491 Y2.5083
X3.6402 Y2.489
X3.6329 Y2.4691
X3.6272 Y2.4486
X3.6232 Y2.4276
X3.6208 Y2.4064
X3.6202 Y2.385
X3.6212 Y2.3636
X3.624 Y2.3423
X3.6285 Y2.3213
X3.6347 Y2.3007
X3.6425 Y2.2806
X3.652 Y2.2612
X3.6629 Y2.2426
X3.6753 Y2.2249
X3.6891 Y2.2083
X3.7042 Y2.1929
X3.7205 Y2.1787
X3.7379 Y2.1658
X3.7563 Y2.1544
X3.7755 Y2.1445
X3.7955 Y2.1361
X3.8161 Y2.1294
X3.8371 Y2.1244
X3.8585 Y2.1211
X3.8801 Y2.1194
X3.9018 Y2.1196
X3.9233 Y2.1214
X3.9447 Y2.125
X3.9657 Y2.1303
X3.9862 Y2.1373
X4.0061 Y2.1459
X4.0253 Y2.1561
X4.0435 Y2.1677
X4.0608 Y2.1808
X4.0791 Y2.1972
X4.0974 Y2.2164
X4.1146 Y2.2376
X4.1303 Y2.2606
X4.1441 Y2.2846
X4.1556 Y2.3091
X4.1649 Y2.3338
X4.172 Y2.3585
X4.1769 Y2.3832
X4.1799 Y2.4078
X4.1808 Y2.4322
X4.1798 Y2.4563
X4.1769 Y2.4801
X4.1721 Y2.5034
X4.1654 Y2.5262
X4.157 Y2.5483
X4.1468 Y2.5697
X4.135 Y2.5903
X4.1214 Y2.6099
X4.1063 Y2.6284
X4.0896 Y2.6458
X4.0714 Y2.6619
X4.0519 Y2.6766
X4.0311 Y2.6897
X4.0091 Y2.7013
X3.9861 Y2.7111
X3.9621 Y2.7192
X3.9374 Y2.7253
X3.9121 Y2.7295
X3.8863 Y2.7316
X3.8603 Y2.7317
X3.8341 Y2.7296
X3.808 Y2.7254
X3.7822 Y2.7191
X3.7569 Y2.7108
X3.7321 Y2.7003
X3.7081 Y2.6878
X3.6851 Y2.6734
X3.6632 Y2.6571
X3.6426 Y2.639
X3.6235 Y2.6192
X3.6059 Y2.5979
X3.5901 Y2.5752
X3.5761 Y2.5512
X3.564 Y2.526
X3.5539 Y2.4999
X3.546 Y2.4731
X3.5402 Y2.4456
X3.5367 Y2.4177
X3.5354 Y2.3896
X3.5363 Y2.3614
X3.5395 Y2.3333
X3.545 Y2.3056
X3.5527 Y2.2783
X3.5625 Y2.2517
X3.5745 Y2.226
X3.5885 Y2.2014
X3.6044 Y2.1779
X3.6222 Y2.1557
X3.6417 Y2.1351
X3.6629 Y2.1161
X3.6854 Y2.0988
X3.7094 Y2.0834
X3.7344 Y2.0699
X3.7605 Y2.0585
X3.7874 Y2.0492
X3.815 Y2.0422
X3.843 Y2.0373
X3.8714 Y2.0347
X3.8999 Y2.0344
X3.9283 Y2.0364
X3.9565 Y2.0407
X3.9842 Y2.0472
X4.0113 Y2.0559
X4.0377 Y2.0668
X4.0637 Y2.0801
X4.0894 Y2.0959
X4.1146 Y2.1143
X4.1388 Y2.1353
X4.1617 Y2.1586
X4.1829 Y2.1839
X4.2021 Y2.2109
X4.219 Y2.2393
X4.2334 Y2.2687
X4.2454 Y2.299
X4.2475 Y2.3058
X4.2489 Y2.3114
X4.2497 Y2.3171
X4.25 Y2.3228
Y2.4687
X4.2482 Y2.5039
X4.2453 Y2.5262
X4.2404 Y2.5493
X4.2332 Y2.5734
X4.2236 Y2.5978
X4.2118 Y2.6223
X4.1976 Y2.6464
X4.1812 Y2.6697
X4.1627 Y2.692
X4.1421 Y2.7131
X4.1195 Y2.7328
X4.1118 Y2.7386
X4.1011 Y2.7448
X4.0894 Y2.7487
X4.0771 Y2.75
X3.7287
X3.7144 Y2.7493
X3.7004 Y2.7475
X3.6846 Y2.7441
X3.6684 Y2.7392
X3.6502 Y2.7321
X3.6321 Y2.7234
X3.6129 Y2.712
X3.5928 Y2.6979
X3.5731 Y2.6816
X3.554 Y2.6629
X3.5428 Y2.65
X3.5366 Y2.6416
X3.5321 Y2.6322
X3.5293 Y2.6221
X3.5284 Y2.6117
G3 X3.5306 Y2.6022 I0.025 J0.0009 F30
X3.5669 Y2.5916 I0.0227 J0.0104 F39.37
G1 X3.7414 Y2.704
G3 X3.7382 Y2.7478 I-0.0135 J0.021
X3.7287 Y2.75 I-0.0104 J-0.0227 F30
G1 X3.6047 F39.37
X3.5976 Y2.7496
X3.5865 Y2.7482
X3.5751 Y2.7457
X3.57 Y2.7442
X3.5585 Y2.7394
X3.5484 Y2.7323
X3.5399 Y2.7232
X3.5336 Y2.7125
X3.5297 Y2.7007
X3.5284 Y2.6883
G3 X3.5306 Y2.6788 I0.025 J0.0009 F30
X3.5678 Y2.6688 I0.0227 J0.0104 F39.37
G1 X3.6183 Y2.7046
G3 X3.6142 Y2.7478 I-0.0145 J0.0204
X3.6047 Y2.75 I-0.0104 J-0.0227 F30
G1 X3.5604 F39.37
X3.5516 Y2.7499
X3.5494 Y2.7496
X3.5472 Y2.749
X3.545 Y2.7483
X3.5427 Y2.7473
X3.5396 Y2.7454
X3.5365 Y2.743
X3.5339 Y2.7402
X3.5318 Y2.7372
X3.5303 Y2.7341
X3.5295 Y2.7319
X3.5289 Y2.7297
X3.5286 Y2.7275
X3.5284 Y2.7253
Y2.221
X3.529 Y2.2079
X3.5308 Y2.1942
X3.5339 Y2.1799
X3.5387 Y2.1638
X3.5453 Y2.1469
X3.5539 Y2.1292
X3.5652 Y2.11
X3.5783 Y2.0913
X3.5943 Y2.0721
X3.6132 Y2.0527
X3.6349 Y2.0337
X3.6588 Y2.016
X3.6847 Y1.9999
X3.7129 Y1.9854
X3.743 Y1.9728
X3.7748 Y1.9624
X3.8079 Y1.9545
X3.8418 Y1.9492
X3.8765 Y1.9466
X3.9114 Y1.9468
X3.9464 Y1.9498
X3.9811 Y1.9557
X4.0156 Y1.9643
X4.0497 Y1.9759
X4.0833 Y1.9904
X4.1162 Y2.0079
X4.1482 Y2.0283
X4.179 Y2.0516
X4.2081 Y2.0776
X4.235 Y2.1058
X4.2369 Y2.1082
X4.2425 Y2.1164
X4.2466 Y2.1255
X4.2492 Y2.1351
X4.25 Y2.145
Y2.3228
G3 X4.2478 Y2.3323 I-0.025 J-0.0009 F30
X4.2213 Y2.3467 I-0.0227 J-0.0104 F39.37
G1 X3.5496 Y2.2449
G3 X3.5306 Y2.2305 I0.0037 J-0.0247
X3.5284 Y2.221 I0.0227 J-0.0104 F30
G1 Y2.106 F39.37
X3.529 Y2.0938
X3.5304 Y2.083
X3.5328 Y2.0716
X3.5368 Y2.0584
X3.5419 Y2.0452
X3.5493 Y2.03
X3.5582 Y2.015
X3.5699 Y1.9983
X3.5837 Y1.9816
X3.6003 Y1.9646
X3.6206 Y1.9469
X3.6432 Y1.9302
X3.6687 Y1.9144
X3.6978 Y1.8993
X3.73 Y1.8859
X3.7649 Y1.8745
X3.8018 Y1.8656
X3.84 Y1.8597
X3.8789 Y1.8567
X3.9179 Y1.8569
X3.9567 Y1.8601
X3.9952 Y1.8663
X4.0332 Y1.8753
X4.0704 Y1.887
X4.1066 Y1.9014
X4.1418 Y1.9182
X4.1757 Y1.9375
X4.2081 Y1.9591
X4.2273 Y1.9739
X4.2351 Y1.9812
X4.2415 Y1.9897
X4.2462 Y1.9992
X4.249 Y2.0095
X4.25 Y2.0201
Y2.145
G3 X4.2478 Y2.1545 I-0.025 J-0.0009 F30
X4.2236 Y2.1691 I-0.0227 J-0.0104 F39.37
G1 X3.5519 Y2.1301
G3 X3.5306 Y2.1155 I0.0014 J-0.025
X3.5284 Y2.106 I0.0227 J-0.0104 F30
G1 Y1.9998 F39.37
X3.5287 Y1.9936
X3.5299 Y1.9841
X3.5323 Y1.973
X3.5357 Y1.9618
X3.5408 Y1.9487
X3.5471 Y1.9358
X3.5558 Y1.9209
X3.566 Y1.9065
X3.5795 Y1.8902
X3.5947 Y1.8746
X3.6137 Y1.858
X3.6363 Y1.8412
X3.6611 Y1.8258
X3.6905 Y1.8106
X3.7241 Y1.7966
X3.7606 Y1.7847
X3.7985 Y1.7756
X3.837 Y1.7696
X3.8759 Y1.7664
X3.9148 Y1.766
X3.9538 Y1.7682
X3.9925 Y1.773
X4.0308 Y1.7803
X4.0686 Y1.7899
X4.1056 Y1.802
X4.1419 Y1.8164
X4.1772 Y1.8329
X4.2114 Y1.8516
X4.2234 Y1.8593
X4.2325 Y1.8666
X4.2399 Y1.8755
X4.2454 Y1.8857
X4.2488 Y1.8967
X4.25 Y1.9083
Y2.0201
G3 X4.2478 Y2.0296 I-0.025 J-0.0009 F30
X4.2243 Y2.0442 I-0.0227 J-0.0104 F39.37
G1 X3.5526 Y2.024
G3 X3.5306 Y2.0093 I0.0008 J-0.025
X3.5284 Y1.9998 I0.0227 J-0.0104 F30
G1 Y1.9114 F39.37
X3.529 Y1.8984
X3.5303 Y1.8889
X3.5324 Y1.8788
X3.5358 Y1.8677
X3.5405 Y1.8555
X3.5467 Y1.8428
X3.5549 Y1.8288
X3.5649 Y1.8146
X3.5777 Y1.7992
X3.5928 Y1.7836
X3.6112 Y1.7676
X3.6337 Y1.751
X3.6582 Y1.7357
X3.6876 Y1.7206
X3.7212 Y1.7065
X3.7583 Y1.6944
X3.7962 Y1.6853
X3.8347 Y1.6791
X3.8735 Y1.6755
X3.9125 Y1.6745
X3.9514 Y1.676
X3.9902 Y1.6797
X4.0288 Y1.6856
X4.0669 Y1.6937
X4.1046 Y1.7039
X4.1415 Y1.7163
X4.1778 Y1.7306
X4.2069 Y1.7443
X4.2206 Y1.7521
X4.2305 Y1.7593
X4.2388 Y1.7683
X4.2449 Y1.7789
X4.2487 Y1.7906
X4.25 Y1.8028
Y1.9083
G3 X4.2478 Y1.9178 I-0.025 J-0.0009 F30
X4.2251 Y1.9324 I-0.0227 J-0.0104 F39.37
G1 X3.5535 Y1.9355
G3 X3.5306 Y1.9209 I-0.0001 J-0.025
X3.5284 Y1.9114 I0.0227 J-0.0104 F30
G1 Y1.8141 F39.37
X3.5288 Y1.8061
X3.53 Y1.7966
X3.5321 Y1.7869
X3.5354 Y1.7757
X3.5401 Y1.7639
X3.5462 Y1.7512
X3.5542 Y1.7375
X3.5642 Y1.7233
X3.5767 Y1.7083
X3.5919 Y1.6927
X3.6099 Y1.677
X3.6324 Y1.6604
X3.6567 Y1.6452
X3.6861 Y1.6301
X3.7201 Y1.6159
X3.7571 Y1.6038
X3.795 Y1.5946
X3.8335 Y1.5881
X3.8723 Y1.5842
X3.9112 Y1.5827
X3.9502 Y1.5834
X3.9891 Y1.5863
X4.0278 Y1.5912
X4.0662 Y1.5981
X4.1041 Y1.6069
X4.1416 Y1.6176
X4.1785 Y1.6303
X4.2046 Y1.6416
X4.219 Y1.6492
X4.2294 Y1.6563
X4.2381 Y1.6654
X4.2446 Y1.6763
X4.2486 Y1.6882
X4.25 Y1.7008
Y1.8028
G3 X4.2478 Y1.8123 I-0.025 J-0.0009 F30
X4.2254 Y1.8269 I-0.0227 J-0.0104 F39.37
G1 X3.5538 Y1.8382
G3 X3.5306 Y1.8236 I-0.0004 J-0.025
X3.5284 Y1.8141 I0.0227 J-0.0104 F30
G1 Y1.7256 F39.37
X3.529 Y1.7142
X3.5302 Y1.7048
X3.5322 Y1.6952
X3.5356 Y1.6841
X3.5401 Y1.6724
X3.5463 Y1.6597
X3.5542 Y1.6463
X3.5641 Y1.6321
X3.5765 Y1.6173
X3.5916 Y1.6017
X3.6095 Y1.5861
X3.6319 Y1.5695
X3.6564 Y1.5543
X3.6859 Y1.5391
X3.7204 Y1.5247
X3.7574 Y1.5126
X3.7953 Y1.5033
X3.8337 Y1.4966
X3.8725 Y1.4924
X3.9114 Y1.4904
X3.9504 Y1.4906
X3.9893 Y1.4928
X4.0281 Y1.4969
X4.0666 Y1.5028
X4.1049 Y1.5106
X4.1427 Y1.5201
X4.1794 Y1.5317
X4.2032 Y1.5414
X4.2179 Y1.5488
X4.2287 Y1.5558
X4.2377 Y1.565
X4.2444 Y1.576
X4.2486 Y1.5881
X4.25 Y1.6009
Y1.7008
G3 X4.2478 Y1.7102 I-0.025 J-0.0009 F30
X4.2259 Y1.7249 I-0.0227 J-0.0104 F39.37
G1 X3.5543 Y1.7497
G3 X3.5306 Y1.7351 I-0.0009 J-0.025
X3.5284 Y1.7256 I0.0227 J-0.0104 F30
G1 Y1.6283 F39.37
X3.5287 Y1.6223
X3.53 Y1.6128
X3.5322 Y1.6032
X3.5357 Y1.5918
X3.5403 Y1.5802
X3.5467 Y1.5673
X3.5547 Y1.554
X3.5651 Y1.5395
X3.5775 Y1.5248
X3.5933 Y1.5089
X3.6114 Y1.4934
X3.6343 Y1.4768
X3.6596 Y1.4613
X3.6898 Y1.4461
X3.7254 Y1.4316
X3.7625 Y1.4198
X3.8004 Y1.4108
X3.8389 Y1.4042
X3.8776 Y1.3999
X3.9166 Y1.3977
X3.9556 Y1.3976
X3.9945 Y1.3994
X4.0333 Y1.403
X4.0719 Y1.4084
X4.1103 Y1.4155
X4.1482 Y1.4245
X4.1816 Y1.4347
X4.2037 Y1.4435
X4.2174 Y1.4502
X4.2284 Y1.4572
X4.2375 Y1.4664
X4.2443 Y1.4774
X4.2486 Y1.4897
X4.25 Y1.5026
Y1.6009
G3 X4.2478 Y1.6104 I-0.025 J-0.0009 F30
X4.226 Y1.625 I-0.0227 J-0.0104 F39.37
G1 X3.5544 Y1.6524
G3 X3.5306 Y1.6378 I-0.001 J-0.025
X3.5284 Y1.6283 I0.0227 J-0.0104 F30
G1 Y1.5398 F39.37
X3.5288 Y1.5319
X3.53 Y1.5225
X3.5321 Y1.5129
X3.5353 Y1.502
X3.54 Y1.4901
X3.546 Y1.4777
X3.5541 Y1.464
X3.5638 Y1.4501
X3.5765 Y1.4348
X3.5912 Y1.4197
X3.6097 Y1.4036
X3.6317 Y1.3873
X3.6569 Y1.3716
X3.6874 Y1.3559
X3.7231 Y1.341
X3.7602 Y1.3289
X3.798 Y1.3194
X3.8363 Y1.3124
X3.875 Y1.3076
X3.9139 Y1.3049
X3.9529 Y1.3042
X3.9919 Y1.3053
X4.0308 Y1.3082
X4.0695 Y1.3128
X4.108 Y1.3191
X4.1461 Y1.3273
X4.1791 Y1.3368
X4.2011 Y1.3451
X4.2202 Y1.3541
X4.2207 Y1.3544
X4.2306 Y1.3616
X4.2388 Y1.3706
X4.2449 Y1.3812
X4.2487 Y1.3928
X4.25 Y1.405
Y1.5026
G3 X4.2478 Y1.5121 I-0.025 J-0.0009 F30
X4.2264 Y1.5267 I-0.0227 J-0.0104 F39.37
G1 X3.5547 Y1.5639
G3 X3.5306 Y1.5493 I-0.0014 J-0.025
X3.5284 Y1.5398 I0.0227 J-0.0104 F30
G1 Y1.4513 F39.37
X3.5289 Y1.4406
X3.5301 Y1.4312
X3.5322 Y1.4217
X3.5355 Y1.4105
X3.54 Y1.399
X3.5462 Y1.3863
X3.5541 Y1.3728
X3.5641 Y1.3587
X3.5766 Y1.3436
X3.5917 Y1.328
X3.6101 Y1.312
X3.6327 Y1.2953
X3.6579 Y1.2796
X3.6887 Y1.2637
X3.7247 Y1.2487
X3.7617 Y1.2366
X3.7995 Y1.227
X3.8379 Y1.2198
X3.8765 Y1.2148
X3.9154 Y1.2118
X3.9544 Y1.2107
X3.9934 Y1.2114
X4.0323 Y1.2138
X4.0711 Y1.2178
X4.1096 Y1.2237
X4.1478 Y1.2317
X4.1788 Y1.2403
X4.2013 Y1.2486
X4.2198 Y1.2572
X4.2203 Y1.2575
X4.2304 Y1.2646
X4.2387 Y1.2737
X4.2449 Y1.2843
X4.2487 Y1.296
X4.25 Y1.3083
Y1.405
G3 X4.2478 Y1.4145 I-0.025 J-0.0009 F30
X4.2267 Y1.4291 I-0.0227 J-0.0104 F39.37
G1 X3.5551 Y1.4754
G3 X3.5306 Y1.4608 I-0.0017 J-0.0249
X3.5284 Y1.4513 I0.0227 J-0.0104 F30
G1 Y1.358 F39.37
X3.5288 Y1.3495
X3.53 Y1.3401
X3.5321 Y1.3305
X3.5354 Y1.3193
X3.54 Y1.3076
X3.5462 Y1.2949
X3.5542 Y1.2813
X3.5641 Y1.2671
X3.5768 Y1.2519
X3.5919 Y1.2363
X3.6105 Y1.2201
X3.6332 Y1.2033
X3.6588 Y1.1874
X3.69 Y1.1713
X3.726 Y1.1563
X3.763 Y1.1441
X3.8008 Y1.1344
X3.8391 Y1.1271
X3.8777 Y1.1218
X3.9166 Y1.1185
X3.9555 Y1.117
X3.9945 Y1.1173
X4.0335 Y1.1193
X4.0723 Y1.123
X4.1109 Y1.1285
X4.1491 Y1.1362
X4.1789 Y1.1444
X4.201 Y1.1524
X4.2194 Y1.1608
X4.2201 Y1.1611
X4.2302 Y1.1683
X4.2385 Y1.1774
X4.2448 Y1.188
X4.2487 Y1.1998
X4.25 Y1.2121
Y1.3083
G3 X4.2478 Y1.3178 I-0.025 J-0.0009 F30
X4.2269 Y1.3323 I-0.0227 J-0.0104 F39.37
G1 X3.5552 Y1.3821
G3 X3.5306 Y1.3675 I-0.0018 J-0.0249
X3.5284 Y1.358 I0.0227 J-0.0104 F30
G1 Y1.2656 F39.37
X3.5288 Y1.258
X3.53 Y1.2485
X3.5321 Y1.2389
X3.5354 Y1.2278
X3.54 Y1.2159
X3.5462 Y1.2032
X3.5542 Y1.1895
X3.5642 Y1.1753
X3.577 Y1.1599
X3.5922 Y1.1444
X3.611 Y1.128
X3.6338 Y1.1111
X3.6597 Y1.0949
X3.6914 Y1.0786
X3.7274 Y1.0636
X3.7644 Y1.0513
X3.8021 Y1.0415
X3.8404 Y1.034
X3.879 Y1.0285
X3.9178 Y1.0249
X3.9568 Y1.0232
X3.9958 Y1.0231
X4.0347 Y1.0248
X4.0736 Y1.0282
X4.1122 Y1.0335
X4.1505 Y1.041
X4.1794 Y1.0489
X4.2009 Y1.0566
X4.2193 Y1.0649
X4.2199 Y1.0653
X4.2301 Y1.0724
X4.2385 Y1.0815
X4.2448 Y1.0922
X4.2487 Y1.104
X4.25 Y1.1163
Y1.2121
G3 X4.2478 Y1.2216 I-0.025 J-0.0009 F30
X4.227 Y1.2361 I-0.0227 J-0.0104 F39.37
G1 X3.5553 Y1.2896
G3 X3.5306 Y1.2751 I-0.002 J-0.0249
X3.5284 Y1.2656 I0.0227 J-0.0104 F30
G1 Y1.1771 F39.37
X3.5289 Y1.1661
X3.5302 Y1.1566
X3.5322 Y1.1469
X3.5356 Y1.1358
X3.5402 Y1.1239
X3.5464 Y1.1112
X3.5545 Y1.0974
X3.5645 Y1.0832
X3.5774 Y1.0676
X3.5926 Y1.0521
X3.6116 Y1.0355
X3.6345 Y1.0185
X3.6608 Y1.0022
X3.6929 Y0.9856
X3.7289 Y0.9706
X3.7659 Y0.9583
X3.8036 Y0.9484
X3.8418 Y0.9407
X3.8804 Y0.935
X3.9192 Y0.9312
X3.9582 Y0.9292
X3.9971 Y0.9289
X4.0361 Y0.9304
X4.075 Y0.9336
X4.1136 Y0.9387
X4.1519 Y0.9461
X4.1801 Y0.9537
X4.2012 Y0.9613
X4.2194 Y0.9695
X4.2199 Y0.9697
X4.23 Y0.9769
X4.2385 Y0.986
X4.2448 Y0.9967
X4.2487 Y1.0085
X4.25 Y1.0208
Y1.1163
G3 X4.2478 Y1.1258 I-0.025 J-0.0009 F30
X4.2273 Y1.1403 I-0.0227 J-0.0104 F39.37
G1 X3.5556 Y1.2011
G3 X3.5306 Y1.1866 I-0.0023 J-0.0249
X3.5284 Y1.1771 I0.0227 J-0.0104 F30
G1 Y1.0798 F39.37
X3.5287 Y1.0738
X3.53 Y1.0642
X3.5321 Y1.0544
X3.5356 Y1.0431
X3.5403 Y1.0311
X3.5467 Y1.0183
X3.555 Y1.0043
X3.5652 Y0.9899
X3.5785 Y0.9742
X3.594 Y0.9584
X3.6133 Y0.9418
X3.6369 Y0.9245
X3.6638 Y0.908
X3.6967 Y0.8912
X3.7328 Y0.8764
X3.7698 Y0.8642
X3.8076 Y0.8544
X3.8458 Y0.8468
X3.8844 Y0.8411
X3.9232 Y0.8372
X3.9621 Y0.8351
X4.0011 Y0.8348
X4.0401 Y0.8361
X4.0789 Y0.8393
X4.1176 Y0.8444
X4.1558 Y0.8519
X4.1828 Y0.8593
X4.203 Y0.8667
X4.216 Y0.8727
X4.2256 Y0.8782
X4.2339 Y0.8855
X4.2408 Y0.8942
X4.2458 Y0.9041
X4.249 Y0.9147
X4.25 Y0.9257
Y1.0208
G3 X4.2478 Y1.0303 I-0.025 J-0.0009 F30
X4.2272 Y1.0448 I-0.0227 J-0.0104 F39.37
G1 X3.5556 Y1.1038
G3 X3.5306 Y1.0893 I-0.0022 J-0.0249
X3.5284 Y1.0798 I0.0227 J-0.0104 F30
G1 Y0.9913 F39.37
X3.5289 Y0.9819
X3.5301 Y0.9725
X3.5322 Y0.9625
X3.5355 Y0.9515
X3.5403 Y0.9392
X3.5464 Y0.9267
X3.5548 Y0.9124
X3.5646 Y0.8984
X3.578 Y0.8823
X3.593 Y0.8669
X3.6126 Y0.8498
X3.6354 Y0.8329
X3.6626 Y0.816
X3.6956 Y0.799
X3.7316 Y0.7839
X3.7685 Y0.7716
X3.8062 Y0.7615
X3.8444 Y0.7536
X3.8829 Y0.7476
X3.9217 Y0.7435
X3.9606 Y0.7411
X3.9996 Y0.7405
X4.0386 Y0.7416
X4.0775 Y0.7445
X4.1161 Y0.7494
X4.1545 Y0.7566
X4.1821 Y0.7642
X4.2032 Y0.7718
X4.2159 Y0.7776
X4.2255 Y0.7831
X4.2339 Y0.7904
X4.2407 Y0.7991
X4.2458 Y0.809
X4.2489 Y0.8196
X4.25 Y0.8307
Y0.9257
G3 X4.2478 Y0.9352 I-0.025 J-0.0009 F30
X4.2274 Y0.9497 I-0.0227 J-0.0104 F39.37
G1 X3.5558 Y1.0153
G3 X3.5306 Y1.0008 I-0.0024 J-0.0249
X3.5284 Y0.9913 I0.0227 J-0.0104 F30
G1 Y0.898 F39.37
X3.5288 Y0.8894
X3.5301 Y0.8799
X3.5322 Y0.87
X3.5355 Y0.8589
X3.5402 Y0.8468
X3.5464 Y0.8341
X3.5548 Y0.8198
X3.5648 Y0.8056
X3.5782 Y0.7895
X3.5934 Y0.7739
X3.6129 Y0.7568
X3.6362 Y0.7396
X3.6635 Y0.7226
X3.6968 Y0.7054
X3.7328 Y0.6904
X3.7697 Y0.678
X3.8074 Y0.6678
X3.8456 Y0.6598
X3.8841 Y0.6538
X3.9228 Y0.6495
X3.9617 Y0.647
X4.0007 Y0.6463
X4.0397 Y0.6472
X4.0786 Y0.65
X4.1173 Y0.6549
X4.1551 Y0.662
X4.1825 Y0.6695
X4.2034 Y0.6771
X4.2159 Y0.6827
X4.2255 Y0.6883
X4.2339 Y0.6955
X4.2407 Y0.7043
X4.2458 Y0.7141
X4.2489 Y0.7248
X4.25 Y0.7358
Y0.8307
G3 X4.2478 Y0.8402 I-0.025 J-0.0009 F30
X4.2275 Y0.8547 I-0.0227 J-0.0104 F39.37
G1 X3.5559 Y0.922
G3 X3.5306 Y0.9075 I-0.0025 J-0.0249
X3.5284 Y0.898 I0.0227 J-0.0104 F30
G1 Y0.8055 F39.37
X3.5288 Y0.7967
X3.5301 Y0.7872
X3.5322 Y0.7773
X3.5355 Y0.7661
X3.5403 Y0.7539
X3.5465 Y0.7412
X3.5549 Y0.7268
X3.5649 Y0.7126
X3.5784 Y0.6963
X3.5936 Y0.6807
X3.6134 Y0.6635
X3.6367 Y0.6462
X3.6643 Y0.6291
X3.6979 Y0.6117
X3.7339 Y0.5967
X3.7708 Y0.5842
X3.8085 Y0.5741
X3.8466 Y0.566
X3.8851 Y0.5598
X3.9239 Y0.5555
X3.9628 Y0.5529
X4.0018 Y0.552
X4.0407 Y0.5529
X4.0796 Y0.5556
X4.1183 Y0.5604
X4.1557 Y0.5675
X4.1828 Y0.5749
X4.2036 Y0.5824
X4.2159 Y0.588
X4.2255 Y0.5935
X4.2339 Y0.6008
X4.2407 Y0.6095
X4.2458 Y0.6194
X4.2489 Y0.63
X4.25 Y0.6411
Y0.7358
G3 X4.2478 Y0.7453 I-0.025 J-0.0009 F30
X4.2276 Y0.7598 I-0.0227 J-0.0104 F39.37
G1 X3.5559 Y0.8295
G3 X3.5306 Y0.815 I-0.0026 J-0.0249
X3.5284 Y0.8055 I0.0227 J-0.0104 F30
G1 Y0.7122 F39.37
X3.5288 Y0.7038
X3.53 Y0.6943
X3.5322 Y0.6843
X3.5355 Y0.6731
X3.5403 Y0.6608
X3.5465 Y0.6481
X3.555 Y0.6336
X3.565 Y0.6194
X3.5786 Y0.603
X3.5939 Y0.5874
X3.6137 Y0.57
X3.6372 Y0.5527
X3.6649 Y0.5354
X3.6988 Y0.5179
X3.7348 Y0.5029
X3.7718 Y0.4904
X3.8094 Y0.4802
X3.8475 Y0.4721
X3.886 Y0.4658
X3.9247 Y0.4614
X3.9636 Y0.4587
X4.0026 Y0.4578
X4.0416 Y0.4586
X4.0805 Y0.4613
X4.1192 Y0.466
X4.1561 Y0.473
X4.183 Y0.4803
X4.2038 Y0.4879
X4.2158 Y0.4934
X4.2255 Y0.4989
X4.2339 Y0.5062
X4.2407 Y0.5149
X4.2458 Y0.5248
X4.2489 Y0.5354
X4.25 Y0.5465
Y0.6411
G3 X4.2478 Y0.6506 I-0.025 J-0.0009 F30
X4.2276 Y0.6651 I-0.0227 J-0.0104 F39.37
G1 X3.556 Y0.7362
G3 X3.5306 Y0.7217 I-0.0026 J-0.0249
X3.5284 Y0.7122 I0.0227 J-0.0104 F30
G1 Y0.6197 F39.37
X3.5288 Y0.6106
X3.5301 Y0.6011
X3.5322 Y0.5911
X3.5356 Y0.5799
X3.5404 Y0.5675
X3.5466 Y0.5548
X3.5551 Y0.5403
X3.5651 Y0.526
X3.5788 Y0.5096
X3.5941 Y0.4939
X3.6141 Y0.4764
X3.6376 Y0.4591
X3.6655 Y0.4417
X3.6997 Y0.4241
X3.7357 Y0.409
X3.7726 Y0.3965
X3.8102 Y0.3863
X3.8483 Y0.3781
X3.8868 Y0.3718
X3.9255 Y0.3673
X3.9644 Y0.3645
X4.0034 Y0.3635
X4.0424 Y0.3643
X4.0813 Y0.367
X4.12 Y0.3717
X4.1565 Y0.3786
X4.1832 Y0.3859
X4.2039 Y0.3934
X4.2159 Y0.3988
X4.2255 Y0.4044
X4.2339 Y0.4116
X4.2407 Y0.4203
X4.2458 Y0.4302
X4.2489 Y0.4409
X4.25 Y0.4519
Y0.5465
G3 X4.2478 Y0.5559 I-0.025 J-0.0009 F30
X4.2277 Y0.5704 I-0.0227 J-0.0104 F39.37
G1 X3.5561 Y0.6437
G3 X3.5306 Y0.6292 I-0.0027 J-0.0249
X3.5284 Y0.6197 I0.0227 J-0.0104 F30
G1 Y0.5264 F39.37
X3.5288 Y0.5174
X3.5301 Y0.5078
X3.5322 Y0.4977
X3.5356 Y0.4866
X3.5404 Y0.4741
X3.5466 Y0.4614
X3.5552 Y0.4468
X3.5652 Y0.4325
X3.5789 Y0.416
X3.5943 Y0.4003
X3.6144 Y0.3827
X3.6379 Y0.3653
X3.6661 Y0.3478
X3.7004 Y0.3301
X3.7364 Y0.3151
X3.7733 Y0.3025
X3.8109 Y0.2923
X3.849 Y0.284
X3.8875 Y0.2777
X3.9262 Y0.2731
X3.9651 Y0.2703
X4.0041 Y0.2693
X4.0431 Y0.27
X4.082 Y0.2727
X4.1207 Y0.2774
X4.1569 Y0.2842
X4.1834 Y0.2915
X4.2041 Y0.299
X4.2159 Y0.3043
X4.2255 Y0.3099
X4.2339 Y0.3171
X4.2407 Y0.3259
X4.2458 Y0.3357
X4.2489 Y0.3464
X4.25 Y0.3574
Y0.4519
G3 X4.2478 Y0.4614 I-0.025 J-0.0009 F30
X4.2278 Y0.4759 I-0.0227 J-0.0104 F39.37
G1 X3.5561 Y0.5504
G3 X3.5306 Y0.5359 I-0.0028 J-0.0248
X3.5284 Y0.5264 I0.0227 J-0.0104 F30
G1 Y0.434 F39.37
X3.5289 Y0.4239
X3.5301 Y0.4143
X3.5323 Y0.4042
X3.5356 Y0.3931
X3.5405 Y0.3806
X3.5467 Y0.3679
X3.5553 Y0.3532
X3.5653 Y0.3389
X3.5791 Y0.3223
X3.5945 Y0.3065
X3.6147 Y0.2889
X3.6382 Y0.2715
X3.6586 Y0.2588
X3.6683 Y0.254
X3.6787 Y0.251
X3.6895 Y0.25
G3 X3.699 Y0.2522 I-0.0009 J0.025 F30
X3.7076 Y0.2912 I-0.0104 J0.0227 F39.37
G1 X3.5724 Y0.4493
G3 X3.5306 Y0.4434 I-0.019 J-0.0163
X3.5284 Y0.434 I0.0227 J-0.0104 F30
G1 Y0.3366 F39.37
X3.5287 Y0.3305
X3.5299 Y0.321
X3.5321 Y0.3107
X3.5355 Y0.2996
X3.5404 Y0.287
X3.5424 Y0.2829
X3.5493 Y0.2719
X3.5586 Y0.2627
X3.5696 Y0.2557
X3.5819 Y0.2515
X3.5949 Y0.25
G3 X3.6044 Y0.2522 I-0.0009 J0.025 F30
X3.6148 Y0.2889 I-0.0104 J0.0227 F39.37
G1 X3.5741 Y0.3497
G3 X3.5306 Y0.3461 I-0.0208 J-0.0139
X3.5284 Y0.3366 I0.0227 J-0.0104 F30
G1 Y0.2747 F39.37
X3.5286 Y0.2725
X3.5289 Y0.2703
X3.5295 Y0.2681
X3.5303 Y0.2659
X3.5318 Y0.2628
X3.5339 Y0.2598
X3.5365 Y0.257
X3.5396 Y0.2546
X3.5427 Y0.2527
X3.545 Y0.2517
X3.5472 Y0.251
X3.5494 Y0.2504
X3.5516 Y0.2501
X3.5604 Y0.25
X4.198
X4.2089 Y0.2505
X4.2198 Y0.2534
X4.2298 Y0.2587
X4.2383 Y0.2662
X4.2447 Y0.2756
X4.2486 Y0.2862
X4.25 Y0.2974
G3 X4.2478 Y0.3069 I-0.025 J-0.0009 F30
X4.2091 Y0.3159 I-0.0227 J-0.0104 F39.37
G1 X4.1829 Y0.2943
G3 X4.1885 Y0.2522 I0.0159 J-0.0193
X4.198 Y0.25 I0.0104 J0.0227 F30
G1 X4.2245 F39.37
X4.2267 Y0.2501
X4.2289 Y0.2504
X4.2312 Y0.251
X4.2334 Y0.2517
X4.2376 Y0.2539
X4.2398 Y0.2553
X4.2419 Y0.257
X4.2422 Y0.2573
X4.2442 Y0.2595
X4.2458 Y0.2616
X4.2471 Y0.2637
X4.2481 Y0.2659
X4.2489 Y0.2681
X4.2495 Y0.2703
X4.2498 Y0.2725
X4.25 Y0.2747
Y0.3574
G3 X4.2478 Y0.3669 I-0.025 J-0.0009 F30
G1 X4.2461 Y0.3705 Z-0.1997
X4.2446 Y0.3739 Z-0.1988
X4.2431 Y0.3772 Z-0.1973
X4.2417 Y0.3803 Z-0.1952
X4.2404 Y0.383 Z-0.1927
X4.2394 Y0.3853 Z-0.1897
X4.2385 Y0.3872 Z-0.1863
X4.2379 Y0.3886 Z-0.1827
X4.2375 Y0.3894 Z-0.1789
X4.2374 Y0.3897 Z-0.175
G0 Z0.2
X4.219 Y2.4569
Z-0.15
G1 Z-0.175 F30
X4.2193 Y2.457 Z-0.1789
X4.2202 Y2.4571 Z-0.1827
X4.2216 Y2.4574 Z-0.1863
X4.2237 Y2.4577 Z-0.1897
X4.2262 Y2.4582 Z-0.1927
X4.2291 Y2.4587 Z-0.1952
X4.2324 Y2.4593 Z-0.1973
X4.236 Y2.4599 Z-0.1988
X4.2397 Y2.4606 Z-0.1997
X4.2436 Y2.4613 Z-0.2
G3 X4.25 Y2.4687 I-0.0014 J0.0077
G1 Y2.6368 F39.37
X4.2494 Y2.6478
X4.2479 Y2.6599
X4.2449 Y2.6737
X4.2405 Y2.6884
X4.2342 Y2.7045
X4.2261 Y2.7213
X4.2189 Y2.731
X4.2099 Y2.739
X4.1994 Y2.745
X4.1879 Y2.7487
X4.1758 Y2.75
G3 X4.1663 Y2.7478 I0.0009 J-0.025 F30
X4.1548 Y2.7129 I0.0104 J-0.0227 F39.37
G1 X4.2031 Y2.6256
G3 X4.2478 Y2.6273 I0.0219 J0.0121
X4.25 Y2.6368 I-0.0227 J0.0104 F30
G1 Y2.7253 F39.37
X4.2498 Y2.7275
X4.2495 Y2.7297
X4.2489 Y2.7319
X4.2481 Y2.7341
X4.2471 Y2.7363
X4.2458 Y2.7384
X4.2442 Y2.7405
X4.2422 Y2.7427
X4.2419 Y2.743
X4.2398 Y2.7447
X4.2376 Y2.7461
X4.2334 Y2.7483
X4.2312 Y2.749
X4.2289 Y2.7496
X4.2267 Y2.7499
X4.2245 Y2.75
X4.0771
X4.0749 Y2.7495 Z-0.1997 F30
X4.0729 Y2.7491 Z-0.199
X4.0711 Y2.7487 Z-0.1979
X4.0696 Y2.7484 Z-0.1963
X4.0685 Y2.7482 Z-0.1945
X4.0678 Y2.7479 Z-0.1924
X4.0676 Y2.7478 Z-0.1902
G0 Z0.2
X0.7876 Y0.3015
Z-0.13
G1 Z-0.155 F30
X0.7879 Y0.3014 Z-0.1589
X0.7887 Y0.3009 Z-0.1627
X0.79 Y0.3001 Z-0.1663
X0.7917 Y0.2991 Z-0.1697
X0.7939 Y0.2978 Z-0.1727
X0.7965 Y0.2963 Z-0.1752
X0.7993 Y0.2945 Z-0.1773
X0.8025 Y0.2927 Z-0.1788
X0.8057 Y0.2907 Z-0.1797
X0.8091 Y0.2887 Z-0.18
G3 X0.941 Y0.25 I0.1416 J0.2381
G1 X0.9661 F39.37
X0.9721 Y0.2503
X0.9778 Y0.2523
X0.983 Y0.2553
X0.9878 Y0.2589
X0.9931 Y0.2635
X0.9991 Y0.2697
X1.0058 Y0.2778
X1.013 Y0.2881
X1.0207 Y0.3014
X1.0289 Y0.3186
X1.0376 Y0.3411
X1.0406 Y0.3511
X1.0419 Y0.3565
X1.0427 Y0.362
X1.0429 Y0.3676
G3 X1.0407 Y0.3771 I-0.025 J-0.0009 F30
X0.9961 Y0.3789 I-0.0227 J-0.0104 F39.37
G1 X0.9451 Y0.2871
G3 X0.9566 Y0.2522 I0.0219 J-0.0121
X0.9661 Y0.25 I0.0104 J0.0227 F30
G1 X1.0015 F39.37
X1.0075 Y0.2503
X1.017 Y0.253
X1.0257 Y0.2579
X1.0329 Y0.2646
X1.0384 Y0.2729
X1.0418 Y0.2821
X1.0429 Y0.292
G3 X1.0414 Y0.3016 I-0.0401 J-0.0014 F30
X0.9923 Y0.3292 I-0.0385 J-0.0111 F39.37
X0.9919 Y0.2515 I0.0107 J-0.0389
X1.0015 Y0.25 I0.0111 J0.0388 F30
G1 X1.0104 F39.37
X1.0192 Y0.2501
X1.0215 Y0.2504
X1.0237 Y0.2508
X1.0259 Y0.2515
X1.0281 Y0.2525
X1.0315 Y0.2544
X1.0348 Y0.257
X1.037 Y0.2592
X1.0394 Y0.2625
X1.041 Y0.2659
X1.0418 Y0.2681
X1.0424 Y0.2703
X1.0428 Y0.2725
X1.0429 Y0.2747
Y2.6899
X1.0421 Y2.7073
X1.0392 Y2.7187
X1.0336 Y2.729
X1.0258 Y2.7378
X1.0161 Y2.7444
X1.0051 Y2.7486
X0.9934 Y2.75
G3 X0.9839 Y2.7478 I0.0009 J-0.025 F30
X0.9737 Y2.7108 I0.0104 J-0.0227 F39.37
G1 X0.9974 Y2.6765
G3 X1.0407 Y2.6804 I0.0206 J0.0142
X1.0429 Y2.6899 I-0.0227 J0.0104 F30
G1 Y2.7253 F39.37
X1.0428 Y2.7275
X1.0424 Y2.7297
X1.0418 Y2.7319
X1.041 Y2.7341
X1.0394 Y2.7375
X1.037 Y2.7408
X1.0348 Y2.743
X1.0315 Y2.7456
X1.0281 Y2.7475
X1.0259 Y2.7485
X1.0237 Y2.7492
X1.0215 Y2.7496
X1.0192 Y2.7499
X1.0104 Y2.75
X0.9484
X0.9463 Y2.7495 Z-0.1797 F30
X0.9443 Y2.7491 Z-0.179
X0.9425 Y2.7487 Z-0.1779
X0.941 Y2.7484 Z-0.1763
X0.9398 Y2.7482 Z-0.1745
X0.9391 Y2.7479 Z-0.1724
X0.9389 Y2.7478 Z-0.1702
G0 Z0.2
X3.7124 Y2.6985
Z-0.13
G1 Z-0.155 F30
X3.7121 Y2.6986 Z-0.1589
X3.7113 Y2.6991 Z-0.1627
X3.71 Y2.6999 Z-0.1663
X3.7083 Y2.7009 Z-0.1697
X3.7061 Y2.7022 Z-0.1727
X3.7035 Y2.7037 Z-0.1752
X3.7007 Y2.7055 Z-0.1773
X3.6975 Y2.7073 Z-0.1788
X3.6943 Y2.7093 Z-0.1797
X3.6909 Y2.7113 Z-0.18
G3 X3.559 Y2.75 I-0.1416 J-0.2381
G1 X3.5339 F39.37
X3.5279 Y2.7497
X3.5222 Y2.7478
X3.517 Y2.7448
X3.5121 Y2.7413
X3.5068 Y2.7367
X3.5009 Y2.7306
X3.4943 Y2.7226
X3.4871 Y2.7124
X3.4794 Y2.6993
X3.4712 Y2.6824
X3.4625 Y2.6603
X3.4601 Y2.6522
X3.4587 Y2.6467
X3.4579 Y2.6411
X3.4576 Y2.6354
G3 X3.4599 Y2.6259 I0.025 J0.0009 F30
X3.5044 Y2.6239 I0.0227 J0.0104 F39.37
G1 X3.5547 Y2.7127
G3 X3.5434 Y2.7478 I-0.0217 J0.0123
X3.5339 Y2.75 I-0.0104 J-0.0227 F30
G1 X3.4985 F39.37
X3.4925 Y2.7497
X3.4831 Y2.7471
X3.4747 Y2.7423
X3.4675 Y2.7357
X3.4621 Y2.7277
X3.4588 Y2.7186
X3.4576 Y2.7089
G3 X3.4592 Y2.6993 I0.0395 J0.0014 F30
X3.5072 Y2.6721 I0.0379 J0.011 F39.37
X3.5081 Y2.7485 I-0.0102 J0.0383
X3.4985 Y2.75 I-0.0111 J-0.038 F30
G1 X3.4896 F39.37
X3.4808 Y2.7499
X3.4785 Y2.7495
X3.4763 Y2.749
X3.4741 Y2.7482
X3.4719 Y2.7472
X3.4688 Y2.7454
X3.4657 Y2.743
X3.463 Y2.7401
X3.461 Y2.7371
X3.4595 Y2.7341
X3.4587 Y2.7319
X3.4582 Y2.7297
X3.4578 Y2.7275
X3.4576 Y2.7253
Y0.3013
X3.4581 Y0.2922
X3.461 Y0.2809
X3.4664 Y0.2707
X3.4742 Y0.262
X3.4838 Y0.2555
X3.4946 Y0.2514
X3.5062 Y0.25
G3 X3.5157 Y0.2522 I-0.0009 J0.025 F30
X3.524 Y0.2916 I-0.0104 J0.0227 F39.37
G1 X3.5013 Y0.317
G3 X3.4599 Y0.3107 I-0.0186 J-0.0167
X3.4576 Y0.3013 I0.0227 J-0.0104 F30
G1 Y0.2747 F39.37
X3.4578 Y0.2725
X3.4582 Y0.2703
X3.4587 Y0.2681
X3.4595 Y0.2659
X3.461 Y0.2629
X3.463 Y0.2599
X3.4657 Y0.257
X3.4688 Y0.2546
X3.4719 Y0.2528
X3.4741 Y0.2518
X3.4763 Y0.251
X3.4785 Y0.2505
X3.4808 Y0.2501
X3.4896 Y0.25
X3.583
X3.5851 Y0.2505 Z-0.1797 F30
X3.5872 Y0.2509 Z-0.179
X3.589 Y0.2513 Z-0.1779
X3.5905 Y0.2516 Z-0.1763
X3.5916 Y0.2518 Z-0.1745
X3.5923 Y0.2521 Z-0.1724
X3.5925 Y0.2522 Z-0.1702
G0 Z0.2
X0.8584 Y0.3015
Z-0.11
G1 Z-0.135 F30
X0.8587 Y0.3014 Z-0.1389
X0.8595 Y0.3009 Z-0.1427
X0.8608 Y0.3001 Z-0.1463
X0.8625 Y0.2991 Z-0.1497
X0.8647 Y0.2978 Z-0.1527
X0.8673 Y0.2963 Z-0.1552
X0.8702 Y0.2945 Z-0.1573
X0.8733 Y0.2927 Z-0.1588
X0.8766 Y0.2907 Z-0.1597
X0.8799 Y0.2887 Z-0.16
G3 X1.0119 Y0.25 I0.1416 J0.2381
G1 X1.037 F39.37
X1.0429 Y0.2503
X1.0487 Y0.2521
X1.0539 Y0.255
X1.0588 Y0.2585
X1.064 Y0.263
X1.07 Y0.269
X1.0765 Y0.2767
X1.0836 Y0.2867
X1.0913 Y0.2996
X1.0995 Y0.3161
X1.1081 Y0.3378
X1.1171 Y0.3671
X1.1255 Y0.4052
X1.1265 Y0.4119
X1.1268 Y0.4147
X1.127 Y0.4176
X1.1271 Y0.4204
G3 X1.1249 Y0.4299 I-0.025 J-0.0009 F30
X1.0793 Y0.4297 I-0.0227 J-0.0104 F39.37
G1 X1.015 Y0.2851
G3 X1.0275 Y0.2522 I0.0228 J-0.0102
X1.037 Y0.25 I0.0104 J0.0227 F30
G1 X1.0724 F39.37
X1.0784 Y0.2503
X1.0896 Y0.2532
X1.1 Y0.2583
X1.1092 Y0.2654
X1.1168 Y0.2742
X1.1225 Y0.2843
X1.1259 Y0.2954
X1.1271 Y0.307
G3 X1.1259 Y0.3167 I-0.0531 J-0.0019 F30
X1.0584 Y0.3559 I-0.0519 J-0.0116 F39.37
X1.0626 Y0.2512 I0.0158 J-0.0518
X1.0724 Y0.25 I0.0116 J0.0529 F30
G1 X1.0989 F39.37
X1.1034 Y0.2501
X1.1056 Y0.2503
X1.1078 Y0.2508
X1.11 Y0.2515
X1.1122 Y0.2524
X1.1144 Y0.2536
X1.1166 Y0.2551
X1.119 Y0.257
X1.1211 Y0.2592
X1.1228 Y0.2614
X1.1242 Y0.2637
X1.1252 Y0.2659
X1.1255 Y0.2666
X1.1267 Y0.2707
X1.1271 Y0.2747
Y2.6722
X1.126 Y2.6938
X1.1253 Y2.6992
X1.1225 Y2.7109
X1.1175 Y2.7218
X1.1103 Y2.7313
X1.1012 Y2.7392
X1.0908 Y2.7451
X1.0794 Y2.7488
X1.0675 Y2.75
G3 X1.058 Y2.7478 I0.0009 J-0.025 F30
X1.0474 Y2.7114 I0.0104 J-0.0227 F39.37
G1 X1.0812 Y2.6594
G3 X1.1249 Y2.6627 I0.021 J0.0136
X1.1271 Y2.6722 I-0.0227 J0.0104 F30
G1 Y2.7253 F39.37
X1.1267 Y2.7293
X1.1255 Y2.7334
X1.1252 Y2.7341
X1.1242 Y2.7363
X1.1228 Y2.7386
X1.1211 Y2.7408
X1.119 Y2.743
X1.1166 Y2.7449
X1.1144 Y2.7464
X1.1122 Y2.7476
X1.11 Y2.7485
X1.1078 Y2.7492
X1.1056 Y2.7497
X1.1034 Y2.7499
X1.0989 Y2.75
X1.0192
X1.0171 Y2.7495 Z-0.1597 F30
X1.0151 Y2.7491 Z-0.159
X1.0133 Y2.7487 Z-0.1579
X1.0118 Y2.7484 Z-0.1563
X1.0106 Y2.7482 Z-0.1545
X1.01 Y2.7479 Z-0.1524
X1.0097 Y2.7478 Z-0.1502
G0 Z0.2
X3.6416 Y2.6985
Z-0.11
G1 Z-0.135 F30
X3.6413 Y2.6986 Z-0.1389
X3.6405 Y2.6991 Z-0.1427
X3.6392 Y2.6999 Z-0.1463
X3.6374 Y2.7009 Z-0.1497
X3.6353 Y2.7022 Z-0.1527
X3.6327 Y2.7037 Z-0.1552
X3.6298 Y2.7055 Z-0.1573
X3.6267 Y2.7073 Z-0.1588
X3.6234 Y2.7093 Z-0.1597
X3.6201 Y2.7113 Z-0.16
G3 X3.4881 Y2.75 I-0.1416 J-0.2381
G1 X3.463 F39.37
X3.4571 Y2.7497
X3.4514 Y2.7478
X3.4462 Y2.7448
X3.4413 Y2.7413
X3.436 Y2.7366
X3.43 Y2.7305
X3.4234 Y2.7225
X3.4163 Y2.7123
X3.4085 Y2.6992
X3.4003 Y2.6822
X3.3917 Y2.6599
X3.3826 Y2.6297
X3.3745 Y2.5916
X3.3735 Y2.5843
X3.3731 Y2.5816
X3.373 Y2.5789
X3.3729 Y2.5762
G3 X3.3751 Y2.5667 I0.025 J0.0009 F30
X3.4208 Y2.5671 I0.0227 J0.0104 F39.37
G1 X3.4851 Y2.7151
G3 X3.4725 Y2.7478 I-0.0229 J0.01
X3.463 Y2.75 I-0.0104 J-0.0227 F30
G1 X3.4276 F39.37
X3.4216 Y2.7497
X3.4104 Y2.7467
X3.3999 Y2.7415
X3.3907 Y2.7344
X3.3832 Y2.7255
X3.3775 Y2.7153
X3.3741 Y2.7042
X3.3729 Y2.6926
G3 X3.3741 Y2.6829 I0.0532 J0.0019 F30
X3.4421 Y2.6437 I0.052 J0.0116 F39.37
X3.4374 Y2.7488 I-0.0164 J0.0519
X3.4276 Y2.75 I-0.0116 J-0.0532 F30
G1 X3.4011 F39.37
X3.3966 Y2.7499
X3.3944 Y2.7497
X3.3922 Y2.7492
X3.39 Y2.7485
X3.3878 Y2.7476
X3.3856 Y2.7464
X3.3834 Y2.7449
X3.381 Y2.743
X3.3789 Y2.7408
X3.3772 Y2.7386
X3.3758 Y2.7363
X3.3748 Y2.7341
X3.3745 Y2.7334
X3.3734 Y2.7293
X3.3729 Y2.7253
Y0.3278
X3.3739 Y0.307
X3.3748 Y0.3008
X3.3775 Y0.2891
X3.3826 Y0.2782
X3.3898 Y0.2687
X3.3988 Y0.2608
X3.4093 Y0.2549
X3.4207 Y0.2512
X3.4326 Y0.25
G3 X3.4421 Y0.2522 I-0.0009 J0.025 F30
X3.4527 Y0.2886 I-0.0104 J0.0227 F39.37
G1 X3.4188 Y0.3406
G3 X3.3751 Y0.3373 I-0.0209 J-0.0136
X3.3729 Y0.3278 I0.0227 J-0.0104 F30
G1 Y0.2747 F39.37
X3.3734 Y0.2707
X3.3745 Y0.2666
X3.3748 Y0.2659
X3.3758 Y0.2637
X3.3772 Y0.2614
X3.3789 Y0.2592
X3.381 Y0.257
X3.3834 Y0.2551
X3.3856 Y0.2536
X3.3878 Y0.2524
X3.39 Y0.2515
X3.3922 Y0.2508
X3.3944 Y0.2503
X3.3966 Y0.2501
X3.4011 Y0.25
X3.4808
X3.4829 Y0.2505 Z-0.1597 F30
X3.4849 Y0.2509 Z-0.159
X3.4867 Y0.2513 Z-0.1579
X3.4882 Y0.2516 Z-0.1563
X3.4894 Y0.2518 Z-0.1545
X3.49 Y0.2521 Z-0.1524
X3.4903 Y0.2522 Z-0.1502
G0 Z0.2
X0.947 Y0.3015
Z-0.09
G1 Z-0.115 F30
X0.9473 Y0.3014 Z-0.1189
X0.948 Y0.3009 Z-0.1227
X0.9493 Y0.3001 Z-0.1263
X0.9511 Y0.2991 Z-0.1297
X0.9533 Y0.2978 Z-0.1327
X0.9558 Y0.2963 Z-0.1352
X0.9587 Y0.2945 Z-0.1373
X0.9618 Y0.2927 Z-0.1388
X0.9651 Y0.2907 Z-0.1397
X0.9685 Y0.2887 Z-0.14
G3 X1.1004 Y0.25 I0.1416 J0.2381
G1 X1.1215 F39.37
X1.1275 Y0.2503
X1.1332 Y0.2522
X1.1384 Y0.2551
X1.1433 Y0.2587
X1.1486 Y0.2632
X1.1545 Y0.2693
X1.1611 Y0.2772
X1.1683 Y0.2874
X1.176 Y0.3004
X1.1842 Y0.3173
X1.1928 Y0.3393
X1.2018 Y0.3693
X1.2101 Y0.4074
X1.2107 Y0.4118
X1.211 Y0.4145
X1.2112 Y0.4172
X1.2113 Y0.42
G3 X1.209 Y0.4295 I-0.025 J-0.0009 F30
X1.1634 Y0.4293 I-0.0227 J-0.0104 F39.37
G1 X1.0995 Y0.2851
G3 X1.112 Y0.2522 I0.0229 J-0.0101
X1.1215 Y0.25 I0.0104 J0.0227 F30
G1 X1.1569 F39.37
X1.1629 Y0.2503
X1.1741 Y0.2532
X1.1844 Y0.2583
X1.1936 Y0.2654
X1.2011 Y0.2742
X1.2067 Y0.2843
X1.2101 Y0.2953
X1.2113 Y0.3068
G3 X1.21 Y0.3165 I-0.0528 J-0.0018 F30
X1.1427 Y0.3554 I-0.0516 J-0.0116 F39.37
X1.1472 Y0.2512 I0.0161 J-0.0515
X1.1569 Y0.25 I0.0116 J0.0527 F30
G1 X1.1786 F39.37
X1.1875 Y0.2501
X1.1897 Y0.2503
X1.1919 Y0.2507
X1.1941 Y0.2514
X1.1963 Y0.2523
X1.1998 Y0.2542
X1.2015 Y0.2555
X1.2032 Y0.257
X1.2052 Y0.2591
X1.2077 Y0.2625
X1.2094 Y0.2659
X1.2102 Y0.2681
X1.2107 Y0.2703
X1.2111 Y0.2725
X1.2113 Y0.2747
Y2.6722
X1.2102 Y2.6938
X1.2095 Y2.6992
X1.2067 Y2.7109
X1.2016 Y2.7218
X1.1944 Y2.7313
X1.1854 Y2.7392
X1.175 Y2.7451
X1.1636 Y2.7488
X1.1516 Y2.75
G3 X1.1421 Y2.7478 I0.0009 J-0.025 F30
X1.1316 Y2.7114 I0.0104 J-0.0227 F39.37
G1 X1.1653 Y2.6594
G3 X1.209 Y2.6627 I0.021 J0.0136
X1.2113 Y2.6722 I-0.0227 J0.0104 F30
G1 Y2.7253 F39.37
X1.2111 Y2.7275
X1.2107 Y2.7297
X1.2102 Y2.7319
X1.2094 Y2.7341
X1.2077 Y2.7375
X1.2052 Y2.7409
X1.2032 Y2.743
X1.2015 Y2.7445
X1.1998 Y2.7458
X1.1963 Y2.7477
X1.1941 Y2.7486
X1.1919 Y2.7493
X1.1897 Y2.7497
X1.1875 Y2.7499
X1.1786 Y2.75
X1.1078
X1.1057 Y2.7495 Z-0.1397 F30
X1.1036 Y2.7491 Z-0.139
X1.1018 Y2.7487 Z-0.1379
X1.1003 Y2.7484 Z-0.1363
X1.0992 Y2.7482 Z-0.1345
X1.0985 Y2.7479 Z-0.1324
X1.0983 Y2.7478 Z-0.1302
G0 Z0.2
X3.553 Y2.6985
Z-0.09
G1 Z-0.115 F30
X3.5527 Y2.6986 Z-0.1189
X3.552 Y2.6991 Z-0.1227
X3.5507 Y2.6999 Z-0.1263
X3.5489 Y2.7009 Z-0.1297
X3.5467 Y2.7022 Z-0.1327
X3.5442 Y2.7037 Z-0.1352
X3.5413 Y2.7055 Z-0.1373
X3.5382 Y2.7073 Z-0.1388
X3.5349 Y2.7093 Z-0.1397
X3.5315 Y2.7113 Z-0.14
G3 X3.3996 Y2.75 I-0.1416 J-0.2381
G1 X3.3785 F39.37
X3.3725 Y2.7497
X3.3668 Y2.7478
X3.3616 Y2.7449
X3.3567 Y2.7413
X3.3514 Y2.7367
X3.3455 Y2.7307
X3.3389 Y2.7228
X3.3317 Y2.7126
X3.324 Y2.6995
X3.3158 Y2.6827
X3.3072 Y2.6606
X3.2982 Y2.6307
X3.2899 Y2.5926
X3.2887 Y2.5842
X3.2884 Y2.5815
X3.2882 Y2.5787
Y2.576
G3 X3.2904 Y2.5665 I0.025 J0.0009 F30
X3.3361 Y2.5669 I0.0227 J0.0104 F39.37
G1 X3.4005 Y2.715
G3 X3.388 Y2.7478 I-0.0229 J0.01
X3.3785 Y2.75 I-0.0104 J-0.0227 F30
G1 X3.3431 F39.37
X3.3371 Y2.7497
X3.3258 Y2.7467
X3.3153 Y2.7416
X3.3061 Y2.7344
X3.2985 Y2.7255
X3.2928 Y2.7153
X3.2893 Y2.7041
X3.2882 Y2.6925
G3 X3.2894 Y2.6828 I0.0534 J0.0019 F30
X3.3575 Y2.6434 I0.0521 J0.0116 F39.37
X3.3528 Y2.7488 I-0.0163 J0.0521
X3.3431 Y2.75 I-0.0116 J-0.0533 F30
G1 X3.3125 F39.37
X3.3103 Y2.7498
X3.3081 Y2.7494
X3.3059 Y2.7488
X3.3037 Y2.7479
X3.2999 Y2.7459
X3.2981 Y2.7446
X3.2962 Y2.743
X3.2948 Y2.7415
X3.2933 Y2.7397
X3.292 Y2.7378
X3.2901 Y2.7341
X3.2893 Y2.7319
X3.2887 Y2.7297
X3.2883 Y2.7275
X3.2882 Y2.7253
Y0.3278
X3.2892 Y0.307
X3.29 Y0.3008
X3.2928 Y0.2891
X3.2979 Y0.2782
X3.3051 Y0.2687
X3.3141 Y0.2608
X3.3245 Y0.2549
X3.3359 Y0.2512
X3.3479 Y0.25
G3 X3.3573 Y0.2522 I-0.0009 J0.025 F30
X3.3679 Y0.2886 I-0.0104 J0.0227 F39.37
G1 X3.3341 Y0.3406
G3 X3.2904 Y0.3373 I-0.0209 J-0.0136
X3.2882 Y0.3278 I0.0227 J-0.0104 F30
G1 Y0.2747 F39.37
X3.2883 Y0.2725
X3.2887 Y0.2703
X3.2893 Y0.2681
X3.2901 Y0.2659
X3.292 Y0.2622
X3.2933 Y0.2603
X3.2948 Y0.2585
X3.2962 Y0.257
X3.2981 Y0.2554
X3.2999 Y0.2541
X3.3037 Y0.2521
X3.3059 Y0.2512
X3.3081 Y0.2506
X3.3103 Y0.2502
X3.3125 Y0.25
X3.3745
X3.4236
X3.4258 Y0.2505 Z-0.1397 F30
X3.4278 Y0.2509 Z-0.139
X3.4296 Y0.2513 Z-0.1379
X3.4311 Y0.2516 Z-0.1363
X3.4322 Y0.2518 Z-0.1345
X3.4329 Y0.2521 Z-0.1324
X3.4331 Y0.2522 Z-0.1302
G0 Z0.2
X1.0267 Y0.3015
Z-0.07
G1 Z-0.095 F30
X1.0269 Y0.3014 Z-0.0989
X1.0277 Y0.3009 Z-0.1027
X1.029 Y0.3001 Z-0.1063
X1.0308 Y0.2991 Z-0.1097
X1.033 Y0.2978 Z-0.1127
X1.0355 Y0.2963 Z-0.1152
X1.0384 Y0.2945 Z-0.1173
X1.0415 Y0.2927 Z-0.1188
X1.0448 Y0.2907 Z-0.1197
X1.0482 Y0.2887 Z-0.12
G3 X1.1801 Y0.25 I0.1416 J0.2381
G1 X1.2052 F39.37
X1.2112 Y0.2503
X1.2169 Y0.252
X1.2222 Y0.2549
X1.2271 Y0.2584
X1.2323 Y0.2629
X1.2382 Y0.2689
X1.2447 Y0.2766
X1.2518 Y0.2866
X1.2595 Y0.2994
X1.2677 Y0.3158
X1.2763 Y0.3374
X1.2853 Y0.3666
X1.2937 Y0.4046
X1.2994 Y0.4432
X1.3032 Y0.482
X1.3058 Y0.5209
X1.3076 Y0.5599
X1.3084 Y0.5877
Y0.5883
G3 X1.3062 Y0.5978 I-0.025 J-0.0009 F30
G1 X1.3045 Y0.6014 Z-0.1197
X1.303 Y0.6049 Z-0.1188
X1.3015 Y0.6082 Z-0.1173
X1.3001 Y0.6112 Z-0.1152
X1.2988 Y0.6139 Z-0.1127
X1.2978 Y0.6162 Z-0.1097
X1.2969 Y0.6181 Z-0.1063
X1.2963 Y0.6195 Z-0.1027
X1.2959 Y0.6203 Z-0.0989
X1.2958 Y0.6206 Z-0.095
G0 Z0.2
X1.1934 Y0.281
Z-0.07
G1 Z-0.095 F30
Y0.2807 Z-0.0989
X1.1936 Y0.2798 Z-0.1027
X1.1938 Y0.2784 Z-0.1063
X1.1942 Y0.2763 Z-0.1097
X1.1946 Y0.2738 Z-0.1127
X1.1952 Y0.2709 Z-0.1152
X1.1958 Y0.2676 Z-0.1173
X1.1964 Y0.264 Z-0.1188
X1.1971 Y0.2603 Z-0.1197
X1.1978 Y0.2564 Z-0.12
G3 X1.2052 Y0.25 I0.0077 J0.0014
G1 X1.2406 F39.37
X1.2466 Y0.2503
X1.2525 Y0.2512
X1.2587 Y0.2527
X1.2651 Y0.2548
X1.2727 Y0.258
X1.2803 Y0.2619
X1.281 Y0.2624
X1.2903 Y0.2696
X1.298 Y0.2786
X1.3037 Y0.2889
X1.3072 Y0.3001
X1.3084 Y0.3118
G3 X1.3062 Y0.3213 I-0.025 J-0.0009 F30
X1.2671 Y0.3299 I-0.0227 J-0.0104 F39.37
G1 X1.2252 Y0.294
G3 X1.2311 Y0.2522 I0.0163 J-0.019
X1.2406 Y0.25 I0.0104 J0.0227 F30
G1 X1.276 F39.37
X1.2849 Y0.2501
X1.2871 Y0.2504
X1.2893 Y0.2509
X1.2915 Y0.2516
X1.2937 Y0.2526
X1.297 Y0.2545
X1.3003 Y0.257
X1.3026 Y0.2594
X1.3049 Y0.2626
X1.3065 Y0.2659
X1.3073 Y0.2681
X1.3079 Y0.2703
X1.3082 Y0.2725
X1.3084 Y0.2747
Y2.6368
X1.3065 Y2.6758
X1.3042 Y2.6932
X1.301 Y2.7082
X1.2963 Y2.7197
X1.2891 Y2.7299
X1.28 Y2.7384
X1.2693 Y2.7447
X1.2575 Y2.7487
X1.2451 Y2.75
G3 X1.2356 Y2.7478 I0.0009 J-0.025 F30
X1.223 Y2.7152 I0.0104 J-0.0227 F39.37
G1 X1.2604 Y2.6278
G3 X1.3062 Y2.6273 I0.023 J0.0098
X1.3084 Y2.6368 I-0.0227 J0.0104 F30
G1 Y2.7253 F39.37
X1.3082 Y2.7275
X1.3079 Y2.7297
X1.3073 Y2.7319
X1.3065 Y2.7341
X1.3049 Y2.7374
X1.3026 Y2.7406
X1.3003 Y2.743
X1.297 Y2.7455
X1.2937 Y2.7474
X1.2915 Y2.7484
X1.2893 Y2.7491
X1.2871 Y2.7496
X1.2849 Y2.7499
X1.276 Y2.75
X1.1963
X1.1942 Y2.7495 Z-0.1197 F30
X1.1922 Y2.7491 Z-0.119
X1.1904 Y2.7487 Z-0.1179
X1.1889 Y2.7484 Z-0.1163
X1.1877 Y2.7482 Z-0.1145
X1.1871 Y2.7479 Z-0.1124
X1.1868 Y2.7478 Z-0.1102
G0 Z0.2
X3.4733 Y2.6985
Z-0.07
G1 Z-0.095 F30
X3.4731 Y2.6986 Z-0.0989
X3.4723 Y2.6991 Z-0.1027
X3.471 Y2.6999 Z-0.1063
X3.4692 Y2.7009 Z-0.1097
X3.467 Y2.7022 Z-0.1127
X3.4645 Y2.7037 Z-0.1152
X3.4616 Y2.7055 Z-0.1173
X3.4585 Y2.7073 Z-0.1188
X3.4552 Y2.7093 Z-0.1197
X3.4518 Y2.7113 Z-0.12
G3 X3.3199 Y2.75 I-0.1416 J-0.2381
G1 X3.2933 F39.37
X3.2873 Y2.7497
X3.2817 Y2.7477
X3.2765 Y2.7447
X3.2717 Y2.7412
X3.2663 Y2.7365
X3.2603 Y2.7303
X3.2537 Y2.7223
X3.2465 Y2.7119
X3.2388 Y2.6987
X3.2305 Y2.6815
X3.2219 Y2.659
X3.2128 Y2.6284
X3.2048 Y2.5903
X3.1994 Y2.5517
X3.1958 Y2.5128
X3.1934 Y2.4739
X3.1923 Y2.4489
Y2.4472
G3 X3.1945 Y2.4377 I0.025 J0.0009 F30
G1 X3.1961 Y2.4342 Z-0.1197
X3.1977 Y2.4307 Z-0.1188
X3.1992 Y2.4274 Z-0.1173
X3.2006 Y2.4244 Z-0.1152
X3.2018 Y2.4217 Z-0.1127
X3.2029 Y2.4193 Z-0.1097
X3.2037 Y2.4175 Z-0.1063
X3.2044 Y2.4161 Z-0.1027
X3.2047 Y2.4153 Z-0.0989
X3.2049 Y2.415 Z-0.095
G0 Z0.2
X3.3052 Y2.719
Z-0.07
G1 Z-0.095 F30
X3.3051 Y2.7193 Z-0.0989
X3.305 Y2.7202 Z-0.1027
X3.3047 Y2.7216 Z-0.1063
X3.3043 Y2.7237 Z-0.1097
X3.3039 Y2.7262 Z-0.1127
X3.3034 Y2.7291 Z-0.1152
X3.3028 Y2.7324 Z-0.1173
X3.3021 Y2.736 Z-0.1188
X3.3015 Y2.7397 Z-0.1197
X3.3008 Y2.7436 Z-0.12
G3 X3.2933 Y2.75 I-0.0077 J-0.0014
G1 X3.2594 F39.37
X3.2534 Y2.7497
X3.2475 Y2.7489
X3.2413 Y2.7474
X3.2349 Y2.7454
X3.2277 Y2.7424
X3.2241 Y2.7406
X3.2134 Y2.7336
X3.2045 Y2.7244
X3.1978 Y2.7135
X3.1937 Y2.7014
X3.1923 Y2.6886
G3 X3.1945 Y2.6791 I0.025 J0.0009 F30
X3.2336 Y2.6706 I0.0227 J0.0104 F39.37
G1 X3.2748 Y2.7061
G3 X3.2689 Y2.7478 I-0.0163 J0.019
X3.2594 Y2.75 I-0.0104 J-0.0227 F30
G1 X3.224 F39.37
X3.2151 Y2.7498
X3.2129 Y2.7495
X3.2107 Y2.7489
X3.2085 Y2.7481
X3.2063 Y2.7471
X3.2033 Y2.7453
X3.2004 Y2.743
X3.1988 Y2.7414
X3.1974 Y2.7398
X3.1956 Y2.7369
X3.1942 Y2.7341
X3.1934 Y2.7319
X3.1928 Y2.7297
X3.1924 Y2.7275
X3.1923 Y2.7253
Y0.3543
X3.1939 Y0.3222
X3.1961 Y0.3052
X3.198 Y0.2961
X3.2022 Y0.2836
X3.2091 Y0.2724
X3.2184 Y0.263
X3.2295 Y0.2559
X3.242 Y0.2515
X3.2551 Y0.25
G3 X3.2646 Y0.2522 I-0.0009 J0.025 F30
X3.2768 Y0.2856 I-0.0104 J0.0227 F39.37
G1 X3.2399 Y0.3641
G3 X3.1945 Y0.3638 I-0.0226 J-0.0107
X3.1923 Y0.3543 I0.0227 J-0.0104 F30
G1 Y0.2747 F39.37
X3.1924 Y0.2725
X3.1928 Y0.2703
X3.1934 Y0.2681
X3.1942 Y0.2659
X3.1956 Y0.2631
X3.1974 Y0.2602
X3.1988 Y0.2586
X3.2004 Y0.257
X3.2033 Y0.2547
X3.2063 Y0.2529
X3.2085 Y0.2519
X3.2107 Y0.2511
X3.2129 Y0.2505
X3.2151 Y0.2502
X3.224 Y0.25
X3.3037
X3.3058 Y0.2505 Z-0.1197 F30
X3.3078 Y0.2509 Z-0.119
X3.3096 Y0.2513 Z-0.1179
X3.3111 Y0.2516 Z-0.1163
X3.3123 Y0.2518 Z-0.1145
X3.3129 Y0.2521 Z-0.1124
X3.3132 Y0.2522 Z-0.1102
G0 Z0.2
X1.1241 Y0.3015
Z-0.05
G1 Z-0.075 F30
X1.1243 Y0.3014 Z-0.0789
X1.1251 Y0.3009 Z-0.0827
X1.1264 Y0.3001 Z-0.0863
X1.1282 Y0.2991 Z-0.0897
X1.1304 Y0.2978 Z-0.0927
X1.1329 Y0.2963 Z-0.0952
X1.1358 Y0.2945 Z-0.0973
X1.1389 Y0.2927 Z-0.0988
X1.1422 Y0.2907 Z-0.0997
X1.1456 Y0.2887 Z-0.1
G3 X1.2775 Y0.25 I0.1416 J0.2381
G1 X1.3026 F39.37
X1.3086 Y0.2503
X1.3143 Y0.2521
X1.3195 Y0.255
X1.3244 Y0.2586
X1.3297 Y0.2631
X1.3356 Y0.2691
X1.3421 Y0.277
X1.3493 Y0.287
X1.357 Y0.3
X1.3652 Y0.3166
X1.3738 Y0.3385
X1.3828 Y0.3681
X1.3911 Y0.4062
X1.3967 Y0.4448
X1.4005 Y0.4836
X1.403 Y0.5225
X1.4047 Y0.5614
X1.4059 Y0.6004
X1.4067 Y0.6394
X1.4072 Y0.6784
X1.4076 Y0.7174
X1.4079 Y0.7564
X1.408 Y0.7954
X1.4082 Y0.8733
X1.4083 Y0.9903
X1.4084 Y1.3412
Y2.199
Y2.6279
X1.4078 Y2.6611
X1.4056 Y2.6825
X1.4025 Y2.6998
X1.4007 Y2.7067
X1.3961 Y2.7185
X1.389 Y2.7291
X1.3798 Y2.7379
X1.369 Y2.7445
X1.3569 Y2.7486
X1.3443 Y2.75
X1.2849
G3 X1.2754 Y2.7478 I0.0009 J-0.025 F30
G1 X1.2718 Y2.7461 Z-0.0997
X1.2683 Y2.7446 Z-0.0988
X1.2651 Y2.7431 Z-0.0973
X1.262 Y2.7417 Z-0.0952
X1.2593 Y2.7404 Z-0.0927
X1.257 Y2.7394 Z-0.0897
X1.2551 Y2.7385 Z-0.0863
X1.2537 Y2.7379 Z-0.0827
X1.2529 Y2.7375 Z-0.0789
X1.2526 Y2.7374 Z-0.075
G0 Z0.2
X1.2908 Y0.281
Z-0.05
G1 Z-0.075 F30
Y0.2807 Z-0.0789
X1.291 Y0.2798 Z-0.0827
X1.2912 Y0.2784 Z-0.0863
X1.2916 Y0.2763 Z-0.0897
X1.292 Y0.2738 Z-0.0927
X1.2926 Y0.2709 Z-0.0952
X1.2932 Y0.2676 Z-0.0973
X1.2938 Y0.264 Z-0.0988
X1.2945 Y0.2603 Z-0.0997
X1.2952 Y0.2564 Z-0.1
G3 X1.3026 Y0.25 I0.0077 J0.0014
G1 X1.338 F39.37
X1.344 Y0.2503
X1.3499 Y0.2512
X1.3562 Y0.2528
X1.3626 Y0.2549
X1.3701 Y0.2581
X1.3778 Y0.2622
X1.3862 Y0.2674
X1.3956 Y0.2745
X1.401 Y0.2793
X1.4093 Y0.2884
X1.4155 Y0.299
X1.4194 Y0.3107
X1.4207 Y0.323
G3 X1.4185 Y0.3325 I-0.025 J-0.0009 F30
X1.3797 Y0.3414 I-0.0227 J-0.0104 F39.37
G1 X1.3229 Y0.2942
G3 X1.3285 Y0.2522 I0.016 J-0.0192
X1.338 Y0.25 I0.0104 J0.0227 F30
G1 X1.3956 F39.37
X1.3978 Y0.2501
X1.4 Y0.2505
X1.4022 Y0.251
X1.4044 Y0.2518
X1.4066 Y0.2528
X1.4088 Y0.2541
X1.4126 Y0.257
X1.4142 Y0.2587
X1.4156 Y0.2603
X1.4177 Y0.2636
X1.4188 Y0.2659
X1.4196 Y0.2681
X1.4202 Y0.2703
X1.4205 Y0.2725
X1.4207 Y0.2747
Y2.7253
X1.4205 Y2.7275
X1.4202 Y2.7297
X1.4196 Y2.7319
X1.4188 Y2.7341
X1.4177 Y2.7364
X1.4156 Y2.7397
X1.4142 Y2.7413
X1.4126 Y2.743
X1.4088 Y2.7459
X1.4066 Y2.7472
X1.4044 Y2.7482
X1.4022 Y2.749
X1.4 Y2.7495
X1.3978 Y2.7499
X1.3956 Y2.75
X1.3443
X1.3422 Y2.7495 Z-0.0997 F30
X1.3402 Y2.7491 Z-0.099
X1.3383 Y2.7487 Z-0.0979
X1.3368 Y2.7484 Z-0.0963
X1.3357 Y2.7482 Z-0.0945
X1.335 Y2.7479 Z-0.0924
X1.3348 Y2.7478 Z-0.0902
G0 Z0.2
X3.3759 Y2.6985
Z-0.05
G1 Z-0.075 F30
X3.3757 Y2.6986 Z-0.0789
X3.3749 Y2.6991 Z-0.0827
X3.3736 Y2.6999 Z-0.0863
X3.3718 Y2.7009 Z-0.0897
X3.3696 Y2.7022 Z-0.0927
X3.3671 Y2.7037 Z-0.0952
X3.3642 Y2.7055 Z-0.0973
X3.3611 Y2.7073 Z-0.0988
X3.3578 Y2.7093 Z-0.0997
X3.3544 Y2.7113 Z-0.1
G3 X3.2225 Y2.75 I-0.1416 J-0.2381
G1 X3.1974 F39.37
X3.1914 Y2.7497
X3.1858 Y2.7477
X3.1806 Y2.7447
X3.1757 Y2.7412
X3.1704 Y2.7365
X3.1644 Y2.7303
X3.1578 Y2.7222
X3.1506 Y2.7119
X3.1428 Y2.6986
X3.1346 Y2.6814
X3.1259 Y2.6589
X3.1169 Y2.6283
X3.1089 Y2.5901
X3.1035 Y2.5515
X3.0999 Y2.5127
X3.0974 Y2.4737
X3.0958 Y2.4348
X3.0947 Y2.3958
X3.0939 Y2.3568
X3.0934 Y2.3178
X3.093 Y2.2788
X3.0928 Y2.2399
X3.0926 Y2.2009
X3.0924 Y2.1229
X3.0923 Y2.0059
Y1.655
Y0.7972
Y0.3683
X3.093 Y0.3371
X3.0953 Y0.316
X3.0985 Y0.299
X3.1001 Y0.293
X3.1047 Y0.2812
X3.1118 Y0.2707
X3.121 Y0.262
X3.1318 Y0.2554
X3.1438 Y0.2514
X3.1564 Y0.25
X3.2377
G3 X3.2472 Y0.2522 I-0.0009 J0.025 F30
G1 X3.2508 Y0.2539 Z-0.0997
X3.2542 Y0.2554 Z-0.0988
X3.2575 Y0.2569 Z-0.0973
X3.2606 Y0.2583 Z-0.0952
X3.2633 Y0.2596 Z-0.0927
X3.2656 Y0.2606 Z-0.0897
X3.2675 Y0.2615 Z-0.0863
X3.2688 Y0.2621 Z-0.0827
X3.2697 Y0.2625 Z-0.0789
X3.2699 Y0.2626 Z-0.075
G0 Z0.2
X3.2092 Y2.719
Z-0.05
G1 Z-0.075 F30
Y2.7193 Z-0.0789
X3.209 Y2.7202 Z-0.0827
X3.2088 Y2.7216 Z-0.0863
X3.2084 Y2.7237 Z-0.0897
X3.208 Y2.7262 Z-0.0927
X3.2074 Y2.7291 Z-0.0952
X3.2068 Y2.7324 Z-0.0973
X3.2062 Y2.736 Z-0.0988
X3.2055 Y2.7397 Z-0.0997
X3.2048 Y2.7436 Z-0.1
G3 X3.1974 Y2.75 I-0.0077 J-0.0014
G1 X3.162 F39.37
X3.156 Y2.7497
X3.1501 Y2.7487
X3.1437 Y2.7471
X3.1372 Y2.7449
X3.1297 Y2.7416
X3.1218 Y2.7373
X3.1135 Y2.732
X3.104 Y2.7247
X3.0947 Y2.7163
X3.0879 Y2.7076
X3.0829 Y2.6978
X3.0798 Y2.6872
X3.0788 Y2.6762
G3 X3.081 Y2.6667 I0.025 J0.0009 F30
X3.1198 Y2.6579 I0.0227 J0.0104 F39.37
G1 X3.1772 Y2.7058
G3 X3.1715 Y2.7478 I-0.016 J0.0192
X3.162 Y2.75 I-0.0104 J-0.0227 F30
G1 X3.1089 F39.37
X3.1 Y2.7496
X3.0978 Y2.7491
X3.0956 Y2.7484
X3.0934 Y2.7475
X3.0912 Y2.7463
X3.089 Y2.7448
X3.0869 Y2.743
X3.0843 Y2.7402
X3.0823 Y2.7374
X3.0807 Y2.7341
X3.0799 Y2.7319
X3.0793 Y2.7297
X3.0789 Y2.7275
X3.0788 Y2.7253
Y0.2747
X3.0789 Y0.2725
X3.0793 Y0.2703
X3.0799 Y0.2681
X3.0807 Y0.2659
X3.0823 Y0.2626
X3.0843 Y0.2598
X3.0869 Y0.257
X3.089 Y0.2552
X3.0912 Y0.2537
X3.0934 Y0.2525
X3.0956 Y0.2516
X3.0978 Y0.2509
X3.1 Y0.2504
X3.1089 Y0.25
X3.1564
X3.1585 Y0.2505 Z-0.0997 F30
X3.1605 Y0.2509 Z-0.099
X3.1623 Y0.2513 Z-0.0979
X3.1638 Y0.2516 Z-0.0963
X3.165 Y0.2518 Z-0.0945
X3.1657 Y0.2521 Z-0.0924
X3.1659 Y0.2522 Z-0.0902
G0 Z0.2
X1.2392 Y0.3015
Z-0.03
G1 Z-0.055 F30
X1.2394 Y0.3014 Z-0.0589
X1.2402 Y0.3009 Z-0.0627
X1.2415 Y0.3001 Z-0.0663
X1.2433 Y0.2991 Z-0.0697
X1.2455 Y0.2978 Z-0.0727
X1.248 Y0.2963 Z-0.0752
X1.2509 Y0.2945 Z-0.0773
X1.254 Y0.2927 Z-0.0788
X1.2573 Y0.2907 Z-0.0797
X1.2607 Y0.2887 Z-0.08
G3 X1.3926 Y0.25 I0.1416 J0.2381
G1 X1.4159 F39.37
X1.4219 Y0.2503
X1.4275 Y0.2524
X1.4327 Y0.2554
X1.4375 Y0.259
X1.4429 Y0.2638
X1.4489 Y0.2701
X1.4556 Y0.2782
X1.4628 Y0.2887
X1.4706 Y0.3022
X1.4788 Y0.3196
X1.4875 Y0.3425
X1.4966 Y0.3737
X1.5044 Y0.4119
X1.5097 Y0.4506
X1.5132 Y0.4894
X1.5156 Y0.5283
X1.5172 Y0.5673
X1.5183 Y0.6063
X1.5191 Y0.6452
X1.5196 Y0.6842
X1.5199 Y0.7232
X1.5202 Y0.7622
X1.5203 Y0.8012
X1.5205 Y0.8792
X1.5206 Y0.9962
X1.5207 Y1.3861
Y2.2049
Y2.6338
X1.5198 Y2.6641
X1.5175 Y2.6849
X1.5143 Y2.7018
X1.5128 Y2.7072
X1.5081 Y2.7189
X1.5011 Y2.7294
X1.4919 Y2.7381
X1.4811 Y2.7446
X1.4691 Y2.7486
X1.4566 Y2.75
X1.4
G3 X1.3905 Y2.7478 I0.0009 J-0.025 F30
G1 X1.3869 Y2.7461 Z-0.0797
X1.3835 Y2.7446 Z-0.0788
X1.3802 Y2.7431 Z-0.0773
X1.3771 Y2.7417 Z-0.0752
X1.3744 Y2.7404 Z-0.0727
X1.3721 Y2.7394 Z-0.0697
X1.3702 Y2.7385 Z-0.0663
X1.3689 Y2.7379 Z-0.0627
X1.368 Y2.7375 Z-0.0589
X1.3677 Y2.7374 Z-0.055
G0 Z0.2
X1.4041 Y0.281
Z-0.03
G1 Z-0.055 F30
Y0.2807 Z-0.0589
X1.4043 Y0.2798 Z-0.0627
X1.4045 Y0.2784 Z-0.0663
X1.4049 Y0.2763 Z-0.0697
X1.4054 Y0.2738 Z-0.0727
X1.4059 Y0.2709 Z-0.0752
X1.4065 Y0.2676 Z-0.0773
X1.4071 Y0.264 Z-0.0788
X1.4078 Y0.2603 Z-0.0797
X1.4085 Y0.2564 Z-0.08
G3 X1.4159 Y0.25 I0.0077 J0.0014
G1 X1.4491 F39.37
X1.4551 Y0.2503
X1.4611 Y0.2511
X1.4671 Y0.2525
X1.4736 Y0.2545
X1.4806 Y0.2573
X1.4887 Y0.2614
X1.4966 Y0.2662
X1.5056 Y0.2727
X1.5151 Y0.2808
X1.5246 Y0.2904
X1.5353 Y0.3029
X1.5398 Y0.3092
X1.5458 Y0.3197
X1.5495 Y0.3312
X1.5508 Y0.3433
G3 X1.5485 Y0.3528 I-0.025 J-0.0009 F30
X1.5092 Y0.3611 I-0.0227 J-0.0104 F39.37
G1 X1.4334 Y0.2937
G3 X1.4396 Y0.2522 I0.0166 J-0.0187
X1.4491 Y0.25 I0.0104 J0.0227 F30
G1 X1.5151 F39.37
X1.5211 Y0.2503
X1.5305 Y0.2531
X1.5388 Y0.2584
X1.5453 Y0.2659
X1.5494 Y0.2748
X1.5508 Y0.2846
G3 X1.5491 Y0.2942 I-0.0353 J-0.0012 F30
X1.5408 Y0.308 I-0.0336 J-0.0109 F39.37
X1.4917 Y0.2604 I-0.0245 J-0.0238
X1.5055 Y0.2517 I0.0245 J0.0238
X1.5151 Y0.25 I0.0108 J0.0324 F30
G1 X1.5239 F39.37
X1.5284 Y0.2502
X1.5306 Y0.2506
X1.5328 Y0.2511
X1.535 Y0.2519
X1.5372 Y0.253
X1.5394 Y0.2544
X1.5417 Y0.2561
X1.5427 Y0.257
X1.5448 Y0.2592
X1.5465 Y0.2614
X1.5478 Y0.2637
X1.5489 Y0.2659
X1.5499 Y0.2688
X1.5505 Y0.2718
X1.5508 Y0.2747
Y2.7125
X1.5505 Y2.7186
X1.5477 Y2.7286
X1.5421 Y2.7374
X1.5344 Y2.7442
X1.525 Y2.7485
X1.5147 Y2.75
G3 X1.5051 Y2.7484 I0.0013 J-0.0374 F30
X1.4901 Y2.7396 I0.011 J-0.0358 F39.37
X1.5398 Y2.6878 I0.0248 J-0.0259
X1.5491 Y2.7028 I-0.0248 J0.0259
X1.5508 Y2.7125 I-0.0342 J0.0109 F30
G1 Y2.7253 F39.37
X1.5505 Y2.7282
X1.5499 Y2.7312
X1.5489 Y2.7341
X1.5478 Y2.7363
X1.5465 Y2.7386
X1.5448 Y2.7408
X1.5427 Y2.743
X1.5417 Y2.7439
X1.5394 Y2.7456
X1.5372 Y2.747
X1.535 Y2.7481
X1.5328 Y2.7489
X1.5306 Y2.7494
X1.5284 Y2.7498
X1.5239 Y2.75
X1.4566
X1.4544 Y2.7495 Z-0.0797 F30
X1.4524 Y2.7491 Z-0.079
X1.4506 Y2.7487 Z-0.0779
X1.4491 Y2.7484 Z-0.0763
X1.448 Y2.7482 Z-0.0745
X1.4473 Y2.7479 Z-0.0724
X1.4471 Y2.7478 Z-0.0702
G0 Z0.2
X3.2623 Y2.6985
Z-0.03
G1 Z-0.055 F30
X3.262 Y2.6986 Z-0.0589
X3.2612 Y2.6991 Z-0.0627
X3.2599 Y2.6999 Z-0.0663
X3.2582 Y2.7009 Z-0.0697
X3.256 Y2.7022 Z-0.0727
X3.2534 Y2.7037 Z-0.0752
X3.2506 Y2.7055 Z-0.0773
X3.2474 Y2.7073 Z-0.0788
X3.2442 Y2.7093 Z-0.0797
X3.2408 Y2.7113 Z-0.08
G3 X3.1089 Y2.75 I-0.1416 J-0.2381
G1 X3.0841 F39.37
X3.0781 Y2.7497
X3.0724 Y2.7478
X3.0672 Y2.7448
X3.0624 Y2.7412
X3.0571 Y2.7366
X3.0511 Y2.7304
X3.0445 Y2.7225
X3.0373 Y2.7122
X3.0296 Y2.699
X3.0213 Y2.682
X3.0127 Y2.6597
X3.0036 Y2.6293
X2.9956 Y2.5912
X2.9901 Y2.5526
X2.9865 Y2.5138
X2.984 Y2.4748
X2.9823 Y2.4359
X2.9812 Y2.3969
X2.9804 Y2.3579
X2.9799 Y2.3189
X2.9795 Y2.28
X2.9793 Y2.241
X2.9791 Y2.202
X2.9789 Y2.124
X2.9788 Y2.007
Y1.6561
Y0.7983
Y0.3694
X2.9795 Y0.3376
X2.9817 Y0.3165
X2.9849 Y0.2994
X2.9866 Y0.2931
X2.9912 Y0.2813
X2.9983 Y0.2708
X3.0074 Y0.262
X3.0183 Y0.2554
X3.0303 Y0.2514
X3.0429 Y0.25
X3.1
G3 X3.1095 Y0.2522 I-0.0009 J0.025 F30
G1 X3.1131 Y0.2539 Z-0.0797
X3.1165 Y0.2554 Z-0.0788
X3.1198 Y0.2569 Z-0.0773
X3.1229 Y0.2583 Z-0.0752
X3.1256 Y0.2596 Z-0.0727
X3.1279 Y0.2606 Z-0.0697
X3.1298 Y0.2615 Z-0.0663
X3.1311 Y0.2621 Z-0.0627
X3.132 Y0.2625 Z-0.0589
X3.1323 Y0.2626 Z-0.055
G0 Z0.2
X3.0959 Y2.719
Z-0.03
G1 Z-0.055 F30
Y2.7193 Z-0.0589
X3.0957 Y2.7202 Z-0.0627
X3.0955 Y2.7216 Z-0.0663
X3.0951 Y2.7237 Z-0.0697
X3.0946 Y2.7262 Z-0.0727
X3.0941 Y2.7291 Z-0.0752
X3.0935 Y2.7324 Z-0.0773
X3.0929 Y2.736 Z-0.0788
X3.0922 Y2.7397 Z-0.0797
X3.0915 Y2.7436 Z-0.08
G3 X3.0841 Y2.75 I-0.0077 J-0.0014
G1 X3.0509 F39.37
X3.0443 Y2.7497
X3.0384 Y2.7489
X3.0322 Y2.7475
X3.0259 Y2.7455
X3.0188 Y2.7426
X3.0108 Y2.7386
X3.0028 Y2.7337
X2.9937 Y2.7271
X2.9844 Y2.7192
X2.9748 Y2.7095
X2.964 Y2.6969
X2.9614 Y2.6931
X2.9554 Y2.6826
X2.9516 Y2.6711
X2.9504 Y2.6591
G3 X2.9526 Y2.6496 I0.025 J0.0009 F30
X2.9918 Y2.6411 I0.0227 J0.0104 F39.37
G1 X3.0664 Y2.7062
G3 X3.0604 Y2.7478 I-0.0164 J0.0188
X3.0509 Y2.75 I-0.0104 J-0.0227 F30
G1 X2.9849 F39.37
X2.9789 Y2.7497
X2.9699 Y2.7471
X2.9619 Y2.742
X2.9557 Y2.7349
X2.9518 Y2.7263
X2.9504 Y2.7169
G3 X2.9521 Y2.7073 I0.0344 J0.0012 F30
X2.96 Y2.6942 I0.0327 J0.0108 F39.37
X3.0076 Y2.7399 I0.0238 J0.0228
X2.9945 Y2.7482 I-0.0238 J-0.0228
X2.9849 Y2.75 I-0.0108 J-0.0312 F30
G1 X2.9761 F39.37
X2.9716 Y2.7496
X2.9694 Y2.7492
X2.9672 Y2.7485
X2.965 Y2.7475
X2.9628 Y2.7464
X2.9606 Y2.7449
X2.9583 Y2.7429
X2.9563 Y2.7407
X2.9547 Y2.7385
X2.9533 Y2.7363
X2.9523 Y2.7341
X2.9515 Y2.7319
X2.9509 Y2.7297
X2.9506 Y2.7275
X2.9504 Y2.7253
Y0.2875
X2.9508 Y0.2803
X2.9535 Y0.2706
X2.9588 Y0.2622
X2.9663 Y0.2556
X2.9754 Y0.2514
X2.9852 Y0.25
G3 X2.9949 Y0.2516 I-0.0013 J0.0385 F30
X3.0101 Y0.2603 I-0.011 J0.0369 F39.37
X2.9617 Y0.3123 I-0.0242 J0.026
X2.9521 Y0.2972 I0.0242 J-0.026
X2.9504 Y0.2875 I0.0338 J-0.0109 F30
G1 Y0.2747 F39.37
X2.9506 Y0.2725
X2.9509 Y0.2703
X2.9515 Y0.2681
X2.9523 Y0.2659
X2.9533 Y0.2637
X2.9547 Y0.2615
X2.9563 Y0.2593
X2.9585 Y0.257
X2.9606 Y0.2551
X2.9628 Y0.2536
X2.965 Y0.2525
X2.9672 Y0.2515
X2.9694 Y0.2508
X2.9716 Y0.2504
X2.9761 Y0.25
X3.0429
X3.045 Y0.2505 Z-0.0797 F30
X3.047 Y0.2509 Z-0.079
X3.0488 Y0.2513 Z-0.0779
X3.0503 Y0.2516 Z-0.0763
X3.0515 Y0.2518 Z-0.0745
X3.0522 Y0.2521 Z-0.0724
X3.0524 Y0.2522 Z-0.0702
G0 Z0.2
X3.1295 Y2.6985
Z-0.01
G1 Z-0.035 F30
X3.1292 Y2.6986 Z-0.0389
X3.1284 Y2.6991 Z-0.0427
X3.1271 Y2.6999 Z-0.0463
X3.1254 Y2.7009 Z-0.0497
X3.1232 Y2.7022 Z-0.0527
X3.1206 Y2.7037 Z-0.0552
X3.1177 Y2.7055 Z-0.0573
X3.1146 Y2.7073 Z-0.0588
X3.1113 Y2.7093 Z-0.0597
X3.108 Y2.7113 Z-0.06
G3 X2.9761 Y2.75 I-0.1416 J-0.2381
G1 X2.9557 F39.37
X2.9497 Y2.7497
X2.944 Y2.7478
X2.9388 Y2.7448
X2.934 Y2.7412
X2.9287 Y2.7365
X2.9227 Y2.7304
X2.916 Y2.7224
X2.9088 Y2.7121
X2.9011 Y2.6988
X2.8929 Y2.6818
X2.8842 Y2.6594
X2.8752 Y2.6289
X2.8671 Y2.5908
X2.8617 Y2.5522
X2.8581 Y2.5133
X2.8556 Y2.4744
X2.8539 Y2.4355
X2.8528 Y2.3965
X2.852 Y2.3575
X2.8515 Y2.3185
X2.8512 Y2.2795
X2.8509 Y2.2406
X2.8508 Y2.2016
X2.8506 Y2.1236
X2.8504 Y2.0066
Y1.6557
Y0.7979
Y0.369
X2.8512 Y0.3374
X2.8534 Y0.3162
X2.8565 Y0.2993
X2.8582 Y0.2931
X2.8628 Y0.2813
X2.8699 Y0.2707
X2.8791 Y0.262
X2.8899 Y0.2554
X2.9019 Y0.2514
X2.9145 Y0.25
X2.9672
G3 X2.9767 Y0.2522 I-0.0009 J0.025 F30
G1 X2.9803 Y0.2539 Z-0.0597
X2.9837 Y0.2554 Z-0.0588
X2.987 Y0.2569 Z-0.0573
X2.9901 Y0.2583 Z-0.0552
X2.9928 Y0.2596 Z-0.0527
X2.9951 Y0.2606 Z-0.0497
X2.997 Y0.2615 Z-0.0463
X2.9983 Y0.2621 Z-0.0427
X2.9992 Y0.2625 Z-0.0389
X2.9994 Y0.2626 Z-0.035
G0 Z0.2
X2.9675 Y2.719
Z-0.01
G1 Z-0.035 F30
X2.9674 Y2.7193 Z-0.0389
X2.9673 Y2.7202 Z-0.0427
X2.967 Y2.7216 Z-0.0463
X2.9667 Y2.7237 Z-0.0497
X2.9662 Y2.7262 Z-0.0527
X2.9657 Y2.7291 Z-0.0552
X2.9651 Y2.7324 Z-0.0573
X2.9645 Y2.736 Z-0.0588
X2.9638 Y2.7397 Z-0.0597
X2.9631 Y2.7436 Z-0.06
G3 X2.9557 Y2.75 I-0.0077 J-0.0014
G1 X2.9229 F39.37
X2.916 Y2.7497
X2.91 Y2.7489
X2.9039 Y2.7475
X2.8975 Y2.7455
X2.8904 Y2.7426
X2.8824 Y2.7386
X2.8745 Y2.7337
X2.8653 Y2.7271
X2.856 Y2.7192
X2.8464 Y2.7095
X2.8357 Y2.6969
X2.8255 Y2.6827
X2.8145 Y2.6644
X2.8037 Y2.6428
X2.7926 Y2.615
X2.7829 Y2.584
X2.7815 Y2.5783
X2.7806 Y2.5725
X2.7803 Y2.5667
G3 X2.7825 Y2.5572 I0.025 J0.0009 F30
X2.8254 Y2.5527 I0.0227 J0.0104 F39.37
G1 X2.9421 Y2.7101
G3 X2.9324 Y2.7478 I-0.0201 J0.0149
X2.9229 Y2.75 I-0.0104 J-0.0227 F30
G1 X2.8561 F39.37
X2.8501 Y2.7497
X2.843 Y2.7487
X2.8353 Y2.747
X2.8266 Y2.7443
X2.8178 Y2.7408
X2.8127 Y2.7383
X2.8018 Y2.7313
X2.7928 Y2.7221
X2.786 Y2.7111
X2.7817 Y2.6989
X2.7803 Y2.686
G3 X2.7825 Y2.6765 I0.025 J0.0009 F30
X2.8205 Y2.667 I0.0227 J0.0104 F39.37
G1 X2.8704 Y2.7051
G3 X2.8656 Y2.7478 I-0.0152 J0.0199
X2.8561 Y2.75 I-0.0104 J-0.0227 F30
G1 X2.8078 F39.37
X2.8034 Y2.7499
X2.8012 Y2.7495
X2.799 Y2.749
X2.7968 Y2.7483
X2.7945 Y2.7473
X2.7923 Y2.746
X2.7901 Y2.7444
X2.7884 Y2.743
X2.7863 Y2.7408
X2.7846 Y2.7386
X2.7832 Y2.7363
X2.7822 Y2.7341
X2.7813 Y2.7315
X2.7806 Y2.7284
X2.7803 Y2.7253
Y0.3366
X2.7813 Y0.3172
