%
(HookArm)
(T1  D=0.25 CR=0 - ZMIN=-0.81 - flat end mill)
G90
G17
G20
G28 G91 Z0
G90

(Face5)
M9
T1 M6
S18000 M3
G54
M9
G0 X3.5459 Y0.1744
Z0.6
Z0.2
G1 Z-0.035 F30
G18 G3 X3.5209 Z-0.06 I-0.025 K0
G1 X3.3839
X1.6786 F39.37
G17 G2 Y0.3856 I0 J0.1056
G1 X3.3839
G3 Y0.5969 I0 J0.1056
G1 X1.6786
G2 Y0.8081 I0 J0.1056
G1 X3.3839
G3 Y1.0193 I0 J0.1056
G1 X2.5445
G2 Y1.2306 I0 J0.1056
G1 X2.6339
X3.3839
G18 G2 X3.4089 Z-0.035 I0 K0.025 F30
G0 Z0.2
X2.237 Y1.0193
G1 Z-0.035 F30
G3 X2.212 Z-0.06 I-0.025 K0
G1 X2.1519
X1.6786 F39.37
G17 G2 Y1.2306 I0 J0.1056
G1 X1.9247
G2 Y1.1528 I0 J-0.0389
G1 X0.9286
X0.6919
X0.4576
G2 Y1.3871 I0 J0.1172
G1 X0.9286
G3 Y1.6214 I0 J0.1172
G1 X0.2232
X0.1161
G2 Y1.8558 I0 J0.1172
G1 X0.9286
G3 Y2.0901 I0 J0.1172
G1 X0.1161
G2 Y2.3244 I0 J0.1172
G1 X0.8309
G3 Y2.5588 I0 J0.1172
G1 X0.5966
X0.1161
G2 Y2.7931 I0 J0.1172
G1 X0.3622
G18 G2 X0.3872 Z-0.035 I0 K0.025 F30
G0 Z0.6
G17

(2D Pocket4)
M9
G0 X1.3486 Y0.1113
Z0.6
Z0.2394
G1 Z-0.175 F30
Y0.1116 Z-0.1789
Y0.1125 Z-0.1827
Y0.114 Z-0.1863
Y0.1161 Z-0.1897
Y0.1186 Z-0.1927
Y0.1216 Z-0.1952
Y0.1249 Z-0.1973
Y0.1286 Z-0.1988
Y0.1324 Z-0.1997
Y0.1363 Z-0.2
X1.3484 Y0.4504
X1.3477 Y1.8536 F39.37
G3 X1.3453 Y1.861 I-0.0125 J0
G1 X1.2805 Y1.9507
G3 X1.2579 Y1.9434 I-0.0101 J-0.0073
G1 Y0.5411
G3 X1.2611 Y0.5326 I0.0125 J0
G1 X1.5319 Y0.2367
G3 X1.5536 Y0.2451 I0.0092 J0.0084
G1 Y1.6478
G3 X1.5502 Y1.6564 I-0.0125 J0
G1 X1.0752 Y2.1563
G3 X1.0536 Y2.1476 I-0.0091 J-0.0086
G1 Y0.745
G3 X1.0563 Y0.7373 I0.0125 J0
G1 X1.3261 Y0.3917
G3 X1.3484 Y0.3994 I0.0099 J0.0077
G1 Y0.4033 Z-0.2003 F30
Y0.4071 Z-0.2012
Y0.4108 Z-0.2027
Y0.4141 Z-0.2048
Y0.4171 Z-0.2073
Y0.4196 Z-0.2103
Y0.4217 Z-0.2137
Y0.4232 Z-0.2173
Y0.4241 Z-0.2211
Y0.4244 Z-0.225
Z-0.2925
Y0.4247 Z-0.2964
Y0.4256 Z-0.3002
Y0.4271 Z-0.3038
Y0.4292 Z-0.3072
Y0.4317 Z-0.3102
Y0.4347 Z-0.3127
Y0.4381 Z-0.3148
Y0.4417 Z-0.3163
Y0.4455 Z-0.3172
Y0.4494 Z-0.3175
Y0.4504
X1.3477 Y1.8536 F39.37
G3 X1.3453 Y1.861 I-0.0125 J0
G1 X1.2805 Y1.9507
G3 X1.2579 Y1.9434 I-0.0101 J-0.0073
G1 Y0.5411
G3 X1.2611 Y0.5326 I0.0125 J0
G1 X1.5319 Y0.2367
G3 X1.5536 Y0.2451 I0.0092 J0.0084
G1 Y1.6478
G3 X1.5502 Y1.6564 I-0.0125 J0
G1 X1.0752 Y2.1563
G3 X1.0536 Y2.1476 I-0.0091 J-0.0086
G1 Y0.745
G3 X1.0563 Y0.7373 I0.0125 J0
G1 X1.3261 Y0.3917
G3 X1.3484 Y0.3994 I0.0099 J0.0077
G1 Y0.4033 Z-0.3178 F30
Y0.4071 Z-0.3187
Y0.4108 Z-0.3202
Y0.4141 Z-0.3223
Y0.4171 Z-0.3248
Y0.4196 Z-0.3278
Y0.4217 Z-0.3312
Y0.4232 Z-0.3348
Y0.4241 Z-0.3386
Y0.4244 Z-0.3425
Z-0.41
Y0.4247 Z-0.4139
Y0.4256 Z-0.4177
Y0.4271 Z-0.4213
Y0.4292 Z-0.4247
Y0.4317 Z-0.4277
Y0.4347 Z-0.4302
Y0.4381 Z-0.4323
Y0.4417 Z-0.4338
Y0.4455 Z-0.4347
Y0.4494 Z-0.435
Y0.4504
X1.3477 Y1.8536 F39.37
G3 X1.3453 Y1.861 I-0.0125 J0
G1 X1.2805 Y1.9507
G3 X1.2579 Y1.9434 I-0.0101 J-0.0073
G1 Y0.5411
G3 X1.2611 Y0.5326 I0.0125 J0
G1 X1.5319 Y0.2367
G3 X1.5536 Y0.2451 I0.0092 J0.0084
G1 Y1.6478
G3 X1.5502 Y1.6564 I-0.0125 J0
G1 X1.0752 Y2.1563
G3 X1.0536 Y2.1476 I-0.0091 J-0.0086
G1 Y0.745
G3 X1.0539 Y0.7411 I0.025 J0 F30
G1 X1.0735 Y0.6176
X1.0741 Y0.6138 Z-0.4347
X1.0747 Y0.61 Z-0.4338
X1.0753 Y0.6064 Z-0.4323
X1.0758 Y0.6031 Z-0.4302
X1.0762 Y0.6002 Z-0.4277
X1.0766 Y0.5977 Z-0.4247
X1.077 Y0.5956 Z-0.4213
X1.0772 Y0.5942 Z-0.4177
X1.0773 Y0.5933 Z-0.4139
X1.0774 Y0.5929 Z-0.41
G0 Z0.6

(Drill3)
M9
X1.3036 Y1.1964
Z0.6
Z0.2
Z-0.235
Z-0.355
G1 Z-0.4975 F13.12
G0 Z-0.235
Z-0.4175
G1 Z-0.56 F13.12
G0 Z-0.235
Z-0.48
G1 Z-0.6225 F13.12
G0 Z-0.235
Z-0.5425
G1 Z-0.685 F13.12
G0 Z-0.235
Z-0.605
G1 Z-0.7475 F13.12
G0 Z-0.235
Z-0.6675
G1 Z-0.81 F13.12
G0 Z0.2
Z0.6

(2D Contour4)
M9
X3.5819 Y1.2783
Z0.6
Z0.2394
G1 Z-0.175 F13.12
X3.5816 Z-0.1789
X3.5807 Y1.2782 Z-0.1827
X3.5792 Z-0.1863
X3.5771 Y1.278 Z-0.1897
X3.5746 Y1.2779 Z-0.1927
X3.5716 Y1.2777 Z-0.1952
X3.5683 Y1.2775 Z-0.1973
X3.5647 Y1.2773 Z-0.1988
X3.5608 Y1.2771 Z-0.1997
X3.5569 Y1.2769 Z-0.2
X3.532 Y1.2754 F30
G3 X3.5085 Y1.249 I0.0015 J-0.025
G2 X3.5089 Y1.2358 I-0.2246 J-0.0132 F39.37
G1 Y0.1858
G2 X3.2839 Y-0.0392 I-0.225 J0
G1 X1.9253
G2 X1.7662 Y0.0267 I0 J0.225
G1 X0.0277 Y1.7652
G2 X-0.0089 Y1.8536 I0.0884 J0.0884
G1 Y2.9142
G2 X0.2045 Y3.0026 I0.125 J0
G1 X2.1658 Y1.0413
G3 X2.3602 Y0.9608 I0.1945 J0.1945
G1 X2.3839
G3 X2.5089 Y1.0858 I0 J0.125
G1 Y1.2358
G2 X2.7339 Y1.4608 I0.225 J0
G1 X3.2839
G2 X3.5085 Y1.249 I0 J-0.225
G3 X3.5349 Y1.2255 I0.025 J0.0015 F30
G1 X3.5599 Y1.2269
X3.5638 Y1.2272 Z-0.1997
X3.5676 Y1.2274 Z-0.1988
X3.5712 Y1.2276 Z-0.1973
X3.5745 Y1.2278 Z-0.1952
X3.5775 Y1.228 Z-0.1927
X3.5801 Y1.2281 Z-0.1897
X3.5821 Y1.2282 Z-0.1863
X3.5836 Y1.2283 Z-0.1827
X3.5845 Y1.2284 Z-0.1789
X3.5848 Z-0.175
G0 Z0.2
X3.5819 Y1.2783
G1 Z0.0394 F13.12
Z-0.375
X3.5816 Z-0.3789
X3.5807 Y1.2782 Z-0.3827
X3.5792 Z-0.3863
X3.5771 Y1.278 Z-0.3897
X3.5746 Y1.2779 Z-0.3927
X3.5716 Y1.2777 Z-0.3952
X3.5683 Y1.2775 Z-0.3973
X3.5647 Y1.2773 Z-0.3988
X3.5608 Y1.2771 Z-0.3997
X3.5569 Y1.2769 Z-0.4
X3.532 Y1.2754 F30
G3 X3.5085 Y1.249 I0.0015 J-0.025
G2 X3.5089 Y1.2358 I-0.2246 J-0.0132 F39.37
G1 Y0.1858
G2 X3.2839 Y-0.0392 I-0.225 J0
G1 X1.9253
G2 X1.7662 Y0.0267 I0 J0.225
G1 X0.0277 Y1.7652
G2 X-0.0089 Y1.8536 I0.0884 J0.0884
G1 Y2.9142
G2 X0.2045 Y3.0026 I0.125 J0
G1 X2.1658 Y1.0413
G3 X2.3602 Y0.9608 I0.1945 J0.1945
G1 X2.3839
G3 X2.5089 Y1.0858 I0 J0.125
G1 Y1.2358
G2 X2.7339 Y1.4608 I0.225 J0
G1 X3.2839
G2 X3.5085 Y1.249 I0 J-0.225
G3 X3.5349 Y1.2255 I0.025 J0.0015 F30
G1 X3.5599 Y1.2269
X3.5638 Y1.2272 Z-0.3997
X3.5676 Y1.2274 Z-0.3988
X3.5712 Y1.2276 Z-0.3973
X3.5745 Y1.2278 Z-0.3952
X3.5775 Y1.228 Z-0.3927
X3.5801 Y1.2281 Z-0.3897
X3.5821 Y1.2282 Z-0.3863
X3.5836 Y1.2283 Z-0.3827
X3.5845 Y1.2284 Z-0.3789
X3.5848 Z-0.375
G0 Z0.2
X3.5819 Y1.2783
G1 Z-0.1606 F13.12
Z-0.575
X3.5816 Z-0.5789
X3.5807 Y1.2782 Z-0.5827
X3.5792 Z-0.5863
X3.5771 Y1.278 Z-0.5897
X3.5746 Y1.2779 Z-0.5927
X3.5716 Y1.2777 Z-0.5952
X3.5683 Y1.2775 Z-0.5973
X3.5647 Y1.2773 Z-0.5988
X3.5608 Y1.2771 Z-0.5997
X3.5569 Y1.2769 Z-0.6
X3.532 Y1.2754 F30
G3 X3.5085 Y1.249 I0.0015 J-0.025
G2 X3.5089 Y1.2358 I-0.2246 J-0.0132 F39.37
G1 Y0.1858
G2 X3.2839 Y-0.0392 I-0.225 J0
G1 X1.9253
G2 X1.7662 Y0.0267 I0 J0.225
G1 X0.0277 Y1.7652
G2 X-0.0089 Y1.8536 I0.0884 J0.0884
G1 Y2.9142
G2 X0.2045 Y3.0026 I0.125 J0
G1 X2.1658 Y1.0413
G3 X2.3602 Y0.9608 I0.1945 J0.1945
G1 X2.3839
G3 X2.5089 Y1.0858 I0 J0.125
G1 Y1.2358
G2 X2.7339 Y1.4608 I0.225 J0
G1 X3.2839
G2 X3.5085 Y1.249 I0 J-0.225
G3 X3.5349 Y1.2255 I0.025 J0.0015 F30
G1 X3.5599 Y1.2269
X3.5638 Y1.2272 Z-0.5997
X3.5676 Y1.2274 Z-0.5988
X3.5712 Y1.2276 Z-0.5973
X3.5745 Y1.2278 Z-0.5952
X3.5775 Y1.228 Z-0.5927
X3.5801 Y1.2281 Z-0.5897
X3.5821 Y1.2282 Z-0.5863
X3.5836 Y1.2283 Z-0.5827
X3.5845 Y1.2284 Z-0.5789
X3.5848 Z-0.575
G0 Z0.2
X3.5819 Y1.2783
G1 Z-0.3606 F13.12
Z-0.68
X3.5816 Z-0.6839
X3.5807 Y1.2782 Z-0.6877
X3.5792 Z-0.6913
X3.5771 Y1.278 Z-0.6947
X3.5746 Y1.2779 Z-0.6977
X3.5716 Y1.2777 Z-0.7002
X3.5683 Y1.2775 Z-0.7023
X3.5647 Y1.2773 Z-0.7038
X3.5608 Y1.2771 Z-0.7047
X3.5569 Y1.2769 Z-0.705
X3.532 Y1.2754 F30
G3 X3.5085 Y1.249 I0.0015 J-0.025
G2 X3.5089 Y1.2358 I-0.2246 J-0.0132 F39.37
G1 Y0.1858
G2 X3.2839 Y-0.0392 I-0.225 J0
G1 X2.8765
Z-0.685
X2.3765
Z-0.705 F13.12
X1.9253 F39.37
G2 X1.7662 Y0.0267 I0 J0.225
G1 X0.8594 Y0.9334
Z-0.685
X0.5059 Y1.287
Z-0.705 F13.12
X0.0277 Y1.7652 F39.37
G2 X-0.0089 Y1.8536 I0.0884 J0.0884
G1 Y2.9142
G2 X0.2045 Y3.0026 I0.125 J0
G1 X1.0515 Y2.1556
Z-0.685
X1.405 Y1.8021
Z-0.705 F13.12
X2.1658 Y1.0413 F39.37
G3 X2.3602 Y0.9608 I0.1945 J0.1945
G1 X2.3839
G3 X2.5089 Y1.0858 I0 J0.125
G1 Y1.2358
G2 X2.7339 Y1.4608 I0.225 J0
G1 X2.791
Z-0.685
X3.2839
G2 X3.291 Y1.4607 I0 J-0.225
G1 Z-0.705 F13.12
G2 X3.5085 Y1.249 I-0.0072 J-0.2249 F39.37
G3 X3.5349 Y1.2255 I0.025 J0.0015 F30
G1 X3.5599 Y1.2269
X3.5638 Y1.2272 Z-0.7047
X3.5676 Y1.2274 Z-0.7038
X3.5712 Y1.2276 Z-0.7023
X3.5745 Y1.2278 Z-0.7002
X3.5775 Y1.228 Z-0.6977
X3.5801 Y1.2281 Z-0.6947
X3.5821 Y1.2282 Z-0.6913
X3.5836 Y1.2283 Z-0.6877
X3.5845 Y1.2284 Z-0.6839
X3.5848 Z-0.68
G0 Z0.2
X3.5819 Y1.2783
G1 Z-0.4656 F13.12
Z-0.785
X3.5816 Z-0.7889
X3.5807 Y1.2782 Z-0.7927
X3.5792 Z-0.7963
X3.5771 Y1.278 Z-0.7997
X3.5746 Y1.2779 Z-0.8027
X3.5716 Y1.2777 Z-0.8052
X3.5683 Y1.2775 Z-0.8073
X3.5647 Y1.2773 Z-0.8088
X3.5608 Y1.2771 Z-0.8097
X3.5569 Y1.2769 Z-0.81
X3.532 Y1.2754 F30
G3 X3.5085 Y1.249 I0.0015 J-0.025
G2 X3.5089 Y1.2358 I-0.2246 J-0.0132 F39.37
G1 Y0.1858
G2 X3.2839 Y-0.0392 I-0.225 J0
G1 X2.8765
Z-0.685
X2.3765
Z-0.81 F13.12
X1.9253 F39.37
G2 X1.7662 Y0.0267 I0 J0.225
G1 X0.8594 Y0.9334
Z-0.685
X0.5059 Y1.287
Z-0.81 F13.12
X0.0277 Y1.7652 F39.37
G2 X-0.0089 Y1.8536 I0.0884 J0.0884
G1 Y2.9142
G2 X0.2045 Y3.0026 I0.125 J0
G1 X1.0515 Y2.1556
Z-0.685
X1.405 Y1.8021
Z-0.81 F13.12
X2.1658 Y1.0413 F39.37
G3 X2.3602 Y0.9608 I0.1945 J0.1945
G1 X2.3839
G3 X2.5089 Y1.0858 I0 J0.125
G1 Y1.2358
G2 X2.7339 Y1.4608 I0.225 J0
G1 X2.791
Z-0.685
X3.2839
G2 X3.291 Y1.4607 I0 J-0.225
G1 Z-0.81 F13.12
G2 X3.5085 Y1.249 I-0.0072 J-0.2249 F39.37
G3 X3.5349 Y1.2255 I0.025 J0.0015 F30
G1 X3.5599 Y1.2269
X3.5638 Y1.2272 Z-0.8097
X3.5676 Y1.2274 Z-0.8088
X3.5712 Y1.2276 Z-0.8073
X3.5745 Y1.2278 Z-0.8052
X3.5775 Y1.228 Z-0.8027
X3.5801 Y1.2281 Z-0.7997
X3.5821 Y1.2282 Z-0.7963
X3.5836 Y1.2283 Z-0.7927
X3.5845 Y1.2284 Z-0.7889
X3.5848 Z-0.785
G0 Z0.6
M9
G28 G91 Z0
G28 X0 Y0
M30
%
