%
(TopArm)
(T1  D=0.25 CR=0 - ZMIN=-0.83 - flat end mill)
G90
G17
G20
G28 G91 Z0
G90

(Face1)
M9
T1 M6
S18000 M3
G54
M9
G0 X2.1214 Y1.7466
Z0.6
Z0.2
G1 Z-0.035 F30
G18 G3 X2.0964 Z-0.06 I-0.025 K0
G1 X2.0269
X1.8036 F39.37
G17 G2 Y1.9675 I0 J0.1105
G1 X2.2478
X2.361
G3 Y2.1884 I0 J0.1105
G1 X1.8036
G2 Y2.4094 I0 J0.1105
G1 X2.3603
G18 G2 X2.3853 Z-0.035 I0 K0.025 F30
G0 Z0.2
X4.7064 Y2.1884
G1 Z-0.035 F30
G2 X4.7314 Z-0.06 I0.025 K0
G1 X4.8689
X5.7589 F39.37
G17 G3 Y2.4094 I0 J0.1105
G1 X4.8689
G18 G3 X4.8439 Z-0.035 I0 K0.025 F30
G0 Z0.2
X5.9214 Y2.6303
G1 Z-0.035 F30
G3 X5.8964 Z-0.06 I-0.025 K0
G1 X5.7589
X1.8036 F39.37
G17 G2 Y2.8512 I0 J0.1105
G1 X1.8209
X5.7589
G3 Y3.0722 I0 J0.1105
G1 X4.9682
G2 Y3.2931 I0 J0.1105
G1 X5.0089
X5.7589
G18 G2 X5.7839 Z-0.035 I0 K0.025 F30
G0 Z0.2
X0.5723 Y0.1975
G1 Z-0.035 F30
G3 X0.5473 Z-0.06 I-0.025 K0
G1 X0.4778
X0.2411 F39.37
G17 G2 Y0.4318 I0 J0.1172
G1 X0.7122
X0.9465
G3 Y0.6662 I0 J0.1172
G1 X0.2411
G2 Y0.9005 I0 J0.1172
G1 X1.0536
G3 Y1.1348 I0 J0.1172
G1 X0.2411
G2 Y1.3692 I0 J0.1172
G1 X0.3388
X1.0536
G3 Y1.6035 I0 J0.1172
G1 X0.5732
G2 Y1.8378 I0 J0.1172
G1 X0.8075
X1.0536
G18 G2 X1.0786 Z-0.035 I0 K0.025 F30
G0 Z0.6
G17

(2D Pocket2)
M9
G0 X1.4744 Y0.8118
Z0.6
Z0.2394
G1 Z-0.175 F30
G19 G3 Y0.8368 Z-0.2 J0.025 K0
G1 Y1.1483
Y2.5506 F39.37
G17 G3 X1.4517 Y2.5579 I-0.0125 J0
G1 X1.3863 Y2.4673
G3 X1.3839 Y2.4599 I0.0101 J-0.0073
G1 X1.3846 Y1.0586
G3 X1.4063 Y1.0502 I0.0125 J0
G1 X1.6753 Y1.3438
G3 X1.6786 Y1.3523 I-0.0092 J0.0084
G1 Y2.7089
Y2.755
G3 X1.6571 Y2.7636 I-0.0125 J0
G1 X1.1821 Y2.2636
G3 X1.1786 Y2.255 I0.0091 J-0.0086
G1 Y0.8983
Y0.8522
G3 X1.1995 Y0.8429 I0.0125 J0
G1 X1.4703 Y1.088
G3 X1.4744 Y1.0973 I-0.0084 J0.0093
G19 G2 Y1.1223 Z-0.225 J0 K-0.025 F30
G1 Z-0.2925
G3 Y1.1473 Z-0.3175 J0.025 K0
G1 Y1.1483
Y2.5506 F39.37
G17 G3 X1.4517 Y2.5579 I-0.0125 J0
G1 X1.3863 Y2.4673
G3 X1.3839 Y2.4599 I0.0101 J-0.0073
G1 X1.3846 Y1.0586
G3 X1.4063 Y1.0502 I0.0125 J0
G1 X1.6753 Y1.3438
G3 X1.6786 Y1.3523 I-0.0092 J0.0084
G1 Y2.7089
Y2.755
G3 X1.6571 Y2.7636 I-0.0125 J0
G1 X1.1821 Y2.2636
G3 X1.1786 Y2.255 I0.0091 J-0.0086
G1 Y0.8983
Y0.8522
G3 X1.1995 Y0.8429 I0.0125 J0
G1 X1.4703 Y1.088
G3 X1.4744 Y1.0973 I-0.0084 J0.0093
G19 G2 Y1.1223 Z-0.3425 J0 K-0.025 F30
G1 Z-0.41
G3 Y1.1473 Z-0.435 J0.025 K0
G1 Y1.1483
Y2.5506 F39.37
G17 G3 X1.4517 Y2.5579 I-0.0125 J0
G1 X1.3863 Y2.4673
G3 X1.3839 Y2.4599 I0.0101 J-0.0073
G1 X1.3846 Y1.0586
G3 X1.4063 Y1.0502 I0.0125 J0
G1 X1.6753 Y1.3438
G3 X1.6786 Y1.3523 I-0.0092 J0.0084
G1 Y2.7089
Y2.755
G3 X1.6571 Y2.7636 I-0.0125 J0
G1 X1.1821 Y2.2636
G3 X1.1786 Y2.255 I0.0091 J-0.0086
G1 Y0.8983
Y0.8522
G3 X1.1789 Y0.8483 I0.025 J0 F30
G1 X1.1985 Y0.7248
X1.1991 Y0.721 Z-0.4347
X1.1997 Y0.7172 Z-0.4338
X1.2003 Y0.7136 Z-0.4323
X1.2008 Y0.7103 Z-0.4302
X1.2012 Y0.7074 Z-0.4277
X1.2016 Y0.7049 Z-0.4247
X1.202 Y0.7028 Z-0.4213
X1.2022 Y0.7014 Z-0.4177
X1.2023 Y0.7005 Z-0.4139
X1.2024 Y0.7002 Z-0.41
G0 Z0.6

(Drill1)
M9
X1.4286 Y1.8036
Z0.6
Z0.2
Z-0.235
Z-0.355
G1 Z-0.4975 F13.12
G0 Z-0.235
Z-0.4175
G1 Z-0.56 F13.12
G0 Z-0.235
Z-0.48
G1 Z-0.6225 F13.12
G0 Z-0.235
Z-0.5425
G1 Z-0.685 F13.12
G0 Z-0.235
Z-0.605
G1 Z-0.7475 F13.12
G0 Z-0.235
Z-0.6675
G1 Z-0.81 F13.12
G0 Z0.2
Z0.6

(2D Contour2)
M9
X5.6839 Y1.9642
Z0.6
Z0.2394
G1 Z-0.175 F13.12
G19 G3 Y1.9892 Z-0.2 J0.025 K0
G1 Y2.0142 F30
G17 G3 X5.6589 Y2.0392 I-0.025 J0
G1 X4.8689 F39.37
G2 X4.7439 Y2.1642 I0 J0.125
G1 Y2.4192
X2.4846
X2.486 Y2.1649
G2 X2.3718 Y2.0397 I-0.125 J-0.0007
G1 X0.3295 Y-0.0026
G2 X0.1161 Y0.0858 I-0.0884 J0.0884
G1 Y1.1464
G2 X0.1527 Y1.2348 I0.125 J0
G1 X1.8912 Y2.9733
G2 X2.0503 Y3.0392 I0.1591 J-0.1591
G1 X4.8839
Y3.3142
G2 X5.1089 Y3.5392 I0.225 J0
G1 X5.6589
G2 X5.8839 Y3.3142 I0 J-0.225
G1 Y2.2642
G2 X5.6589 Y2.0392 I-0.225 J0
G3 X5.6339 Y2.0142 I0 J-0.025 F30
G1 Y1.9892
G19 G2 Y1.9642 Z-0.175 J0 K0.025
G0 Z0.2
X5.6839
G1 Z0.0394 F13.12
Z-0.375
G3 Y1.9892 Z-0.4 J0.025 K0
G1 Y2.0142 F30
G17 G3 X5.6589 Y2.0392 I-0.025 J0
G1 X4.8689 F39.37
G2 X4.7439 Y2.1642 I0 J0.125
G1 Y2.4192
X2.4846
X2.486 Y2.1649
G2 X2.3718 Y2.0397 I-0.125 J-0.0007
G1 X0.3295 Y-0.0026
G2 X0.1161 Y0.0858 I-0.0884 J0.0884
G1 Y1.1464
G2 X0.1527 Y1.2348 I0.125 J0
G1 X1.8912 Y2.9733
G2 X2.0503 Y3.0392 I0.1591 J-0.1591
G1 X4.8839
Y3.3142
G2 X5.1089 Y3.5392 I0.225 J0
G1 X5.6589
G2 X5.8839 Y3.3142 I0 J-0.225
G1 Y2.2642
G2 X5.6589 Y2.0392 I-0.225 J0
G3 X5.6339 Y2.0142 I0 J-0.025 F30
G1 Y1.9892
G19 G2 Y1.9642 Z-0.375 J0 K0.025
G0 Z0.2
X5.6839
G1 Z-0.1606 F13.12
Z-0.575
G3 Y1.9892 Z-0.6 J0.025 K0
G1 Y2.0142 F30
G17 G3 X5.6589 Y2.0392 I-0.025 J0
G1 X4.8689 F39.37
G2 X4.7439 Y2.1642 I0 J0.125
G1 Y2.4192
X2.4846
X2.486 Y2.1649
G2 X2.3718 Y2.0397 I-0.125 J-0.0007
G1 X0.3295 Y-0.0026
G2 X0.1161 Y0.0858 I-0.0884 J0.0884
G1 Y1.1464
G2 X0.1527 Y1.2348 I0.125 J0
G1 X1.8912 Y2.9733
G2 X2.0503 Y3.0392 I0.1591 J-0.1591
G1 X4.8839
Y3.3142
G2 X5.1089 Y3.5392 I0.225 J0
G1 X5.6589
G2 X5.8839 Y3.3142 I0 J-0.225
G1 Y2.2642
G2 X5.6589 Y2.0392 I-0.225 J0
G3 X5.6339 Y2.0142 I0 J-0.025 F30
G1 Y1.9892
G19 G2 Y1.9642 Z-0.575 J0 K0.025
G0 Z0.2
X5.6839
G1 Z-0.3606 F13.12
Z-0.69
G3 Y1.9892 Z-0.715 J0.025 K0
G1 Y2.0142 F30
G17 G3 X5.6589 Y2.0392 I-0.025 J0
G1 X4.8689 F39.37
G2 X4.7439 Y2.1642 I0 J0.125
G1 Y2.4192
X3.8639
Z-0.705
X3.3639
Z-0.715 F13.12
X2.4846 F39.37
X2.486 Y2.1649
G2 X2.3718 Y2.0397 I-0.125 J-0.0007
G1 X1.5308 Y1.1987
Z-0.705
X1.1773 Y0.8452
Z-0.715 F13.12
X0.3295 Y-0.0026 F39.37
G2 X0.1161 Y0.0858 I-0.0884 J0.0884
G1 Y1.1464
G2 X0.1527 Y1.2348 I0.125 J0
G1 X0.8452 Y1.9273
Z-0.705
X1.1987 Y2.2808
Z-0.715 F13.12
X1.8912 Y2.9733 F39.37
G2 X2.0503 Y3.0392 I0.1591 J-0.1591
G1 X3.2171
Z-0.705
X3.7171
Z-0.715 F13.12
X4.8839 F39.37
Y3.3142
G2 X5.1089 Y3.5392 I0.225 J0
G1 X5.6589
G2 X5.8839 Y3.3142 I0 J-0.225
G1 Y2.2642
G2 X5.6589 Y2.0392 I-0.225 J0
G3 X5.6339 Y2.0142 I0 J-0.025 F30
G1 Y1.9892
G19 G2 Y1.9642 Z-0.69 J0 K0.025
G0 Z0.2
X5.6839
G1 Z-0.4756 F13.12
Z-0.805
G3 Y1.9892 Z-0.83 J0.025 K0
G1 Y2.0142 F30
G17 G3 X5.6589 Y2.0392 I-0.025 J0
G1 X4.8689 F39.37
G2 X4.7439 Y2.1642 I0 J0.125
G1 Y2.4192
X3.8639
Z-0.705
X3.3639
Z-0.83 F13.12
X2.4846 F39.37
X2.486 Y2.1649
G2 X2.3718 Y2.0397 I-0.125 J-0.0007
G1 X1.5308 Y1.1987
Z-0.705
X1.1773 Y0.8452
Z-0.83 F13.12
X0.3295 Y-0.0026 F39.37
G2 X0.1161 Y0.0858 I-0.0884 J0.0884
G1 Y1.1464
G2 X0.1527 Y1.2348 I0.125 J0
G1 X0.8452 Y1.9273
Z-0.705
X1.1987 Y2.2808
Z-0.83 F13.12
X1.8912 Y2.9733 F39.37
G2 X2.0503 Y3.0392 I0.1591 J-0.1591
G1 X3.2171
Z-0.705
X3.7171
Z-0.83 F13.12
X4.8839 F39.37
Y3.3142
G2 X5.1089 Y3.5392 I0.225 J0
G1 X5.6589
G2 X5.8839 Y3.3142 I0 J-0.225
G1 Y2.2642
G2 X5.6589 Y2.0392 I-0.225 J0
G3 X5.6339 Y2.0142 I0 J-0.025 F30
G1 Y1.9892
G19 G2 Y1.9642 Z-0.805 J0 K0.025
G0 Z0.6
G17
M9
G28 G91 Z0
G28 X0 Y0
M30
%
