%
(VerticalArm)
(T1  D=0.25 CR=0 - ZMIN=-0.82 - flat end mill)
G90
G17
G20
G28 G91 Z0
G90

(Face4)
M9
T1 M6
S18000 M3
G54
M9
G0 X5.3601 Y0.1902
Z0.6
Z0.2
G1 Z-0.035 F30
G18 G3 X5.3351 Z-0.06 I-0.025 K0
G1 X5.2657
X1.7343 F39.37
X1.5464
G17 G2 Y0.3781 I0 J0.0939
G1 X5.4536
X5.6414
G3 Y0.566 I0 J0.0939
G1 X1.3586
X1.1746
G2 Y0.7539 I0 J0.0939
G1 X5.8254
G18 G2 X5.8504 Z-0.035 I0 K0.025 F30
G0 Z0.6
G17

(2D Pocket3)
M9
G0 X1.1773 Y-0.2354
Z0.6
Z0.2394
G1 Z-0.175 F30
X1.1771 Y-0.2352 Z-0.1789
X1.1764 Y-0.2346 Z-0.1827
X1.1753 Y-0.2335 Z-0.1863
X1.1739 Y-0.232 Z-0.1897
X1.1721 Y-0.2302 Z-0.1927
X1.17 Y-0.2281 Z-0.1952
X1.1676 Y-0.2258 Z-0.1973
X1.1651 Y-0.2232 Z-0.1988
X1.1624 Y-0.2205 Z-0.1997
X1.1596 Y-0.2177 Z-0.2
X0.9377 Y0.0042
X0.0102 Y0.9316 F39.37
G3 X-0.048 Y0.8735 I-0.0291 J-0.0291
G1 X0.4139 Y0.4115
G3 X0.4158 Y0.4098 I0.0291 J0.0291
G1 X0.9086 Y-0.0249
G3 X0.9297 Y-0.0347 I0.0272 J0.0308
G1 X1.135 Y-0.0654
G3 X1.1702 Y0.0043 I0.0061 J0.0407
G1 X0.1786 Y0.9959
G3 X0.1205 Y0.9377 I-0.0291 J-0.0291
G1 X0.6145 Y0.4436
G3 X0.6163 Y0.4419 I0.0291 J0.0291
G1 X1.1411 Y-0.0248
G3 X1.1623 Y-0.0347 I0.0273 J0.0307
G1 X1.3679 Y-0.0657
G3 X1.4031 Y0.0041 I0.0061 J0.0407
G1 X0.4112 Y0.996
G3 X0.353 Y0.9378 I-0.0291 J-0.0291
G1 X0.8472 Y0.4435
G3 X0.849 Y0.4419 I0.0291 J0.0291
G1 X1.374 Y-0.025
G3 X1.3953 Y-0.035 I0.0273 J0.0307
G1 X1.6005 Y-0.0656
G3 X1.6356 Y0.0042 I0.0061 J0.0407
G1 X0.6441 Y0.9957
G3 X0.5859 Y0.9376 I-0.0291 J-0.0291
G1 X1.0799 Y0.4435
G3 X1.0817 Y0.4418 I0.0291 J0.0291
G1 X1.6066 Y-0.0249
G3 X1.6278 Y-0.0348 I0.0273 J0.0307
G1 X1.8333 Y-0.0654
G3 X1.8685 Y0.0043 I0.0061 J0.0407
G1 X1.8362 Y0.0366
X1.0862 Y0.7866
X0.8768 Y0.9959
G3 X0.8556 Y0.9854 I-0.0088 J-0.0088
G1 X0.9949 Y-0.0213
G2 X0.9737 Y-0.0318 I-0.0124 J-0.0017
G1 X0.9709 Y-0.0291 Z-0.2003 F30
X0.9682 Y-0.0264 Z-0.2012
X0.9657 Y-0.0238 Z-0.2027
X0.9633 Y-0.0215 Z-0.2048
X0.9612 Y-0.0193 Z-0.2073
X0.9594 Y-0.0175 Z-0.2103
X0.958 Y-0.0161 Z-0.2137
X0.9569 Y-0.015 Z-0.2173
X0.9562 Y-0.0144 Z-0.2211
X0.956 Y-0.0142 Z-0.225
Z-0.2925
X0.9558 Y-0.014 Z-0.2964
X0.9552 Y-0.0133 Z-0.3002
X0.9541 Y-0.0122 Z-0.3038
X0.9527 Y-0.0108 Z-0.3072
X0.9508 Y-0.009 Z-0.3102
X0.9487 Y-0.0069 Z-0.3127
X0.9464 Y-0.0045 Z-0.3148
X0.9438 Y-0.002 Z-0.3163
X0.9411 Y0.0007 Z-0.3172
X0.9383 Y0.0035 Z-0.3175
X0.9377 Y0.0042
X0.0102 Y0.9316 F39.37
G3 X-0.048 Y0.8735 I-0.0291 J-0.0291
G1 X0.4139 Y0.4115
G3 X0.4158 Y0.4098 I0.0291 J0.0291
G1 X0.9086 Y-0.0249
G3 X0.9297 Y-0.0347 I0.0272 J0.0308
G1 X1.135 Y-0.0654
G3 X1.1702 Y0.0043 I0.0061 J0.0407
G1 X0.1786 Y0.9959
G3 X0.1205 Y0.9377 I-0.0291 J-0.0291
G1 X0.6145 Y0.4436
G3 X0.6163 Y0.4419 I0.0291 J0.0291
G1 X1.1411 Y-0.0248
G3 X1.1623 Y-0.0347 I0.0273 J0.0307
G1 X1.3679 Y-0.0657
G3 X1.4031 Y0.0041 I0.0061 J0.0407
G1 X0.4112 Y0.996
G3 X0.353 Y0.9378 I-0.0291 J-0.0291
G1 X0.8472 Y0.4435
G3 X0.849 Y0.4419 I0.0291 J0.0291
G1 X1.374 Y-0.025
G3 X1.3953 Y-0.035 I0.0273 J0.0307
G1 X1.6005 Y-0.0656
G3 X1.6356 Y0.0042 I0.0061 J0.0407
G1 X0.6441 Y0.9957
G3 X0.5859 Y0.9376 I-0.0291 J-0.0291
G1 X1.0799 Y0.4435
G3 X1.0817 Y0.4418 I0.0291 J0.0291
G1 X1.6066 Y-0.0249
G3 X1.6278 Y-0.0348 I0.0273 J0.0307
G1 X1.8333 Y-0.0654
G3 X1.8685 Y0.0043 I0.0061 J0.0407
G1 X1.8362 Y0.0366
X1.0862 Y0.7866
X0.8768 Y0.9959
G3 X0.8556 Y0.9854 I-0.0088 J-0.0088
G1 X0.9949 Y-0.0213
G2 X0.9737 Y-0.0318 I-0.0124 J-0.0017
G1 X0.9709 Y-0.0291 Z-0.3178 F30
X0.9682 Y-0.0264 Z-0.3187
X0.9657 Y-0.0238 Z-0.3202
X0.9633 Y-0.0215 Z-0.3223
X0.9612 Y-0.0193 Z-0.3248
X0.9594 Y-0.0175 Z-0.3278
X0.958 Y-0.0161 Z-0.3312
X0.9569 Y-0.015 Z-0.3348
X0.9562 Y-0.0144 Z-0.3386
X0.956 Y-0.0142 Z-0.3425
Z-0.41
X0.9558 Y-0.014 Z-0.4139
X0.9552 Y-0.0133 Z-0.4177
X0.9541 Y-0.0122 Z-0.4213
X0.9527 Y-0.0108 Z-0.4247
X0.9508 Y-0.009 Z-0.4277
X0.9487 Y-0.0069 Z-0.4302
X0.9464 Y-0.0045 Z-0.4323
X0.9438 Y-0.002 Z-0.4338
X0.9411 Y0.0007 Z-0.4347
X0.9383 Y0.0035 Z-0.435
X0.9377 Y0.0042
X0.0102 Y0.9316 F39.37
G3 X-0.048 Y0.8735 I-0.0291 J-0.0291
G1 X0.4139 Y0.4115
G3 X0.4158 Y0.4098 I0.0291 J0.0291
G1 X0.9086 Y-0.0249
G3 X0.9297 Y-0.0347 I0.0272 J0.0308
G1 X1.135 Y-0.0654
G3 X1.1702 Y0.0043 I0.0061 J0.0407
G1 X0.1786 Y0.9959
G3 X0.1205 Y0.9377 I-0.0291 J-0.0291
G1 X0.6145 Y0.4436
G3 X0.6163 Y0.4419 I0.0291 J0.0291
G1 X1.1411 Y-0.0248
G3 X1.1623 Y-0.0347 I0.0273 J0.0307
G1 X1.3679 Y-0.0657
G3 X1.4031 Y0.0041 I0.0061 J0.0407
G1 X0.4112 Y0.996
G3 X0.353 Y0.9378 I-0.0291 J-0.0291
G1 X0.8472 Y0.4435
G3 X0.849 Y0.4419 I0.0291 J0.0291
G1 X1.374 Y-0.025
G3 X1.3953 Y-0.035 I0.0273 J0.0307
G1 X1.6005 Y-0.0656
G3 X1.6356 Y0.0042 I0.0061 J0.0407
G1 X0.6441 Y0.9957
G3 X0.5859 Y0.9376 I-0.0291 J-0.0291
G1 X1.0799 Y0.4435
G3 X1.0817 Y0.4418 I0.0291 J0.0291
G1 X1.6066 Y-0.0249
G3 X1.6278 Y-0.0348 I0.0273 J0.0307
G1 X1.8333 Y-0.0654
G3 X1.8685 Y0.0043 I0.0061 J0.0407
G1 X1.8362 Y0.0366
X1.0862 Y0.7866
X0.8768 Y0.9959
G3 X0.8738 Y0.9985 I-0.0177 J-0.0177 F30
G1 X0.7727 Y1.072
X0.7696 Y1.0743 Z-0.4347
X0.7665 Y1.0765 Z-0.4338
X0.7635 Y1.0786 Z-0.4323
X0.7608 Y1.0806 Z-0.4302
X0.7584 Y1.0824 Z-0.4277
X0.7564 Y1.0839 Z-0.4247
X0.7547 Y1.0851 Z-0.4213
X0.7535 Y1.0859 Z-0.4177
X0.7527 Y1.0865 Z-0.4139
X0.7525 Y1.0867 Z-0.41
G0 Z0.6
X7.1608 Y1.1026
Z0.2394
G1 Z-0.175 F30
X7.1606 Y1.1024 Z-0.1789
X7.1599 Y1.1018 Z-0.1827
X7.1589 Y1.1007 Z-0.1863
X7.1574 Y1.0993 Z-0.1897
X7.1556 Y1.0975 Z-0.1927
X7.1535 Y1.0953 Z-0.1952
X7.1511 Y1.093 Z-0.1973
X7.1486 Y1.0904 Z-0.1988
X7.1459 Y1.0877 Z-0.1997
X7.1431 Y1.085 Z-0.2
X6.9896 Y0.9315
X6.0621 Y0.004 F39.37
G3 X6.1203 Y-0.0542 I0.0291 J-0.0291
G1 X6.5823 Y0.4077
G3 X6.584 Y0.4096 I-0.0291 J0.0291
G1 X7.0187 Y0.9024
G3 X6.9986 Y0.9693 I-0.0308 J0.0272
G1 X6.8611 Y1.0064
G3 X6.8213 Y0.9958 I-0.0107 J-0.0397
G1 X5.8297 Y0.0042
G3 X5.8879 Y-0.0539 I0.0291 J-0.0291
G1 X6.382 Y0.4401
G3 X6.3837 Y0.4419 I-0.0291 J0.0291
G1 X6.8504 Y0.9667
G3 X6.8141 Y1.0348 I-0.0307 J0.0273
G1 X6.6134 Y1.0074
G3 X6.5899 Y0.9957 I0.0056 J-0.0407
G1 X5.5995 Y0.0043
G3 X5.6577 Y-0.0538 I0.0291 J-0.0291
G1 X6.1513 Y0.4401
G3 X6.1529 Y0.4419 I-0.0291 J0.0291
G1 X6.619 Y0.9666
G3 X6.5828 Y1.0347 I-0.0307 J0.0273
G1 X6.3812 Y1.0075
G3 X6.3576 Y0.9959 I0.0055 J-0.0408
G1 X5.3668 Y0.0042
G3 X5.425 Y-0.054 I0.0291 J-0.0291
G1 X5.9187 Y0.4401
G3 X5.9204 Y0.4419 I-0.0291 J0.0291
G1 X6.3867 Y0.9668
G3 X6.3504 Y1.0349 I-0.0307 J0.0273
G1 X6.1465 Y1.0074
G3 X6.1229 Y0.9957 I0.0055 J-0.0408
G1 X5.9138 Y0.7866
X5.1638 Y0.0366
X5.1312 Y0.004
G3 X5.1287 Y0.0011 I0.0177 J-0.0177 F30
G1 X5.0552 Y-0.1001
X5.0529 Y-0.1032 Z-0.1997
X5.0507 Y-0.1063 Z-0.1988
X5.0486 Y-0.1093 Z-0.1973
X5.0466 Y-0.112 Z-0.1952
X5.0448 Y-0.1144 Z-0.1927
X5.0433 Y-0.1164 Z-0.1897
X5.0421 Y-0.1181 Z-0.1863
X5.0412 Y-0.1193 Z-0.1827
X5.0407 Y-0.1201 Z-0.1789
X5.0405 Y-0.1203 Z-0.175
G0 Z0.2394
X7.1608 Y1.1026
G1 Z-0.2925 F30
X7.1606 Y1.1024 Z-0.2964
X7.1599 Y1.1018 Z-0.3002
X7.1589 Y1.1007 Z-0.3038
X7.1574 Y1.0993 Z-0.3072
X7.1556 Y1.0975 Z-0.3102
X7.1535 Y1.0953 Z-0.3127
X7.1511 Y1.093 Z-0.3148
X7.1486 Y1.0904 Z-0.3163
X7.1459 Y1.0877 Z-0.3172
X7.1431 Y1.085 Z-0.3175
X6.9896 Y0.9315
X6.0621 Y0.004 F39.37
G3 X6.1203 Y-0.0542 I0.0291 J-0.0291
G1 X6.5823 Y0.4077
G3 X6.584 Y0.4096 I-0.0291 J0.0291
G1 X7.0187 Y0.9024
G3 X6.9986 Y0.9693 I-0.0308 J0.0272
G1 X6.8611 Y1.0064
G3 X6.8213 Y0.9958 I-0.0107 J-0.0397
G1 X5.8297 Y0.0042
G3 X5.8879 Y-0.0539 I0.0291 J-0.0291
G1 X6.382 Y0.4401
G3 X6.3837 Y0.4419 I-0.0291 J0.0291
G1 X6.8504 Y0.9667
G3 X6.8141 Y1.0348 I-0.0307 J0.0273
G1 X6.6134 Y1.0074
G3 X6.5899 Y0.9957 I0.0056 J-0.0407
G1 X5.5995 Y0.0043
G3 X5.6577 Y-0.0538 I0.0291 J-0.0291
G1 X6.1513 Y0.4401
G3 X6.1529 Y0.4419 I-0.0291 J0.0291
G1 X6.619 Y0.9666
G3 X6.5828 Y1.0347 I-0.0307 J0.0273
G1 X6.3812 Y1.0075
G3 X6.3576 Y0.9959 I0.0055 J-0.0408
G1 X5.3668 Y0.0042
G3 X5.425 Y-0.054 I0.0291 J-0.0291
G1 X5.9187 Y0.4401
G3 X5.9204 Y0.4419 I-0.0291 J0.0291
G1 X6.3867 Y0.9668
G3 X6.3504 Y1.0349 I-0.0307 J0.0273
G1 X6.1465 Y1.0074
G3 X6.1229 Y0.9957 I0.0055 J-0.0408
G1 X5.9138 Y0.7866
X5.1638 Y0.0366
X5.1312 Y0.004
G3 X5.1287 Y0.0011 I0.0177 J-0.0177 F30
G1 X5.0552 Y-0.1001
X5.0529 Y-0.1032 Z-0.3172
X5.0507 Y-0.1063 Z-0.3163
X5.0486 Y-0.1093 Z-0.3148
X5.0466 Y-0.112 Z-0.3127
X5.0448 Y-0.1144 Z-0.3102
X5.0433 Y-0.1164 Z-0.3072
X5.0421 Y-0.1181 Z-0.3038
X5.0412 Y-0.1193 Z-0.3002
X5.0407 Y-0.1201 Z-0.2964
X5.0405 Y-0.1203 Z-0.2925
G0 Z0.2394
X7.1608 Y1.1026
G1 Z-0.41 F30
X7.1606 Y1.1024 Z-0.4139
X7.1599 Y1.1018 Z-0.4177
X7.1589 Y1.1007 Z-0.4213
X7.1574 Y1.0993 Z-0.4247
X7.1556 Y1.0975 Z-0.4277
X7.1535 Y1.0953 Z-0.4302
X7.1511 Y1.093 Z-0.4323
X7.1486 Y1.0904 Z-0.4338
X7.1459 Y1.0877 Z-0.4347
X7.1431 Y1.085 Z-0.435
X6.9896 Y0.9315
X6.0621 Y0.004 F39.37
G3 X6.1203 Y-0.0542 I0.0291 J-0.0291
G1 X6.5823 Y0.4077
G3 X6.584 Y0.4096 I-0.0291 J0.0291
G1 X7.0187 Y0.9024
G3 X6.9986 Y0.9693 I-0.0308 J0.0272
G1 X6.8611 Y1.0064
G3 X6.8213 Y0.9958 I-0.0107 J-0.0397
G1 X5.8297 Y0.0042
G3 X5.8879 Y-0.0539 I0.0291 J-0.0291
G1 X6.382 Y0.4401
G3 X6.3837 Y0.4419 I-0.0291 J0.0291
G1 X6.8504 Y0.9667
G3 X6.8141 Y1.0348 I-0.0307 J0.0273
G1 X6.6134 Y1.0074
G3 X6.5899 Y0.9957 I0.0056 J-0.0407
G1 X5.5995 Y0.0043
G3 X5.6577 Y-0.0538 I0.0291 J-0.0291
G1 X6.1513 Y0.4401
G3 X6.1529 Y0.4419 I-0.0291 J0.0291
G1 X6.619 Y0.9666
G3 X6.5828 Y1.0347 I-0.0307 J0.0273
G1 X6.3812 Y1.0075
G3 X6.3576 Y0.9959 I0.0055 J-0.0408
G1 X5.3668 Y0.0042
G3 X5.425 Y-0.054 I0.0291 J-0.0291
G1 X5.9187 Y0.4401
G3 X5.9204 Y0.4419 I-0.0291 J0.0291
G1 X6.3867 Y0.9668
G3 X6.3504 Y1.0349 I-0.0307 J0.0273
G1 X6.1465 Y1.0074
G3 X6.1229 Y0.9957 I0.0055 J-0.0408
G1 X5.9138 Y0.7866
X5.1638 Y0.0366
X5.1312 Y0.004
G3 X5.1287 Y0.0011 I0.0177 J-0.0177 F30
G1 X5.0552 Y-0.1001
X5.0529 Y-0.1032 Z-0.4347
X5.0507 Y-0.1063 Z-0.4338
X5.0486 Y-0.1093 Z-0.4323
X5.0466 Y-0.112 Z-0.4302
X5.0448 Y-0.1144 Z-0.4277
X5.0433 Y-0.1164 Z-0.4247
X5.0421 Y-0.1181 Z-0.4213
X5.0412 Y-0.1193 Z-0.4177
X5.0407 Y-0.1201 Z-0.4139
X5.0405 Y-0.1203 Z-0.41
G0 Z0.6

(Drill2)
M9
X5.9808 Y0.5
Z0.6
Z0.2
Z-0.235
Z-0.355
G1 Z-0.4975 F13.12
G0 Z-0.235
Z-0.4175
G1 Z-0.56 F13.12
G0 Z-0.235
Z-0.48
G1 Z-0.6225 F13.12
G0 Z-0.235
Z-0.5425
G1 Z-0.685 F13.12
G0 Z-0.235
Z-0.605
G1 Z-0.7475 F13.12
G0 Z-0.235
Z-0.6675
G1 Z-0.81 F13.12
G0 Z0.2
X1.0192
Z-0.235
Z-0.355
G1 Z-0.4975 F13.12
G0 Z-0.235
Z-0.4175
G1 Z-0.56 F13.12
G0 Z-0.235
Z-0.48
G1 Z-0.6225 F13.12
G0 Z-0.235
Z-0.5425
G1 Z-0.685 F13.12
G0 Z-0.235
Z-0.605
G1 Z-0.7475 F13.12
G0 Z-0.235
Z-0.6675
G1 Z-0.81 F13.12
G0 Z0.2
Z0.6

(2D Contour3)
M9
X7.0875 Y0.8832
Z0.6
Z0.2394
G1 Z-0.175 F13.12
X7.0872 Z-0.1789
X7.0863 Y0.8833 Z-0.1827
X7.0848 Y0.8834 Z-0.1863
X7.0827 Y0.8836 Z-0.1897
X7.0802 Y0.8838 Z-0.1927
X7.0772 Y0.884 Z-0.1952
X7.0739 Y0.8843 Z-0.1973
X7.0703 Y0.8846 Z-0.1988
X7.0665 Y0.8849 Z-0.1997
X7.0626 Y0.8853 Z-0.2
X7.0377 Y0.8874 F30
G3 X7.0107 Y0.8645 I-0.0021 J-0.0249
G2 X6.9745 Y0.7866 I-0.1246 J0.0105 F39.37
G1 X6.2245 Y0.0366
G2 X6.1361 Y0 I-0.0884 J0.0884
G1 X0.8639
G2 X0.7755 Y0.0366 I0 J0.125
G1 X0.0255 Y0.7866
G2 X0.1139 Y1 I0.0884 J0.0884
G1 X6.8861
G2 X7.0107 Y0.8645 I0 J-0.125
G3 X7.0335 Y0.8375 I0.0249 J-0.0021 F30
G1 X7.0584 Y0.8354
X7.0623 Y0.8351 Z-0.1997
X7.0661 Y0.8348 Z-0.1988
X7.0697 Y0.8345 Z-0.1973
X7.073 Y0.8342 Z-0.1952
X7.076 Y0.834 Z-0.1927
X7.0785 Y0.8337 Z-0.1897
X7.0806 Y0.8336 Z-0.1863
X7.0821 Y0.8334 Z-0.1827
X7.083 Z-0.1789
X7.0833 Y0.8333 Z-0.175
G0 Z0.2
X7.0875 Y0.8832
G1 Z0.0394 F13.12
Z-0.375
X7.0872 Z-0.3789
X7.0863 Y0.8833 Z-0.3827
X7.0848 Y0.8834 Z-0.3863
X7.0827 Y0.8836 Z-0.3897
X7.0802 Y0.8838 Z-0.3927
X7.0772 Y0.884 Z-0.3952
X7.0739 Y0.8843 Z-0.3973
X7.0703 Y0.8846 Z-0.3988
X7.0665 Y0.8849 Z-0.3997
X7.0626 Y0.8853 Z-0.4
X7.0377 Y0.8874 F30
G3 X7.0107 Y0.8645 I-0.0021 J-0.0249
G2 X6.9745 Y0.7866 I-0.1246 J0.0105 F39.37
G1 X6.2245 Y0.0366
G2 X6.1361 Y0 I-0.0884 J0.0884
G1 X0.8639
G2 X0.7755 Y0.0366 I0 J0.125
G1 X0.0255 Y0.7866
G2 X0.1139 Y1 I0.0884 J0.0884
G1 X6.8861
G2 X7.0107 Y0.8645 I0 J-0.125
G3 X7.0335 Y0.8375 I0.0249 J-0.0021 F30
G1 X7.0584 Y0.8354
X7.0623 Y0.8351 Z-0.3997
X7.0661 Y0.8348 Z-0.3988
X7.0697 Y0.8345 Z-0.3973
X7.073 Y0.8342 Z-0.3952
X7.076 Y0.834 Z-0.3927
X7.0785 Y0.8337 Z-0.3897
X7.0806 Y0.8336 Z-0.3863
X7.0821 Y0.8334 Z-0.3827
X7.083 Z-0.3789
X7.0833 Y0.8333 Z-0.375
G0 Z0.2
X7.0875 Y0.8832
G1 Z-0.1606 F13.12
Z-0.575
X7.0872 Z-0.5789
X7.0863 Y0.8833 Z-0.5827
X7.0848 Y0.8834 Z-0.5863
X7.0827 Y0.8836 Z-0.5897
X7.0802 Y0.8838 Z-0.5927
X7.0772 Y0.884 Z-0.5952
X7.0739 Y0.8843 Z-0.5973
X7.0703 Y0.8846 Z-0.5988
X7.0665 Y0.8849 Z-0.5997
X7.0626 Y0.8853 Z-0.6
X7.0377 Y0.8874 F30
G3 X7.0107 Y0.8645 I-0.0021 J-0.0249
G2 X6.9745 Y0.7866 I-0.1246 J0.0105 F39.37
G1 X6.2245 Y0.0366
G2 X6.1361 Y0 I-0.0884 J0.0884
G1 X0.8639
G2 X0.7755 Y0.0366 I0 J0.125
G1 X0.0255 Y0.7866
G2 X0.1139 Y1 I0.0884 J0.0884
G1 X6.8861
G2 X7.0107 Y0.8645 I0 J-0.125
G3 X7.0335 Y0.8375 I0.0249 J-0.0021 F30
G1 X7.0584 Y0.8354
X7.0623 Y0.8351 Z-0.5997
X7.0661 Y0.8348 Z-0.5988
X7.0697 Y0.8345 Z-0.5973
X7.073 Y0.8342 Z-0.5952
X7.076 Y0.834 Z-0.5927
X7.0785 Y0.8337 Z-0.5897
X7.0806 Y0.8336 Z-0.5863
X7.0821 Y0.8334 Z-0.5827
X7.083 Z-0.5789
X7.0833 Y0.8333 Z-0.575
G0 Z0.2
X7.0875 Y0.8832
G1 Z-0.3606 F13.12
Z-0.685
X7.0872 Z-0.6889
X7.0863 Y0.8833 Z-0.6927
X7.0848 Y0.8834 Z-0.6963
X7.0827 Y0.8836 Z-0.6997
X7.0802 Y0.8838 Z-0.7027
X7.0772 Y0.884 Z-0.7052
X7.0739 Y0.8843 Z-0.7073
X7.0703 Y0.8846 Z-0.7088
X7.0665 Y0.8849 Z-0.7097
X7.0626 Y0.8853 Z-0.71
X7.0377 Y0.8874 F30
G3 X7.0107 Y0.8645 I-0.0021 J-0.0249
G2 X6.9745 Y0.7866 I-0.1246 J0.0105 F39.37
G1 X6.2245 Y0.0366
G2 X6.1361 Y0 I-0.0884 J0.0884
G1 X5.0681
Z-0.695
X4.5681
Z-0.71 F13.12
X2.4319 F39.37
Z-0.695
X1.9319
Z-0.71 F13.12
X0.8639 F39.37
G2 X0.7755 Y0.0366 I0 J0.125
G1 X0.0255 Y0.7866
G2 X0.1139 Y1 I0.0884 J0.0884
G1 X0.9926
Z-0.695
X1.4926
Z-0.71 F13.12
X3.25 F39.37
Z-0.695
X3.75
Z-0.71 F13.12
X5.5074 F39.37
Z-0.695
X6.0074
Z-0.71 F13.12
X6.8861 F39.37
G2 X7.0107 Y0.8645 I0 J-0.125
G3 X7.0335 Y0.8375 I0.0249 J-0.0021 F30
G1 X7.0584 Y0.8354
X7.0623 Y0.8351 Z-0.7097
X7.0661 Y0.8348 Z-0.7088
X7.0697 Y0.8345 Z-0.7073
X7.073 Y0.8342 Z-0.7052
X7.076 Y0.834 Z-0.7027
X7.0785 Y0.8337 Z-0.6997
X7.0806 Y0.8336 Z-0.6963
X7.0821 Y0.8334 Z-0.6927
X7.083 Z-0.6889
X7.0833 Y0.8333 Z-0.685
G0 Z0.2
X7.0875 Y0.8832
G1 Z-0.4706 F13.12
Z-0.795
X7.0872 Z-0.7989
X7.0863 Y0.8833 Z-0.8027
X7.0848 Y0.8834 Z-0.8063
X7.0827 Y0.8836 Z-0.8097
X7.0802 Y0.8838 Z-0.8127
X7.0772 Y0.884 Z-0.8152
X7.0739 Y0.8843 Z-0.8173
X7.0703 Y0.8846 Z-0.8188
X7.0665 Y0.8849 Z-0.8197
X7.0626 Y0.8853 Z-0.82
X7.0377 Y0.8874 F30
G3 X7.0107 Y0.8645 I-0.0021 J-0.0249
G2 X6.9745 Y0.7866 I-0.1246 J0.0105 F39.37
G1 X6.2245 Y0.0366
G2 X6.1361 Y0 I-0.0884 J0.0884
G1 X5.0681
Z-0.695
X4.5681
Z-0.82 F13.12
X2.4319 F39.37
Z-0.695
X1.9319
Z-0.82 F13.12
X0.8639 F39.37
G2 X0.7755 Y0.0366 I0 J0.125
G1 X0.0255 Y0.7866
G2 X0.1139 Y1 I0.0884 J0.0884
G1 X0.9926
Z-0.695
X1.4926
Z-0.82 F13.12
X3.25 F39.37
Z-0.695
X3.75
Z-0.82 F13.12
X5.5074 F39.37
Z-0.695
X6.0074
Z-0.82 F13.12
X6.8861 F39.37
G2 X7.0107 Y0.8645 I0 J-0.125
G3 X7.0335 Y0.8375 I0.0249 J-0.0021 F30
G1 X7.0584 Y0.8354
X7.0623 Y0.8351 Z-0.8197
X7.0661 Y0.8348 Z-0.8188
X7.0697 Y0.8345 Z-0.8173
X7.073 Y0.8342 Z-0.8152
X7.076 Y0.834 Z-0.8127
X7.0785 Y0.8337 Z-0.8097
X7.0806 Y0.8336 Z-0.8063
X7.0821 Y0.8334 Z-0.8027
X7.083 Z-0.7989
X7.0833 Y0.8333 Z-0.795
G0 Z0.6
M9
G28 G91 Z0
G28 X0 Y0
M30
%
